; generated by SuperSlicer 2.3.56 on 2022-04-20 at 16:29:18 UTC

; 

; external perimeters extrusion width = 0.42mm
; perimeters extrusion width = 0.45mm
; infill extrusion width = 0.45mm
; solid infill extrusion width = 0.45mm
; top infill extrusion width = 0.42mm
; support material extrusion width = 0.42mm
; first layer extrusion width = 0.56mm

; object:{"name":"ailerons","id":"ailerons.stl id:0 copy 0","object_center":[100.501004,73.580792,0.000000],"boundingbox_center":[100.501004,73.580792,25.613430],"boundingbox_size":[71.500008,18.547246,51.226859]}
; object:{"name":"ailerons","id":"ailerons.stl id:0 copy 1","object_center":[100.425851,98.344600,0.000000],"boundingbox_center":[100.425851,98.344600,25.613430],"boundingbox_size":[71.500008,18.547246,51.226859]}
; object:{"name":"ailerons","id":"ailerons.stl id:0 copy 2","object_center":[100.438589,49.300709,0.000000],"boundingbox_center":[100.438589,49.300709,25.613430],"boundingbox_size":[71.500008,18.547246,51.226859]}
; object:{"name":"ailerons","id":"ailerons.stl id:0 copy 3","object_center":[100.000000,124.547184,0.000000],"boundingbox_center":[100.000000,124.547184,25.613430],"boundingbox_size":[71.500008,18.547246,51.226859]}
; plater:{"center":[100.250502,86.923946,0.000000],"boundingbox_center":[100.250502,86.923946,25.613430],"boundingbox_size":[72.001012,93.793721,51.226859]}

M140 S60 ; set bed temperature
;TYPE:Custom
G28 ; home all axes
G1 Z5 F5000 ; lift nozzle
M107
G21 ; set units to millimeters
G90 ; use absolute coordinates
M82 ; use absolute distances for extrusion
G92 E0
; Filament gcode
M109 S210 ; set temperature and wait for it to be reached
M190 S60 ; set bed temperature and wait for it to be reached
;LAYER_CHANGE
;Z:0.3
;HEIGHT:0.3
G1 Z0.300000 F7800
G1 E-2.00000 F2400
G1 X55.674 Y34.141 F7800
G1 E0.00000 F2400
;TYPE:Skirt
;WIDTH:0.56
G1 F1800
G1 X56.377 Y33.305 E0.07151
G1 X57.214 Y32.605 E0.14302
G1 X58.160 Y32.061 E0.21452
G1 X59.187 Y31.690 E0.28603
G1 X60.423 Y31.492 E0.36801
G1 X66.509 Y31.262 E0.76695
G1 X134.141 Y31.258 E5.19727
G1 X140.692 Y31.510 E5.62673
G1 X141.777 Y31.714 E5.69904
G1 X142.804 Y32.102 E5.77096
G1 X144.140 Y32.973 E5.87544
G1 X145.212 Y34.154 E5.97992
G1 X145.950 Y35.568 E6.08441
G1 X146.306 Y37.122 E6.18889
G1 X146.398 Y62.009 E7.81911
G1 X146.322 Y110.233 E10.97806
G1 X145.889 Y136.672 E12.71024
G1 X145.781 Y137.541 E12.76763
G1 X145.555 Y138.382 E12.82462
G1 X145.214 Y139.182 E12.88161
G1 X144.762 Y139.933 E12.93901
G1 X143.785 Y141.026 E13.03506
G1 X142.579 Y141.860 E13.13111
G1 X141.212 Y142.391 E13.22717
G1 X139.760 Y142.589 E13.32322
G1 X60.264 Y142.589 E18.53066
G1 X59.336 Y142.507 E18.59169
G1 X58.425 Y142.286 E18.65312
G1 X57.562 Y141.933 E18.71414
G1 X56.762 Y141.457 E18.77517
G1 X55.661 Y140.470 E18.87202
G1 X54.822 Y139.252 E18.96888
G1 X54.293 Y137.872 E19.06574
G1 X54.103 Y136.405 E19.16259
G1 X54.103 Y112.944 E20.69943
G1 X54.542 Y37.631 E25.63303
G1 X54.626 Y36.703 E25.69405
G1 X54.847 Y35.798 E25.75508
G1 X55.198 Y34.941 E25.81570
G1 X55.643 Y34.192 E25.87280
; INIT printing object ailerons.stl id:0 copy 0
G92 E0
G1 E-2.00000 F2400
; printing object ailerons.stl id:0 copy 0
G1 X137.643 Y82.382 F7800
G1 E0.00000 F2400
;TYPE:Support material interface
;WIDTH:0.42
G1 F1800
G1 X137.643 Y64.950 E0.81935
G1 X137.266 Y64.950 E0.83708
G1 X137.266 Y82.212 E1.64846
G1 X136.889 Y82.212 E1.66618
G1 X136.889 Y64.950 E2.47756
G1 X136.523 Y64.950 E2.49478
G1 X136.685 Y65.602 E2.52640
G1 X136.512 Y65.823 E2.53956
G1 X136.512 Y82.382 E3.31786
G92 E0
G1 E-2.00000 F2400
G1 X136.135 Y79.418 F7800
G1 E0.00000 F2400
G1 F1800
G1 X136.135 Y67.913 E0.54078
G1 X135.758 Y67.913 E0.55850
G1 X135.758 Y79.249 E1.09131
G1 X135.381 Y79.249 E1.10903
G1 X135.381 Y67.913 E1.64183
G1 X135.004 Y67.913 E1.65956
G1 X135.004 Y79.249 E2.19236
G1 X134.627 Y79.249 E2.21008
G1 X134.627 Y67.913 E2.74288
G1 X134.250 Y67.913 E2.76061
G1 X134.250 Y79.249 E3.29341
G1 X133.872 Y79.249 E3.31113
G1 X133.872 Y67.913 E3.84394
G1 X133.495 Y67.913 E3.86166
G1 X133.495 Y79.249 E4.39446
G1 X133.118 Y79.249 E4.41219
G1 X133.118 Y67.913 E4.94499
G1 X132.741 Y67.913 E4.96271
G1 X132.741 Y79.249 E5.49552
G1 X132.364 Y79.249 E5.51324
G1 X132.364 Y67.913 E6.04604
G1 X131.987 Y67.913 E6.06377
G1 X131.987 Y79.249 E6.59657
G1 X131.610 Y79.249 E6.61429
G1 X131.610 Y76.458 E6.74547
G1 X131.233 Y76.458 E6.76319
G1 X131.233 Y79.249 E6.89436
G1 X130.856 Y79.249 E6.91209
G1 X130.856 Y76.458 E7.04326
G1 X130.479 Y76.458 E7.06098
G1 X130.479 Y79.249 E7.19215
G1 X130.102 Y79.249 E7.20988
G1 X130.102 Y76.458 E7.34105
G1 X129.725 Y76.458 E7.35877
G1 X129.725 Y79.249 E7.48995
G1 X129.347 Y79.249 E7.50767
G1 X129.347 Y76.458 E7.63884
G1 X128.970 Y76.458 E7.65656
G1 X128.970 Y79.249 E7.78774
G1 X128.593 Y79.249 E7.80546
G1 X128.593 Y76.458 E7.93663
G1 X128.216 Y76.458 E7.95436
G1 X128.216 Y79.249 E8.08553
G1 X127.839 Y79.249 E8.10325
G1 X127.839 Y76.458 E8.23442
G1 X127.462 Y76.458 E8.25215
G1 X127.462 Y79.249 E8.38332
G1 X127.085 Y79.249 E8.40104
G1 X127.085 Y76.458 E8.53222
G1 X126.708 Y76.458 E8.54994
G1 X126.708 Y79.249 E8.68111
G1 X126.331 Y79.249 E8.69884
G1 X126.331 Y76.458 E8.83001
G1 X125.954 Y76.458 E8.84773
G1 X125.954 Y79.249 E8.97890
G1 X125.577 Y79.249 E8.99663
G1 X125.577 Y76.458 E9.12780
G1 X125.200 Y76.458 E9.14552
G1 X125.200 Y79.249 E9.27669
G1 X124.823 Y79.249 E9.29442
G1 X124.823 Y76.458 E9.42559
G1 X124.445 Y76.458 E9.44331
G1 X124.445 Y79.249 E9.57449
G1 X124.068 Y79.249 E9.59221
G1 X124.068 Y76.458 E9.72338
G1 X123.691 Y76.458 E9.74110
G1 X123.691 Y79.249 E9.87228
G1 X123.314 Y79.249 E9.89000
G1 X123.314 Y76.458 E10.02117
G1 X122.937 Y76.458 E10.03889
G1 X122.937 Y79.249 E10.17007
G1 X122.560 Y79.249 E10.18779
G1 X122.560 Y76.458 E10.31896
G1 X122.183 Y76.458 E10.33669
G1 X122.183 Y79.249 E10.46786
G1 X121.806 Y79.249 E10.48558
G1 X121.806 Y76.458 E10.61675
G1 X121.429 Y76.458 E10.63448
G1 X121.429 Y79.249 E10.76565
G1 X121.052 Y79.249 E10.78337
G1 X121.052 Y76.458 E10.91454
G1 X120.675 Y76.458 E10.93227
G1 X120.675 Y79.249 E11.06344
G1 X120.298 Y79.249 E11.08116
G1 X120.298 Y76.458 E11.21233
G1 X119.921 Y76.458 E11.23006
G1 X119.921 Y79.249 E11.36123
G1 X119.543 Y79.249 E11.37895
G1 X119.543 Y76.458 E11.51012
G1 X119.166 Y76.458 E11.52785
G1 X119.166 Y79.249 E11.65902
G1 X118.789 Y79.249 E11.67674
G1 X118.789 Y76.458 E11.80791
G1 X118.412 Y76.458 E11.82564
G1 X118.412 Y79.249 E11.95681
G1 X118.035 Y79.249 E11.97453
G1 X118.035 Y76.458 E12.10570
G1 X117.658 Y76.458 E12.12343
G1 X117.658 Y79.249 E12.25460
G1 X117.281 Y79.249 E12.27232
G1 X117.281 Y76.458 E12.40349
G1 X116.904 Y76.458 E12.42122
G1 X116.904 Y79.249 E12.55239
G1 X116.527 Y79.249 E12.57011
G1 X116.527 Y76.458 E12.70128
G1 X116.150 Y76.458 E12.71901
G1 X116.150 Y79.249 E12.85018
G1 X115.773 Y79.249 E12.86790
G1 X115.773 Y76.458 E12.99907
G1 X115.396 Y76.458 E13.01680
G1 X115.396 Y79.249 E13.14797
G1 X115.018 Y79.249 E13.16569
G1 X115.018 Y76.458 E13.29686
G1 X114.641 Y76.458 E13.31459
G1 X114.641 Y79.249 E13.44576
G1 X114.264 Y79.249 E13.46348
G1 X114.264 Y76.458 E13.59465
G1 X113.887 Y76.458 E13.61238
G1 X113.887 Y79.249 E13.74355
G1 X113.510 Y79.249 E13.76127
G1 X113.510 Y76.458 E13.89244
G1 X113.133 Y76.458 E13.91017
G1 X113.133 Y79.249 E14.04134
G1 X112.756 Y79.249 E14.05906
G1 X112.756 Y76.458 E14.19023
G1 X112.379 Y76.458 E14.20795
G1 X112.379 Y79.249 E14.33913
G1 X112.002 Y79.249 E14.35685
G1 X112.002 Y76.458 E14.48802
G1 X111.625 Y76.458 E14.50574
G1 X111.625 Y79.249 E14.63691
G1 X111.248 Y79.249 E14.65464
G1 X111.248 Y76.458 E14.78581
G1 X110.871 Y76.458 E14.80353
G1 X110.871 Y79.249 E14.93470
G1 X110.494 Y79.249 E14.95243
G1 X110.494 Y76.458 E15.08360
G1 X110.116 Y76.458 E15.10132
G1 X110.116 Y79.249 E15.23249
G1 X109.739 Y79.249 E15.25022
G1 X109.739 Y76.458 E15.38139
G1 X109.362 Y76.458 E15.39911
G1 X109.362 Y79.249 E15.53028
G1 X108.985 Y79.249 E15.54801
G1 X108.985 Y76.458 E15.67918
G1 X108.608 Y76.458 E15.69690
G1 X108.608 Y79.249 E15.82807
G1 X108.231 Y79.249 E15.84579
G1 X108.231 Y76.458 E15.97696
G1 X107.854 Y76.458 E15.99469
G1 X107.854 Y79.249 E16.12586
G1 X107.477 Y79.249 E16.14358
G1 X107.477 Y76.458 E16.27475
G1 X107.100 Y76.458 E16.29248
G1 X107.100 Y79.249 E16.42365
G1 X106.723 Y79.249 E16.44137
G1 X106.723 Y76.458 E16.57254
G1 X106.346 Y76.458 E16.59026
G1 X106.346 Y79.249 E16.72144
G1 X105.969 Y79.249 E16.73916
G1 X105.969 Y76.458 E16.87033
G1 X105.592 Y76.458 E16.88805
G1 X105.592 Y79.249 E17.01922
G1 X105.214 Y79.249 E17.03695
G1 X105.214 Y76.458 E17.16812
G1 X104.837 Y76.458 E17.18584
G1 X104.837 Y79.249 E17.31701
G1 X104.460 Y79.249 E17.33474
G1 X104.460 Y76.458 E17.46591
G1 X104.083 Y76.458 E17.48363
G1 X104.083 Y79.249 E17.61480
G1 X103.706 Y79.249 E17.63252
G1 X103.706 Y76.458 E17.76369
G1 X103.329 Y76.458 E17.78142
G1 X103.329 Y79.249 E17.91259
G1 X102.952 Y79.249 E17.93031
G1 X102.952 Y76.458 E18.06148
G1 X102.575 Y76.458 E18.07920
G1 X102.575 Y79.249 E18.21037
G1 X102.198 Y79.249 E18.22810
G1 X102.198 Y76.458 E18.35927
G1 X101.821 Y76.458 E18.37699
G1 X101.821 Y79.249 E18.50816
G1 X101.444 Y79.249 E18.52589
G1 X101.444 Y76.458 E18.65706
G1 X101.067 Y76.458 E18.67478
G1 X101.067 Y79.249 E18.80595
G1 X100.689 Y79.249 E18.82367
G1 X100.689 Y76.458 E18.95484
G1 X100.312 Y76.458 E18.97257
G1 X100.312 Y79.249 E19.10374
G1 X99.935 Y79.249 E19.12146
G1 X99.935 Y76.458 E19.25263
G1 X99.558 Y76.458 E19.27035
G1 X99.558 Y79.249 E19.40152
G1 X99.181 Y79.249 E19.41925
G1 X99.181 Y76.458 E19.55042
G1 X98.804 Y76.458 E19.56814
G1 X98.804 Y79.249 E19.69931
G1 X98.427 Y79.249 E19.71704
G1 X98.427 Y76.458 E19.84821
G1 X98.050 Y76.458 E19.86593
G1 X98.050 Y79.249 E19.99710
G1 X97.673 Y79.249 E20.01482
G1 X97.673 Y76.458 E20.14599
G1 X97.296 Y76.458 E20.16372
G1 X97.296 Y79.249 E20.29489
G1 X96.919 Y79.249 E20.31261
G1 X96.919 Y76.458 E20.44378
G1 X96.542 Y76.458 E20.46150
G1 X96.542 Y79.249 E20.59267
G1 X96.165 Y79.249 E20.61040
G1 X96.165 Y76.458 E20.74157
G1 X95.787 Y76.458 E20.75929
G1 X95.787 Y79.249 E20.89046
G1 X95.410 Y79.249 E20.90818
G1 X95.410 Y76.458 E21.03935
G1 X95.033 Y76.458 E21.05708
G1 X95.033 Y79.249 E21.18825
G1 X94.656 Y79.249 E21.20597
G1 X94.656 Y76.458 E21.33714
G1 X94.279 Y76.458 E21.35486
G1 X94.279 Y79.249 E21.48603
G1 X93.902 Y79.249 E21.50376
G1 X93.902 Y76.458 E21.63493
G1 X93.525 Y76.458 E21.65265
G1 X93.525 Y79.249 E21.78382
G1 X93.148 Y79.249 E21.80154
G1 X93.148 Y76.458 E21.93271
G1 X92.771 Y76.458 E21.95043
G1 X92.771 Y79.249 E22.08160
G1 X92.394 Y79.249 E22.09933
G1 X92.394 Y76.458 E22.23050
G1 X92.017 Y76.458 E22.24822
G1 X92.017 Y79.249 E22.37939
G1 X91.640 Y79.249 E22.39711
G1 X91.640 Y76.458 E22.52828
G1 X91.263 Y76.458 E22.54601
G1 X91.263 Y79.249 E22.67718
G1 X90.885 Y79.249 E22.69490
G1 X90.885 Y76.458 E22.82607
G1 X90.508 Y76.458 E22.84379
G1 X90.508 Y79.249 E22.97496
G1 X90.131 Y79.249 E22.99269
G1 X90.131 Y76.458 E23.12386
G1 X89.754 Y76.458 E23.14158
G1 X89.754 Y79.249 E23.27275
G1 X89.377 Y79.249 E23.29047
G1 X89.377 Y76.458 E23.42164
G1 X89.000 Y76.458 E23.43936
G1 X89.000 Y79.249 E23.57053
G1 X88.623 Y79.249 E23.58826
G1 X88.623 Y76.458 E23.71943
G1 X88.246 Y76.458 E23.73715
G1 X88.246 Y79.249 E23.86832
G1 X87.869 Y79.249 E23.88604
G1 X87.869 Y76.458 E24.01721
G1 X87.492 Y76.458 E24.03494
G1 X87.492 Y79.249 E24.16610
G1 X87.115 Y79.249 E24.18383
G1 X87.115 Y76.458 E24.31500
G1 X86.738 Y76.458 E24.33272
G1 X86.738 Y79.249 E24.46389
G1 X86.360 Y79.249 E24.48161
G1 X86.360 Y76.458 E24.61278
G1 X85.983 Y76.458 E24.63051
G1 X85.983 Y79.249 E24.76167
G1 X85.606 Y79.249 E24.77940
G1 X85.606 Y76.458 E24.91057
G1 X85.229 Y76.458 E24.92829
G1 X85.229 Y79.249 E25.05946
G1 X84.852 Y79.249 E25.07718
G1 X84.852 Y76.458 E25.20835
G1 X84.475 Y76.458 E25.22608
G1 X84.475 Y79.249 E25.35724
G1 X84.098 Y79.249 E25.37497
G1 X84.098 Y76.458 E25.50614
G1 X83.721 Y76.458 E25.52386
G1 X83.721 Y79.249 E25.65503
G1 X83.344 Y79.249 E25.67275
G1 X83.344 Y76.458 E25.80392
G1 X82.967 Y76.458 E25.82165
G1 X82.967 Y79.249 E25.95281
G1 X82.590 Y79.249 E25.97054
G1 X82.590 Y76.458 E26.10171
G1 X82.213 Y76.458 E26.11943
G1 X82.213 Y79.249 E26.25060
G1 X81.836 Y79.249 E26.26832
G1 X81.836 Y76.458 E26.39949
G1 X81.458 Y76.458 E26.41721
G1 X81.458 Y79.249 E26.54838
G1 X81.081 Y79.249 E26.56611
G1 X81.081 Y76.458 E26.69728
G1 X80.704 Y76.458 E26.71500
G1 X80.704 Y79.249 E26.84617
G1 X80.327 Y79.249 E26.86389
G1 X80.327 Y76.458 E26.99506
G1 X79.950 Y76.458 E27.01278
G1 X79.950 Y79.249 E27.14395
G1 X79.573 Y79.249 E27.16168
G1 X79.573 Y76.458 E27.29284
G1 X79.196 Y76.458 E27.31057
G1 X79.196 Y79.249 E27.44174
G1 X78.819 Y79.249 E27.45946
G1 X78.819 Y76.458 E27.59063
G1 X78.442 Y76.458 E27.60835
G1 X78.442 Y79.249 E27.73952
G1 X78.065 Y79.249 E27.75724
G1 X78.065 Y76.458 E27.88841
G1 X77.688 Y76.458 E27.90614
G1 X77.688 Y79.249 E28.03730
G1 X77.311 Y79.249 E28.05503
G1 X77.311 Y76.458 E28.18620
G1 X76.934 Y76.458 E28.20392
G1 X76.934 Y79.249 E28.33509
G1 X76.556 Y79.249 E28.35281
G1 X76.556 Y76.458 E28.48398
G1 X76.179 Y76.458 E28.50170
G1 X76.179 Y79.249 E28.63287
G1 X75.802 Y79.249 E28.65059
G1 X75.802 Y76.458 E28.78176
G1 X75.425 Y76.458 E28.79949
G1 X75.425 Y79.249 E28.93065
G1 X75.048 Y79.249 E28.94838
G1 X75.048 Y76.458 E29.07955
G1 X74.671 Y76.458 E29.09727
G1 X74.671 Y79.249 E29.22844
G1 X74.294 Y79.249 E29.24616
G1 X74.294 Y76.458 E29.37733
G1 X73.917 Y76.458 E29.39505
G1 X73.917 Y79.249 E29.52622
G1 X73.540 Y79.249 E29.54394
G1 X73.540 Y76.458 E29.67511
G1 X73.163 Y76.458 E29.69284
G1 X73.163 Y79.249 E29.82400
G1 X72.786 Y79.249 E29.84173
G1 X72.786 Y76.458 E29.97290
G1 X72.409 Y76.458 E29.99062
G1 X72.409 Y79.249 E30.12179
G1 X72.031 Y79.248 E30.13951
G1 X72.031 Y76.458 E30.27068
G1 X71.654 Y76.458 E30.28840
G1 X71.654 Y79.248 E30.41957
G1 X71.277 Y79.248 E30.43729
G1 X71.277 Y76.458 E30.56846
G1 X70.900 Y76.458 E30.58619
G1 X70.900 Y79.248 E30.71735
G1 X70.523 Y79.248 E30.73508
G1 X70.523 Y76.458 E30.86624
G1 X70.146 Y76.458 E30.88397
G1 X70.146 Y79.248 E31.01514
G1 X69.769 Y79.248 E31.03286
G1 X69.769 Y76.458 E31.16403
G1 X69.392 Y76.458 E31.18175
G1 X69.392 Y79.248 E31.31292
G1 X69.015 Y79.248 E31.33064
G1 X69.015 Y67.913 E31.86344
G1 X69.392 Y67.913 E31.88117
G1 X69.392 Y70.704 E32.01234
G1 X69.769 Y70.704 E32.03007
G1 X69.769 Y67.913 E32.16124
G1 X70.146 Y67.913 E32.17897
G1 X70.146 Y70.704 E32.31014
G1 X70.523 Y70.704 E32.32787
G1 X70.523 Y67.913 E32.45904
G1 X70.900 Y67.913 E32.47677
G1 X70.900 Y70.704 E32.60794
G1 X71.277 Y70.704 E32.62567
G1 X71.277 Y67.913 E32.75684
G1 X71.654 Y67.913 E32.77457
G1 X71.654 Y70.704 E32.90574
G1 X72.031 Y70.704 E32.92347
G1 X72.031 Y67.913 E33.05465
G1 X72.409 Y67.913 E33.07237
G1 X72.409 Y70.704 E33.20355
G1 X72.786 Y70.704 E33.22127
G1 X72.786 Y67.913 E33.35245
G1 X73.163 Y67.913 E33.37017
G1 X73.163 Y70.704 E33.50135
G1 X73.540 Y70.704 E33.51907
G1 X73.540 Y67.913 E33.65025
G1 X73.917 Y67.913 E33.66797
G1 X73.917 Y70.704 E33.79915
G1 X74.294 Y70.704 E33.81687
G1 X74.294 Y67.913 E33.94805
G1 X74.671 Y67.913 E33.96577
G1 X74.671 Y70.704 E34.09695
G1 X75.048 Y70.704 E34.11467
G1 X75.048 Y67.913 E34.24585
G1 X75.425 Y67.913 E34.26357
G1 X75.425 Y70.704 E34.39475
G1 X75.802 Y70.704 E34.41247
G1 X75.802 Y67.913 E34.54365
G1 X76.179 Y67.913 E34.56137
G1 X76.179 Y70.704 E34.69255
G1 X76.556 Y70.704 E34.71027
G1 X76.556 Y67.913 E34.84145
G1 X76.934 Y67.913 E34.85917
G1 X76.934 Y70.704 E34.99035
G1 X77.311 Y70.704 E35.00807
G1 X77.311 Y67.913 E35.13925
G1 X77.688 Y67.913 E35.15697
G1 X77.688 Y70.704 E35.28815
G1 X78.065 Y70.704 E35.30587
G1 X78.065 Y67.913 E35.43705
G1 X78.442 Y67.913 E35.45477
G1 X78.442 Y70.704 E35.58595
G1 X78.819 Y70.704 E35.60367
G1 X78.819 Y67.913 E35.73485
G1 X79.196 Y67.913 E35.75257
G1 X79.196 Y70.704 E35.88375
G1 X79.573 Y70.704 E35.90147
G1 X79.573 Y67.913 E36.03265
G1 X79.950 Y67.913 E36.05037
G1 X79.950 Y70.704 E36.18155
G1 X80.327 Y70.704 E36.19927
G1 X80.327 Y67.913 E36.33045
G1 X80.704 Y67.913 E36.34817
G1 X80.704 Y70.704 E36.47935
G1 X81.081 Y70.704 E36.49707
G1 X81.081 Y67.913 E36.62825
G1 X81.458 Y67.913 E36.64597
G1 X81.458 Y70.704 E36.77715
