; generated by SuperSlicer 2.3.57 on 2022-09-02 at 22:13:48 UTC

; 

; external perimeters extrusion width = 0.42mm
; perimeters extrusion width = 0.46mm
; infill extrusion width = 0.44mm
; solid infill extrusion width = 0.46mm
; top infill extrusion width = 0.44mm
; first layer extrusion width = 0.60mm

; object:{"name":"Croc_Tiffinanou_V7-Attache_Facade_V1","id":"Croc_Tiffinanou_V7-Attache_Facade_V1.stl id:0 copy 0","object_center":[100.000000,100.000000,0.000000],"boundingbox_center":[100.000000,100.000000,11.000000],"boundingbox_size":[64.999859,29.999847,22.000000]}
; plater:{"center":[100.000000,100.000000,0.000000],"boundingbox_center":[100.000000,100.000000,11.000000],"boundingbox_size":[64.999859,29.999847,22.000000]}

M140 S60 ; set bed temperature
M104 S210 ; set temperature
;TYPE:Custom
G28 ; home all axes
G1 Z5 F5000 ; lift nozzle
M107
G21 ; set units to millimeters
G90 ; use absolute coordinates
M82 ; use absolute distances for extrusion
G92 E0
; Filament gcode
M109 S210 ; set temperature and wait for it to be reached
M190 S60 ; set bed temperature and wait for it to be reached
;LAYER_CHANGE
;Z:0.3
;HEIGHT:0.3
G1 Z0.3 F7800
G1 E-2 F2400
G1 X67.633 Y82.389 F7800
G1 E0 F2400
;TYPE:Skirt
;WIDTH:0.44
G1 F1800
G1 X67.127 Y82.804 E0.03212
G1 X65.696 Y84.2 E0.1302
G1 X64.393 Y85.711 E0.22809
G1 X63.264 Y87.272 E0.32261
G1 X62.357 Y88.762 E0.40819
G1 X61.518 Y90.419 E0.49934
G1 X60.789 Y92.211 E0.59428
G1 X60.207 Y94.078 E0.69019
G1 X59.825 Y95.77 E0.77531
G1 X59.545 Y97.738 E0.87286
G1 X59.436 Y99.705 E0.96955
G1 X59.495 Y101.681 E1.0665
G1 X59.724 Y103.643 E1.16343
G1 X60.059 Y105.331 E1.24789
G1 X60.59 Y107.211 E1.34375
G1 X61.268 Y109.013 E1.43823
G1 X62.086 Y110.738 E1.53189
G1 X63.065 Y112.423 E1.62752
G1 X64.046 Y113.838 E1.71197
G1 X65.27 Y115.335 E1.80684
G1 X66.635 Y116.743 E1.9031
G1 X67.917 Y117.871 E1.98685
G1 X69.469 Y119.032 E2.08198
G1 X71.02 Y120.006 E2.17186
G1 X72.429 Y120.751 E2.25006
G1 X73.787 Y121.357 E2.32302
G1 X75.27 Y121.904 E2.40059
G1 X76.848 Y122.363 E2.48119
G1 X78.537 Y122.723 E2.56592
G1 X80.116 Y122.942 E2.64418
G1 X81.873 Y123.057 E2.73057
G1 X83.262 Y123.053 E2.79873
G1 X85.369 Y122.887 E2.90243
G1 X125.402 Y117.831 E4.88229
G1 X127.439 Y117.377 E4.98473
G1 X129.185 Y116.784 E5.07518
G1 X131.09 Y115.893 E5.17835
G1 X132.71 Y114.904 E5.27148
G1 X134.213 Y113.753 E5.36439
G1 X135.757 Y112.273 E5.46931
G1 X137.002 Y110.773 E5.56498
G1 X138.196 Y108.945 E5.67209
G1 X138.958 Y107.451 E5.75441
G1 X139.602 Y105.822 E5.84033
G1 X140.1 Y104.076 E5.92946
G1 X140.414 Y102.339 E6.01605
G1 X140.552 Y100.702 E6.09666
G1 X140.53 Y98.864 E6.18683
G1 X140.324 Y97.052 E6.27631
G1 X139.953 Y95.334 E6.36258
G1 X139.424 Y93.68 E6.44778
G1 X138.73 Y92.065 E6.53403
G1 X137.896 Y90.549 E6.61893
G1 X136.857 Y89.034 E6.70908
G1 X135.742 Y87.711 E6.79396
G1 X134.545 Y86.536 E6.87628
G1 X133.213 Y85.454 E6.96046
G1 X131.626 Y84.409 E7.05367
G1 X130.137 Y83.628 E7.1362
G1 X128.475 Y82.951 E7.22424
G1 X126.902 Y82.479 E7.30485
G1 X125.232 Y82.142 E7.38843
G1 X85.355 Y77.112 E9.36057
G1 X82.686 Y76.935 E9.49183
G1 X80.759 Y77 E9.58642
G1 X78.825 Y77.229 E9.682
G1 X76.883 Y77.629 E9.77928
G1 X75.265 Y78.098 E9.86191
G1 X73.424 Y78.795 E9.95851
G1 X71.763 Y79.586 E10.04879
G1 X70.278 Y80.439 E10.13283
G1 X68.625 Y81.574 E10.23121
G1 X67.679 Y82.351 E10.29126
G1 X67.917 Y82.641 F7800
G1 F1800
G1 X67.378 Y83.083 E10.32546
G1 X65.97 Y84.456 E10.42195
G1 X64.689 Y85.942 E10.51821
G1 X63.579 Y87.477 E10.61117
G1 X62.686 Y88.943 E10.6954
G1 X61.861 Y90.572 E10.78501
G1 X61.141 Y92.342 E10.87877
G1 X60.569 Y94.179 E10.97314
G1 X60.149 Y96.094 E11.06936
G1 X59.919 Y97.779 E11.15279
G1 X59.812 Y99.709 E11.24763
G1 X59.87 Y101.658 E11.34331
G1 X60.094 Y103.582 E11.43838
G1 X60.424 Y105.242 E11.52142
G1 X60.947 Y107.092 E11.61575
G1 X61.619 Y108.878 E11.70938
G1 X62.42 Y110.567 E11.80111
G1 X63.385 Y112.225 E11.8952
G1 X64.349 Y113.615 E11.97823
G1 X65.558 Y115.093 E12.07193
G1 X66.897 Y116.474 E12.16631
G1 X68.158 Y117.583 E12.24869
G1 X69.691 Y118.729 E12.34263
G1 X71.247 Y119.703 E12.43268
G1 X72.598 Y120.416 E12.50763
G1 X73.933 Y121.011 E12.57935
G1 X75.393 Y121.549 E12.6557
G1 X76.944 Y121.999 E12.73494
G1 X78.6 Y122.353 E12.81802
G1 X80.16 Y122.569 E12.8953
G1 X81.889 Y122.682 E12.98031
G1 X83.261 Y122.677 E13.04762
G1 X85.323 Y122.514 E13.14912
G1 X125.346 Y117.46 E15.12852
G1 X127.341 Y117.015 E15.2288
G1 X129.05 Y116.433 E15.31739
G1 X130.914 Y115.561 E15.4184
G1 X132.506 Y114.588 E15.5099
G1 X133.973 Y113.465 E15.60058
G1 X135.493 Y112.006 E15.70395
G1 X136.862 Y110.328 E15.8102
G1 X137.895 Y108.714 E15.90426
G1 X138.623 Y107.28 E15.98313
G1 X139.254 Y105.678 E16.06763
G1 X139.738 Y103.972 E16.15462
G1 X140.05 Y102.218 E16.24206
G1 X140.187 Y100.345 E16.33422
G1 X140.131 Y98.553 E16.42219
G1 X139.885 Y96.731 E16.5124
G1 X139.522 Y95.183 E16.59041
G1 X138.926 Y93.433 E16.68108
G1 X138.214 Y91.874 E16.7652
G1 X137.346 Y90.38 E16.84999
G1 X136.321 Y88.959 E16.93597
G1 X135.233 Y87.719 E17.01688
G1 X133.99 Y86.549 E17.10065
G1 X132.656 Y85.516 E17.18342
G1 X131.175 Y84.583 E17.26934
G1 X129.666 Y83.826 E17.35216
G1 X128.289 Y83.284 E17.42476
G1 X126.793 Y82.839 E17.50133
G1 X125.157 Y82.51 E17.58321
G1 X85.31 Y77.484 E19.55386
G1 X82.686 Y77.311 E19.68293
G1 X80.789 Y77.374 E19.77605
G1 X78.886 Y77.599 E19.87005
G1 X76.969 Y77.994 E19.9661
G1 X75.385 Y78.454 E20.04705
G1 X73.567 Y79.142 E20.14242
G1 X71.94 Y79.917 E20.23086
G1 X70.479 Y80.756 E20.31349
G1 X68.853 Y81.872 E20.41027
G1 X67.963 Y82.603 E20.46675
G1 X68.202 Y82.893 F7800
G1 F1800
G1 X67.63 Y83.362 E20.50303
G1 X66.24 Y84.717 E20.59826
G1 X64.982 Y86.178 E20.69289
G1 X63.888 Y87.69 E20.78447
G1 X63.012 Y89.13 E20.86717
G1 X62.201 Y90.732 E20.95524
G1 X61.493 Y92.473 E21.04747
G1 X60.929 Y94.286 E21.14063
G1 X60.518 Y96.161 E21.23481
G1 X60.293 Y97.813 E21.31661
G1 X60.187 Y99.712 E21.40994
G1 X60.245 Y101.635 E21.50434
G1 X60.466 Y103.528 E21.59788
G1 X60.79 Y105.16 E21.67951
G1 X61.305 Y106.98 E21.7723
G1 X61.969 Y108.742 E21.86473
G1 X62.755 Y110.396 E21.95455
G1 X63.703 Y112.026 E22.0471
G1 X64.648 Y113.388 E22.12839
G1 X65.846 Y114.852 E22.22121
G1 X67.159 Y116.205 E22.31372
G1 X68.404 Y117.299 E22.39507
G1 X69.913 Y118.426 E22.48748
G1 X71.466 Y119.395 E22.57729
G1 X73.081 Y120.229 E22.6665
G1 X74.516 Y120.837 E22.74294
G1 X75.904 Y121.317 E22.81501
G1 X77.483 Y121.743 E22.89526
G1 X79.086 Y122.052 E22.97536
G1 X80.727 Y122.244 E23.05644
G1 X82.051 Y122.31 E23.12147
G1 X83.644 Y122.285 E23.19963
G1 X85.283 Y122.14 E23.28036
G1 X125.283 Y117.09 E25.25863
G1 X127.235 Y116.654 E25.35676
G1 X128.908 Y116.085 E25.44349
G1 X130.739 Y115.229 E25.54266
G1 X132.296 Y114.277 E25.63219
G1 X133.925 Y113.01 E25.73346
G1 X135.219 Y111.748 E25.82213
G1 X136.563 Y110.1 E25.92647
G1 X137.587 Y108.496 E26.01987
G1 X138.284 Y107.116 E26.09571
G1 X138.902 Y105.547 E26.17845
G1 X139.374 Y103.883 E26.26332
G1 X139.679 Y102.16 E26.34917
G1 X139.811 Y100.333 E26.43907
G1 X139.756 Y98.579 E26.52518
G1 X139.514 Y96.792 E26.61366
G1 X139.155 Y95.268 E26.69048
G1 X138.576 Y93.569 E26.77857
G1 X137.878 Y92.043 E26.86089
G1 X137.028 Y90.581 E26.94388
G1 X136.02 Y89.184 E27.02841
G1 X134.96 Y87.977 E27.10722
G1 X133.738 Y86.828 E27.18954
G1 X132.432 Y85.817 E27.27056
G1 X130.952 Y84.888 E27.3563
G1 X129.503 Y84.165 E27.43572
G1 X128.15 Y83.633 E27.50706
G1 X126.693 Y83.201 E27.58168
G1 X125.09 Y82.88 E27.66186
G1 X85.266 Y77.857 E29.6314
G1 X82.686 Y77.686 E29.75826
G1 X80.819 Y77.749 E29.84991
G1 X78.942 Y77.971 E29.94267
G1 X77.063 Y78.358 E30.03681
G1 X75.504 Y78.81 E30.11642
G1 X73.716 Y79.487 E30.21023
G1 X72.116 Y80.248 E30.29716
G1 X70.681 Y81.073 E30.37839
G1 X69.082 Y82.171 E30.47356
G1 X68.248 Y82.855 E30.52648
G1 X68.486 Y83.145 F7800
G1 F1800
G1 X67.877 Y83.645 E30.56517
G1 X66.511 Y84.978 E30.6588
G1 X65.274 Y86.414 E30.7518
G1 X64.191 Y87.913 E30.84255
G1 X63.341 Y89.312 E30.92285
G1 X62.539 Y90.897 E31.01002
G1 X61.843 Y92.61 E31.10073
G1 X61.275 Y94.449 E31.19521
G1 X60.885 Y96.242 E31.28523
G1 X60.665 Y97.866 E31.36563
G1 X60.563 Y99.721 E31.45681
G1 X60.622 Y101.631 E31.55055
G1 X60.845 Y103.519 E31.64386
G1 X61.221 Y105.342 E31.73515
G1 X61.68 Y106.916 E31.81563
G1 X62.345 Y108.666 E31.90748
G1 X63.095 Y110.236 E31.99285
G1 X64.036 Y111.85 E32.08451
G1 X64.958 Y113.176 E32.16374
G1 X66.177 Y114.658 E32.2579
G1 X67.468 Y115.98 E32.34856
G1 X68.908 Y117.222 E32.44188
G1 X70.449 Y118.333 E32.53508
G1 X72.026 Y119.277 E32.62531
G1 X73.316 Y119.924 E32.69611
G1 X74.727 Y120.516 E32.7712
G1 X76.037 Y120.965 E32.83913
G1 X77.642 Y121.394 E32.92063
G1 X79.161 Y121.683 E32.99652
G1 X80.785 Y121.872 E33.07671
G1 X82.068 Y121.935 E33.13978
G1 X83.668 Y121.908 E33.21826
G1 X85.236 Y121.768 E33.29551
G1 X125.246 Y116.715 E35.27426
G1 X127.142 Y116.29 E35.36961
G1 X128.779 Y115.732 E35.45447
G1 X130.563 Y114.897 E35.55115
G1 X132.096 Y113.958 E35.63934
G1 X133.682 Y112.723 E35.73794
G1 X134.949 Y111.486 E35.82485
G1 X136.264 Y109.873 E35.92696
G1 X137.281 Y108.274 E36.01995
G1 X138.111 Y106.573 E36.1128
G1 X138.648 Y105.114 E36.18909
G1 X139.072 Y103.508 E36.27058
G1 X139.337 Y101.849 E36.35303
G1 X139.437 Y100.256 E36.43133
G1 X139.377 Y98.547 E36.51527
G1 X139.142 Y96.843 E36.59964
G1 X138.789 Y95.354 E36.67474
G1 X138.225 Y93.704 E36.76028
G1 X137.539 Y92.206 E36.84114
G1 X136.711 Y90.782 E36.92199
G1 X135.715 Y89.404 E37.00539
G1 X134.682 Y88.23 E37.08211
G1 X133.486 Y87.107 E37.16264
G1 X132.208 Y86.119 E37.2419
G1 X130.731 Y85.195 E37.32739
G1 X129.336 Y84.502 E37.40383
G1 X128.019 Y83.985 E37.47324
G1 X126.605 Y83.566 E37.54559
G1 X125.03 Y83.251 E37.62439
G1 X85.221 Y78.23 E39.59317
G1 X82.686 Y78.062 E39.71784
G1 X80.849 Y78.123 E39.80802
G1 X79.003 Y78.342 E39.8992
G1 X77.149 Y78.724 E39.99208
G1 X75.623 Y79.166 E40.07004
G1 X73.859 Y79.834 E40.16261
G1 X72.287 Y80.583 E40.24803
G1 X70.882 Y81.39 E40.32753
G1 X69.3 Y82.477 E40.42174
G1 X68.532 Y83.107 E40.47045
G1 X68.771 Y83.397 F7800
G1 F1800
G1 X68.128 Y83.924 E40.51121
G1 X66.786 Y85.234 E40.60325
G1 X65.57 Y86.645 E40.69462
G1 X64.505 Y88.119 E40.78389
G1 X63.67 Y89.493 E40.86277
G1 X62.882 Y91.05 E40.94838
G1 X62.198 Y92.734 E41.03756
G1 X61.637 Y94.548 E41.13073
G1 X61.255 Y96.311 E41.21924
G1 X61.039 Y97.899 E41.2979
G1 X60.938 Y99.724 E41.38759
G1 X60.996 Y101.607 E41.48
G1 X61.216 Y103.458 E41.57144
G1 X61.587 Y105.255 E41.66151
G1 X62.036 Y106.796 E41.74024
G1 X62.694 Y108.528 E41.83116
G1 X63.432 Y110.069 E41.91503
G1 X64.386 Y111.698 E42.00762
G1 X65.54 Y113.317 E42.10519
G1 X66.727 Y114.703 E42.19475
G1 X68.094 Y116.045 E42.28873
G1 X69.399 Y117.127 E42.37191
G1 X70.701 Y118.049 E42.4502
G1 X72.266 Y118.98 E42.53954
G1 X73.483 Y119.587 E42.60625
G1 X74.87 Y120.168 E42.68005
G1 X76.151 Y120.607 E42.74648
G1 X77.735 Y121.03 E42.82692
G1 X79.216 Y121.312 E42.90093
G1 X80.818 Y121.498 E42.98006
G1 X82.079 Y121.559 E43.04198
G1 X83.659 Y121.532 E43.11953
G1 X85.189 Y121.395 E43.1949
G1 X125.207 Y116.34 E45.17406
G1 X127.11 Y115.909 E45.26977
G1 X128.958 Y115.252 E45.36604
G1 X130.521 Y114.491 E45.45131
G1 X132.222 Y113.41 E45.55025
G1 X133.574 Y112.317 E45.63551
G1 X135.005 Y110.861 E45.7357
G1 X136.056 Y109.517 E45.8194
G1 X137.111 Y107.802 E45.91819
G1 X137.82 Y106.296 E45.99989
G1 X138.402 Y104.632 E46.0864
G1 X138.782 Y103.04 E46.1667
G1 X138.996 Y101.487 E46.24358
G1 X139.063 Y99.846 E46.32419
G1 X138.963 Y98.176 E46.40628
G1 X138.707 Y96.585 E46.48534
G1 X138.316 Y95.081 E46.56161
G1 X137.713 Y93.449 E46.64694
G1 X137.017 Y92.024 E46.72477
G1 X136.172 Y90.65 E46.80393
G1 X135.222 Y89.394 E46.88117
G1 X134.133 Y88.209 E46.96018
G1 X132.946 Y87.146 E47.03835
G1 X131.658 Y86.199 E47.11679
G1 X130.259 Y85.367 E47.19667
G1 X129.111 Y84.813 E47.25921
G1 X127.833 Y84.319 E47.3264
G1 X126.499 Y83.927 E47.39467
G1 X124.958 Y83.62 E47.47176
G1 X85.176 Y78.603 E49.43917
G1 X82.686 Y78.438 E49.56164
G1 X80.873 Y78.498 E49.65066
G1 X79.059 Y78.713 E49.74027
G1 X77.236 Y79.089 E49.83157
G1 X75.743 Y79.523 E49.90789
G1 X74.008 Y80.179 E49.99889
G1 X72.464 Y80.914 E50.0828
G1 X71.084 Y81.707 E50.16089
G1 X69.528 Y82.775 E50.25349
G1 X68.817 Y83.359 E50.29864
G1 X69.055 Y83.649 F7800
G1 F1800
G1 X68.38 Y84.203 E50.34148
G1 X67.06 Y85.49 E50.43193
G1 X65.867 Y86.875 E50.52166
G1 X64.815 Y88.331 E50.60976
G1 X63.996 Y89.68 E50.68721
G1 X63.225 Y91.203 E50.77096
G1 X62.552 Y92.858 E50.85862
G1 X62 Y94.646 E50.95046
G1 X61.625 Y96.373 E51.03717
G1 X61.413 Y97.933 E51.11439
G1 X61.314 Y99.734 E51.2029
G1 X61.371 Y101.582 E51.29366
G1 X61.586 Y103.396 E51.38326
G1 X61.952 Y105.169 E51.47208
G1 X62.393 Y106.681 E51.54939
G1 X63.044 Y108.389 E51.63903
G1 X63.763 Y109.892 E51.72079
G1 X64.703 Y111.497 E51.81207
G1 X65.835 Y113.084 E51.90772
G1 X67.009 Y114.454 E51.99625
G1 X68.349 Y115.769 E52.08837
G1 X69.636 Y116.835 E52.17037
G1 X70.916 Y117.74 E52.24728
G1 X72.481 Y118.669 E52.33659
G1 X73.648 Y119.25 E52.40057
G1 X75.006 Y119.818 E52.47279
G1 X76.258 Y120.247 E52.53775
G1 X77.827 Y120.666 E52.61741
G1 X79.278 Y120.941 E52.68987
G1 X80.852 Y121.123 E52.76763
G1 X82.083 Y121.183 E52.82809
G1 X83.65 Y121.157 E52.905
G1 X85.142 Y121.022 E52.97851
G1 X125.143 Y115.97 E54.95681
G1 X127.008 Y115.547 E55.05063
G1 X128.815 Y114.905 E55.14474
G1 X130.335 Y114.165 E55.22772
G1 X132.01 Y113.1 E55.32507
G1 X133.32 Y112.04 E55.40774
G1 X134.728 Y110.608 E55.5063
G1 X135.753 Y109.294 E55.58807
G1 X136.799 Y107.589 E55.6862
G1 X137.476 Y106.145 E55.76448
G1 X138.046 Y104.511 E55.84941
G1 X138.415 Y102.961 E55.92756
G1 X138.623 Y101.444 E56.00271
G1 X138.687 Y99.846 E56.08117
G1 X138.589 Y98.213 E56.16142
G1 X138.339 Y96.659 E56.23868
G1 X137.952 Y95.177 E56.31383
G1 X137.368 Y93.599 E56.39636
G1 X136.685 Y92.201 E56.47272
G1 X135.86 Y90.859 E56.55004
G1 X134.928 Y89.627 E56.62584
G1 X133.866 Y88.474 E56.70274
G1 X132.701 Y87.431 E56.77945
G1 X131.447 Y86.51 E56.8558
G1 X130.047 Y85.679 E56.9357
G1 X128.653 Y85.027 E57.01119
G1 X127.384 Y84.567 E57.07745
G1 X126.007 Y84.197 E57.14736
G1 X124.899 Y83.991 E57.2027
G1 X85.131 Y78.976 E59.16941
G1 X82.686 Y78.813 E59.28967
G1 X80.903 Y78.872 E59.37722
G1 X79.121 Y79.084 E59.46526
G1 X77.324 Y79.454 E59.55528
G1 X75.862 Y79.879 E59.62997
G1 X74.157 Y80.524 E59.7194
G1 X72.635 Y81.249 E59.80211
G1 X71.285 Y82.024 E59.87849
G1 X69.757 Y83.073 E59.96947
G1 X69.101 Y83.611 E60.01107
; INIT printing object Croc_Tiffinanou_V7-Attache_Facade_V1.stl id:0 copy 0
G92 E0
G1 E-2 F2400
; printing object Croc_Tiffinanou_V7-Attache_Facade_V1.stl id:0 copy 0
G1 X80.302 Y97.43 F7800
G1 E0 F2400
;TYPE:Internal perimeter
;WIDTH:0.604
G1 F1800
G1 X80.095 Y97.622 E0.01989
G1 X79.966 Y97.76 E0.03322
G1 X79.852 Y97.896 E0.0457
G1 X79.746 Y98.037 E0.05817
G1 X79.641 Y98.193 E0.07143
G1 X79.505 Y98.429 E0.0906
G1 X79.422 Y98.599 E0.10394
G1 X79.353 Y98.762 E0.11642
G1 X79.293 Y98.928 E0.12889
G1 X79.238 Y99.108 E0.14215
G1 X79.176 Y99.373 E0.16132
G1 X79.147 Y99.56 E0.17466
G1 X79.127 Y99.748 E0.18799
G1 X79.118 Y100.019 E0.20708
G1 X79.125 Y100.207 E0.22034
G1 X79.14 Y100.384 E0.23288
G1 X79.165 Y100.558 E0.24529
G1 X79.201 Y100.744 E0.25862
G1 X79.271 Y101.007 E0.27779
G1 X79.332 Y101.185 E0.29106
G1 X79.404 Y101.361 E0.30445
G1 X79.522 Y101.603 E0.32349
G1 X79.617 Y101.768 E0.33688
G1 X79.72 Y101.926 E0.35014
G1 X79.883 Y102.142 E0.36924
G1 X80.008 Y102.286 E0.38265
G1 X80.131 Y102.413 E0.39514
G1 X80.26 Y102.534 E0.40761
G1 X80.395 Y102.647 E0.42001
G1 X80.536 Y102.753 E0.43248
G1 X80.693 Y102.859 E0.44582
G1 X80.929 Y102.995 E0.465
G1 X81.099 Y103.078 E0.47834
G1 X81.262 Y103.147 E0.49081
G1 X81.427 Y103.207 E0.50322
G1 X81.609 Y103.263 E0.51662
G1 X81.873 Y103.323 E0.53573
G1 X82.06 Y103.353 E0.54906
G1 X82.248 Y103.373 E0.56239
G1 X82.519 Y103.382 E0.58149
G1 X82.708 Y103.375 E0.59482
G1 X82.884 Y103.36 E0.6073
G1 X83.06 Y103.335 E0.61978
G1 X83.245 Y103.299 E0.63311
G1 X83.507 Y103.229 E0.65221
G1 X83.686 Y103.167 E0.66554
G1 X83.85 Y103.101 E0.67802
G1 X84.01 Y103.026 E0.6905
G1 X84.177 Y102.937 E0.70383
G1 X84.407 Y102.793 E0.72293
G1 X84.56 Y102.682 E0.73626
