; generated by Slic3r 1.2.9 on 2022-08-06 at 06:13:26

; external perimeters extrusion width = 0.40mm
; perimeters extrusion width = 0.67mm
; infill extrusion width = 0.67mm
; solid infill extrusion width = 0.67mm
; top infill extrusion width = 0.67mm
; support material extrusion width = 0.40mm

M190 S60 ; set bed temperature
M104 S200 ; set temperature
G28 ; home all axes
G1 Z5 F5000 ; lift nozzle

M109 S200 ; wait for temperature to be reached
G21 ; set units to millimeters
G90 ; use absolute coordinates
M82 ; use absolute distances for extrusion
G92 E0
G1 Z0.200 F1800.000
G1 E-3.00000 F2400.00000
G92 E0
G1 X58.084 Y67.467 F1800.000
G1 E3.00000 F2400.00000
G1 X60.317 Y65.796 E3.05857 F1800.000
G1 X62.931 Y64.825 E3.11714
G1 X64.991 Y64.605 E3.16066
G1 X102.337 Y64.600 E3.94508
G1 X103.445 Y64.622 E3.96837 F1800.000
G1 X104.548 Y64.682 E3.99157
G1 X105.569 Y64.773 E4.01309
G1 X106.668 Y64.907 E4.03635
G1 X107.762 Y65.080 E4.05960
G1 X108.849 Y65.291 E4.08286
G1 X109.928 Y65.540 E4.10612
G1 X110.997 Y65.826 E4.12937
G1 X112.057 Y66.149 E4.15263
G1 X113.104 Y66.508 E4.17589
G1 X114.138 Y66.904 E4.19914
G1 X115.157 Y67.336 E4.22240
G1 X115.991 Y67.721 E4.24169
G1 X116.979 Y68.216 E4.26489
G1 X117.951 Y68.746 E4.28814
G1 X118.904 Y69.310 E4.31140
G1 X119.837 Y69.906 E4.33466
G1 X120.748 Y70.535 E4.35791
G1 X121.637 Y71.195 E4.38116
G1 X122.437 Y71.831 E4.40264
G1 X123.280 Y72.549 E4.42589
G1 X124.097 Y73.296 E4.44915
G1 X124.888 Y74.071 E4.47240
G1 X125.651 Y74.873 E4.49566
G1 X126.386 Y75.702 E4.51892
G1 X126.971 Y76.405 E4.53815
G1 X127.652 Y77.279 E4.56140
G1 X128.302 Y78.175 E4.58466
G1 X128.920 Y79.094 E4.60792
G1 X129.506 Y80.033 E4.63116
G1 X130.059 Y80.993 E4.65443
G1 X130.576 Y81.968 E4.67763
G1 X131.062 Y82.966 E4.70094
G1 X131.511 Y83.977 E4.72417
G1 X131.926 Y85.005 E4.74746
G1 X132.304 Y86.046 E4.77072
G1 X132.645 Y87.099 E4.79397
G1 X132.951 Y88.166 E4.81729
G1 X133.260 Y89.425 E4.84451
G1 X133.483 Y90.510 E4.86777
G1 X133.668 Y91.601 E4.89102
G1 X133.815 Y92.699 E4.91428
G1 X133.924 Y93.801 E4.93754
G1 X133.998 Y94.990 E4.96256
G1 X134.027 Y96.098 E4.98584
G1 X134.017 Y97.204 E5.00908
G1 X133.969 Y98.311 E5.03234
G1 X133.882 Y99.415 E5.05561
G1 X133.719 Y100.787 E5.08463
G1 X133.512 Y102.071 E5.11196
G1 X133.276 Y103.239 E5.13698
G1 X132.969 Y104.502 E5.16428
G1 X132.642 Y105.649 E5.18933
G1 X132.238 Y106.883 E5.21661
G1 X131.822 Y108.000 E5.24164
G1 X131.288 Y109.277 E5.27072
G1 X131.094 Y109.704 E5.28056
G1 X129.581 Y112.047 E5.33913
G1 X127.469 Y113.867 E5.39770
G1 X124.928 Y115.016 E5.45627
G1 X122.214 Y115.400 E5.51385
G1 X65.024 Y115.395 E6.71505
G1 X63.892 Y115.376 E6.73885
G1 X62.790 Y115.318 E6.76202
G1 X61.768 Y115.231 E6.78356
G1 X60.860 Y115.125 E6.80278
G1 X59.765 Y114.962 E6.82601
G1 X58.679 Y114.761 E6.84922
G1 X57.678 Y114.542 E6.87073
G1 X56.791 Y114.318 E6.88995
G1 X55.727 Y114.014 E6.91320
G1 X54.674 Y113.673 E6.93644
G1 X53.713 Y113.325 E6.95792
G1 X52.686 Y112.914 E6.98115
G1 X51.673 Y112.468 E7.00440
G1 X49.329 Y110.957 E7.06297
G1 X47.508 Y108.845 E7.12154
G1 X46.358 Y106.305 E7.18011
G1 X45.972 Y103.586 E7.23779
G1 X45.972 Y83.625 E7.65705
G1 X46.370 Y80.865 E7.71562
G1 X47.531 Y78.330 E7.77419
G1 X48.834 Y76.717 E7.81773
G1 X58.041 Y67.509 E8.09123
G1 X58.486 Y67.953 F1800.000
G1 X60.695 Y66.306 E8.14913 F1800.000
G1 X63.237 Y65.404 E8.20577
G1 X64.991 Y65.233 E8.24279
G1 X102.334 Y65.228 E9.02714
G1 X103.420 Y65.250 E9.04996 F1800.000
G1 X104.501 Y65.309 E9.07271
G1 X105.506 Y65.398 E9.09388
G1 X106.583 Y65.530 E9.11667
G1 X107.466 Y65.667 E9.13545
G1 X108.533 Y65.867 E9.15824
G1 X109.592 Y66.104 E9.18103
G1 X110.641 Y66.378 E9.20383
G1 X111.680 Y66.688 E9.22660
G1 X112.709 Y67.034 E9.24939
G1 X113.726 Y67.416 E9.27221
G1 X114.655 Y67.802 E9.29335
G1 X115.643 Y68.252 E9.31615
G1 X116.615 Y68.735 E9.33894
G1 X117.569 Y69.252 E9.36174
G1 X118.505 Y69.802 E9.38454
G1 X119.421 Y70.384 E9.40733
G1 X120.316 Y70.998 E9.43013
G1 X121.189 Y71.643 E9.45292
G1 X121.894 Y72.199 E9.47179
G1 X122.721 Y72.895 E9.49449
G1 X123.527 Y73.622 E9.51729
G1 X124.306 Y74.377 E9.54007
G1 X125.059 Y75.158 E9.56286
G1 X125.733 Y75.907 E9.58401
G1 X126.431 Y76.737 E9.60680
G1 X127.101 Y77.591 E9.62960
G1 X127.740 Y78.468 E9.65240
G1 X128.348 Y79.367 E9.67519
G1 X128.925 Y80.287 E9.69799
G1 X129.469 Y81.226 E9.72079
G1 X129.980 Y82.183 E9.74358
G1 X130.458 Y83.158 E9.76638
G1 X130.901 Y84.148 E9.78917
G1 X131.310 Y85.154 E9.81197
G1 X131.683 Y86.173 E9.83477
G1 X132.020 Y87.205 E9.85756
G1 X132.342 Y88.322 E9.88199
G1 X132.604 Y89.378 E9.90483
G1 X132.830 Y90.439 E9.92763
G1 X133.047 Y91.697 E9.95445
G1 X133.191 Y92.773 E9.97724
G1 X133.298 Y93.853 E10.00004
G1 X133.367 Y94.937 E10.02284
G1 X133.398 Y96.021 E10.04563
G1 X133.389 Y97.186 E10.07009
G1 X133.341 Y98.270 E10.09289
G1 X133.256 Y99.353 E10.11570
G1 X133.097 Y100.698 E10.14415
G1 X132.894 Y101.961 E10.17101
G1 X132.663 Y103.102 E10.19546
G1 X132.361 Y104.343 E10.22230
G1 X132.042 Y105.464 E10.24677
G1 X131.644 Y106.677 E10.27360
G1 X131.237 Y107.773 E10.29815
G1 X130.714 Y109.020 E10.32656
G1 X130.523 Y109.442 E10.33629
G1 X129.049 Y111.701 E10.39293
G1 X126.980 Y113.431 E10.44958
G1 X124.497 Y114.482 E10.50622
G1 X122.214 Y114.772 E10.55456
G1 X65.025 Y114.767 E11.75576
G1 X63.724 Y114.741 E11.78309
G1 X62.827 Y114.691 E11.80195
G1 X61.751 Y114.597 E11.82464
G1 X60.753 Y114.477 E11.84575
G1 X59.681 Y114.310 E11.86854
G1 X58.805 Y114.146 E11.88725
G1 X57.821 Y113.930 E11.90842
G1 X56.955 Y113.712 E11.92718
G1 X55.912 Y113.413 E11.94996
G1 X54.880 Y113.079 E11.97275
G1 X53.934 Y112.737 E11.99388
G1 X52.927 Y112.335 E12.01665
G1 X51.935 Y111.897 E12.03944
G1 X49.675 Y110.424 E12.09608
G1 X47.944 Y108.357 E12.15273
G1 X46.891 Y105.874 E12.20937
G1 X46.600 Y103.586 E12.25781
G1 X46.600 Y83.625 E12.67707
G1 X46.998 Y80.958 E12.73371
G1 X48.157 Y78.522 E12.79036
G1 X49.278 Y77.161 E12.82740
G1 X58.443 Y67.996 E13.09964
G1 X58.887 Y68.440 F1800.000
G1 X58.972 Y68.355 E13.10216 F1800.000
G1 X61.072 Y66.818 E13.15682
G1 X63.537 Y65.987 E13.21147
G1 X64.991 Y65.862 E13.24211
G1 X102.330 Y65.857 E14.02639
G1 X103.395 Y65.878 E14.04875 F1800.000
G1 X104.454 Y65.936 E14.07104
G1 X105.442 Y66.023 E14.09186
G1 X106.497 Y66.152 E14.11420
G1 X107.359 Y66.286 E14.13251
G1 X108.404 Y66.482 E14.15485
G1 X109.442 Y66.714 E14.17718
G1 X110.470 Y66.982 E14.19951
G1 X111.489 Y67.286 E14.22182
G1 X112.496 Y67.625 E14.24416
G1 X113.492 Y68.000 E14.26651
G1 X114.407 Y68.379 E14.28731
G1 X115.375 Y68.820 E14.30965
G1 X116.327 Y69.293 E14.33198
G1 X117.262 Y69.800 E14.35432
G1 X118.179 Y70.339 E14.37665
G1 X118.916 Y70.805 E14.39497
G1 X119.797 Y71.401 E14.41730
G1 X120.655 Y72.026 E14.43962
G1 X121.493 Y72.683 E14.46197
G1 X122.307 Y73.368 E14.48431
G1 X123.096 Y74.080 E14.50665
G1 X123.860 Y74.819 E14.52897
G1 X124.597 Y75.585 E14.55130
G1 X125.260 Y76.321 E14.57210
G1 X125.945 Y77.135 E14.59444
G1 X126.601 Y77.972 E14.61677
G1 X127.227 Y78.831 E14.63911
G1 X127.823 Y79.712 E14.66145
G1 X128.388 Y80.613 E14.68378
G1 X128.921 Y81.533 E14.70612
G1 X129.422 Y82.471 E14.72846
G1 X129.890 Y83.426 E14.75079
G1 X130.353 Y84.464 E14.77466
G1 X130.751 Y85.451 E14.79702
G1 X131.114 Y86.451 E14.81936
G1 X131.442 Y87.462 E14.84170
G1 X131.734 Y88.483 E14.86400
G1 X131.992 Y89.517 E14.88637
G1 X132.212 Y90.557 E14.90871
G1 X132.426 Y91.794 E14.93507
G1 X132.567 Y92.848 E14.95740
G1 X132.672 Y93.906 E14.97974
G1 X132.739 Y94.968 E15.00208
G1 X132.769 Y96.030 E15.02441
G1 X132.761 Y97.167 E15.04829
G1 X132.714 Y98.230 E15.07064
G1 X132.631 Y99.291 E15.09299
G1 X132.475 Y100.609 E15.12086
G1 X132.275 Y101.850 E15.14726
G1 X132.050 Y102.964 E15.17114
G1 X131.754 Y104.184 E15.19752
G1 X131.442 Y105.278 E15.22142
G1 X131.051 Y106.471 E15.24778
G1 X130.654 Y107.537 E15.27166
G1 X130.141 Y108.763 E15.29959
G1 X129.952 Y109.180 E15.30920
G1 X128.518 Y111.352 E15.36385
G1 X126.496 Y112.989 E15.41851
G1 X124.073 Y113.938 E15.47316
G1 X122.214 Y114.144 E15.51244
G1 X64.279 Y114.130 E16.72932
G1 X62.873 Y114.065 E16.75888
G1 X61.290 Y113.913 E16.79227
G1 X59.713 Y113.678 E16.82576
G1 X58.152 Y113.362 E16.85922
G1 X56.608 Y112.964 E16.89270
G1 X55.156 Y112.509 E16.92467
G1 X53.660 Y111.956 E16.95816
G1 X52.196 Y111.326 E16.99164
G1 X50.024 Y109.893 E17.04629
G1 X48.386 Y107.871 E17.10095
G1 X47.435 Y105.449 E17.15560
G1 X47.229 Y103.586 E17.19498
G1 X47.229 Y83.625 E17.61424
G1 X47.626 Y81.054 E17.66889
G1 X48.782 Y78.722 E17.72354
G1 X49.722 Y77.605 E17.75421
G1 X58.845 Y68.482 E18.02519
G1 X59.289 Y68.927 F1800.000
G1 X59.417 Y68.800 E18.02897 F1800.000
G1 X61.445 Y67.333 E18.08156
G1 X64.991 Y66.490 E18.15810
G1 X102.327 Y66.485 E18.94231
G1 X103.369 Y66.505 E18.96420 F1800.000
G1 X104.407 Y66.562 E18.98604
G1 X105.378 Y66.648 E19.00651
G1 X106.412 Y66.775 E19.02839
G1 X107.441 Y66.938 E19.05027
G1 X108.463 Y67.136 E19.07214
G1 X109.478 Y67.370 E19.09402
G1 X110.305 Y67.588 E19.11197
G1 X111.297 Y67.884 E19.13372
G1 X112.284 Y68.217 E19.15559
G1 X113.259 Y68.583 E19.17748
G1 X114.222 Y68.984 E19.19938
G1 X115.167 Y69.417 E19.22122
G1 X116.039 Y69.852 E19.24169
G1 X116.955 Y70.348 E19.26356
G1 X117.853 Y70.876 E19.28544
G1 X118.732 Y71.435 E19.30732
G1 X119.590 Y72.024 E19.32920
G1 X120.428 Y72.643 E19.35107
G1 X121.099 Y73.172 E19.36902
G1 X121.893 Y73.840 E19.39080
G1 X122.666 Y74.538 E19.41268
G1 X123.414 Y75.262 E19.43454
G1 X124.136 Y76.012 E19.45641
G1 X124.788 Y76.735 E19.47686
G1 X125.458 Y77.532 E19.49874
G1 X126.101 Y78.352 E19.52062
G1 X126.714 Y79.194 E19.54249
G1 X127.298 Y80.056 E19.56437
G1 X127.851 Y80.939 E19.58625
G1 X128.373 Y81.840 E19.60812
G1 X128.864 Y82.759 E19.63000
G1 X129.322 Y83.694 E19.65187
G1 X129.747 Y84.645 E19.67375
G1 X130.139 Y85.610 E19.69563
G1 X130.497 Y86.588 E19.71751
G1 X130.821 Y87.578 E19.73938
G1 X131.127 Y88.644 E19.76267
G1 X131.379 Y89.656 E19.78458
G1 X131.595 Y90.675 E19.80646
G1 X131.805 Y91.890 E19.83236
G1 X131.943 Y92.922 E19.85423
G1 X132.045 Y93.959 E19.87611
G1 X132.111 Y94.998 E19.89799
G1 X132.141 Y96.039 E19.91986
G1 X132.133 Y97.149 E19.94317
G1 X132.087 Y98.190 E19.96505
G1 X132.006 Y99.229 E19.98694
G1 X131.853 Y100.520 E20.01425
G1 X131.657 Y101.739 E20.04018
G1 X131.395 Y103.014 E20.06753
G1 X131.128 Y104.092 E20.09085
G1 X130.785 Y105.276 E20.11675
G1 X130.370 Y106.510 E20.14409
G1 X129.974 Y107.547 E20.16740
G1 X129.489 Y108.681 E20.19332
G1 X129.381 Y108.918 E20.19879
G1 X127.989 Y110.999 E20.25137
G1 X126.015 Y112.539 E20.30396
G1 X123.657 Y113.382 E20.35654
G1 X122.214 Y113.515 E20.38699
G1 X64.291 Y113.502 E21.60359
G1 X62.921 Y113.438 E21.63240
G1 X61.369 Y113.289 E21.66516
G1 X59.824 Y113.060 E21.69796
G1 X58.295 Y112.750 E21.73074
G1 X56.783 Y112.360 E21.76353
G1 X55.357 Y111.914 E21.79492
G1 X53.892 Y111.372 E21.82772
G1 X52.458 Y110.754 E21.86051
G1 X50.376 Y109.364 E21.91310
G1 X48.836 Y107.390 E21.96568
G1 X47.991 Y105.033 E22.01827
G1 X47.857 Y103.586 E22.04880
G1 X47.857 Y83.625 E22.46806
G1 X48.255 Y81.153 E22.52065
G1 X50.167 Y78.050 E22.59721
G1 X59.247 Y68.969 E22.86693
G1 X59.691 Y69.414 F1800.000
G1 X59.861 Y69.244 E22.87197 F1800.000
G1 X61.816 Y67.850 E22.92241
G1 X64.991 Y67.118 E22.99084
G1 X102.324 Y67.113 E23.77497
G1 X103.344 Y67.133 E23.79641 F1800.000
G1 X104.360 Y67.189 E23.81779
G1 X105.315 Y67.273 E23.83792
G1 X106.327 Y67.397 E23.85933
G1 X107.145 Y67.524 E23.87672
G1 X108.147 Y67.712 E23.89814
G1 X109.142 Y67.935 E23.91955
G1 X110.129 Y68.192 E23.94096
G1 X111.105 Y68.483 E23.96236
G1 X112.071 Y68.808 E23.98378
G1 X113.026 Y69.167 E24.00521
G1 X113.910 Y69.534 E24.02531
G1 X114.838 Y69.956 E24.04673
G1 X115.751 Y70.410 E24.06814
G1 X116.647 Y70.896 E24.08956
G1 X117.526 Y71.413 E24.11098
G1 X118.227 Y71.855 E24.12837
G1 X119.071 Y72.427 E24.14979
G1 X119.895 Y73.027 E24.17118
G1 X120.698 Y73.656 E24.19261
G1 X121.478 Y74.312 E24.21404
G1 X122.235 Y74.995 E24.23545
G1 X122.967 Y75.704 E24.25686
G1 X123.675 Y76.438 E24.27827
G1 X124.315 Y77.149 E24.29838
G1 X124.972 Y77.930 E24.31979
G1 X125.601 Y78.732 E24.34121
G1 X126.201 Y79.557 E24.36263
G1 X126.667 Y80.241 E24.38001
G1 X127.214 Y81.101 E24.40142
G1 X127.731 Y81.979 E24.42283
G1 X128.217 Y82.877 E24.44427
G1 X128.672 Y83.789 E24.46568
G1 X129.094 Y84.717 E24.48710
G1 X129.484 Y85.660 E24.50852
G1 X129.842 Y86.619 E24.53002
G1 X130.221 Y87.765 E24.55537
G1 X130.503 Y88.745 E24.57679
G1 X130.752 Y89.733 E24.59821
G1 X130.966 Y90.730 E24.61962
G1 X131.155 Y91.795 E24.64233
G1 X131.297 Y92.805 E24.66376
G1 X131.403 Y93.821 E24.68520
G1 X131.474 Y94.835 E24.70656
G1 X131.510 Y95.857 E24.72804
G1 X131.510 Y96.876 E24.74945
G1 X131.475 Y97.895 E24.77087
G1 X131.387 Y99.103 E24.79631
G1 X131.265 Y100.180 E24.81906
G1 X131.072 Y101.438 E24.84580
G1 X130.824 Y102.689 E24.87258
G1 X130.538 Y103.866 E24.89804
G1 X130.241 Y104.908 E24.92078
G1 X129.843 Y106.118 E24.94755
G1 X129.392 Y107.310 E24.97431
G1 X128.916 Y108.424 E24.99977
G1 X128.810 Y108.656 E25.00512
G1 X127.461 Y110.643 E25.05555
G1 X125.538 Y112.081 E25.10598
G1 X122.214 Y112.887 E25.17783
G1 X64.241 Y112.872 E26.39550
G1 X62.715 Y112.793 E26.42759
G1 X61.257 Y112.642 E26.45839
G1 X59.746 Y112.407 E26.49050
G1 X58.432 Y112.137 E26.51868
G1 X56.957 Y111.757 E26.55066
G1 X55.498 Y111.298 E26.58280
G1 X54.123 Y110.788 E26.61358
G1 X52.720 Y110.183 E26.64569
G1 X50.732 Y108.836 E26.69612
G1 X49.293 Y106.914 E26.74655
G1 X48.485 Y103.586 E26.81848
G1 X48.485 Y83.625 E27.23774
G1 X48.883 Y81.257 E27.28817
G1 X50.611 Y78.494 E27.35663
G1 X59.649 Y69.456 E27.62509
G1 X60.093 Y69.900 F1800.000
G1 X60.305 Y69.688 E27.63139 F1800.000
G1 X62.183 Y68.371 E27.67957
G1 X64.991 Y67.747 E27.73998
G1 X102.320 Y67.741 E28.52404
G1 X103.319 Y67.761 E28.54502 F1800.000
G1 X104.313 Y67.815 E28.56594
G1 X105.251 Y67.898 E28.58572
G1 X106.241 Y68.020 E28.60667
G1 X107.227 Y68.176 E28.62763
G1 X108.206 Y68.366 E28.64859
G1 X109.179 Y68.590 E28.66955
G1 X109.963 Y68.798 E28.68658
G1 X110.913 Y69.081 E28.70741
G1 X111.859 Y69.399 E28.72836
G1 X112.793 Y69.750 E28.74933
G1 X113.715 Y70.134 E28.77030
G1 X114.621 Y70.548 E28.79123
G1 X115.463 Y70.969 E28.81100
G1 X116.340 Y71.444 E28.83196
G1 X117.200 Y71.950 E28.85292
G1 X118.042 Y72.486 E28.87387
G1 X118.865 Y73.050 E28.89483
G1 X119.667 Y73.643 E28.91579
G1 X120.304 Y74.145 E28.93281
G1 X121.064 Y74.785 E28.95368
G1 X121.805 Y75.453 E28.97463
G1 X122.521 Y76.146 E28.99558
G1 X123.214 Y76.865 E29.01653
G1 X123.843 Y77.564 E29.03629
G1 X124.485 Y78.327 E29.05725
G1 X125.101 Y79.113 E29.07820
G1 X125.688 Y79.919 E29.09916
G1 X126.247 Y80.746 E29.12012
G1 X126.680 Y81.431 E29.13714
G1 X127.183 Y82.287 E29.15798
G1 X127.659 Y83.164 E29.17896
G1 X128.104 Y84.058 E29.19992
G1 X128.517 Y84.966 E29.22087
G1 X128.898 Y85.888 E29.24183
G1 X129.247 Y86.822 E29.26278
G1 X129.564 Y87.769 E29.28374
G1 X129.847 Y88.725 E29.30470
G1 X130.141 Y89.878 E29.32968
G1 X130.350 Y90.854 E29.35064
G1 X130.534 Y91.891 E29.37277
G1 X130.673 Y92.880 E29.39374
G1 X130.777 Y93.873 E29.41473
G1 X130.847 Y94.866 E29.43563
G1 X130.882 Y95.866 E29.45664
G1 X130.882 Y96.863 E29.47759
G1 X130.847 Y97.861 E29.49855
G1 X130.761 Y99.047 E29.52353
G1 X130.643 Y100.096 E29.54570
G1 X130.454 Y101.327 E29.57187
G1 X130.211 Y102.551 E29.59808
G1 X129.930 Y103.707 E29.62307
G1 X129.641 Y104.722 E29.64524
G1 X129.251 Y105.907 E29.67144
G1 X128.810 Y107.073 E29.69762
G1 X128.342 Y108.167 E29.72262
G1 X128.239 Y108.394 E29.72786
G1 X126.936 Y110.282 E29.77604
G1 X125.067 Y111.613 E29.82422
G1 X122.214 Y112.259 E29.88567
G1 X64.259 Y112.244 E31.10295
G1 X62.766 Y112.167 E31.13435
G1 X61.335 Y112.019 E31.16457
G1 X59.857 Y111.789 E31.19599
G1 X58.575 Y111.525 E31.22347
G1 X57.132 Y111.153 E31.25478
G1 X55.703 Y110.705 E31.28623
G1 X54.355 Y110.204 E31.31644
G1 X52.981 Y109.612 E31.34785
G1 X51.093 Y108.310 E31.39604
G1 X49.761 Y106.442 E31.44422
G1 X49.114 Y103.586 E31.50574
G1 X49.114 Y83.625 E31.92499
G1 X49.511 Y81.366 E31.97318
G1 X51.055 Y78.938 E32.03361
G1 X60.051 Y69.943 E32.30081
G1 E29.30081 F2400.00000
G92 E0
G1 X64.456 Y97.983 F1800.000
G1 E3.00000 F2400.00000
