; generated by SuperSlicer 2.3.56 on 2022-04-03 at 01:10:49 UTC

; 

; external perimeters extrusion width = 0.42mm
; perimeters extrusion width = 0.45mm
; infill extrusion width = 0.45mm
; solid infill extrusion width = 0.45mm
; top infill extrusion width = 0.42mm
; first layer extrusion width = 0.56mm

; object:{"name":"SupportEpaper400x300-Devant_V2","id":"SupportEpaper400x300-Devant_V2.stl id:0 copy 0","object_center":[100.000000,100.000000,0.000000],"boundingbox_center":[100.000000,100.000000,1.500000],"boundingbox_size":[94.000000,97.500000,3.000000]}
; plater:{"center":[100.000000,100.000000,0.000000],"boundingbox_center":[100.000000,100.000000,1.500000],"boundingbox_size":[94.000000,97.500000,3.000000]}

M140 S60 ; set bed temperature
M104 S210 ; set temperature
;TYPE:Custom
G28 ; home all axes
G1 Z5 F5000 ; lift nozzle
M107
G21 ; set units to millimeters
G90 ; use absolute coordinates
M82 ; use absolute distances for extrusion
G92 E0
; Filament gcode
M109 S210 ; set temperature and wait for it to be reached
M190 S60 ; set bed temperature and wait for it to be reached
M107
;LAYER_CHANGE
;Z:0.3
;HEIGHT:0.3
G1 Z0.300000 F7800
G1 E-2.00000 F2400
G1 X49.384 Y49.020 F7800
G1 E0.00000 F2400
;TYPE:Skirt
;WIDTH:0.56
G1 F1800
G1 X50.966 Y47.473 E0.14327
G1 X51.888 Y46.808 E0.21686
G1 X52.896 Y46.227 E0.29217
G1 X53.920 Y45.768 E0.36479
G1 X55.044 Y45.398 E0.44142
G1 X56.182 Y45.150 E0.51684
G1 X57.384 Y45.020 E0.59509
G1 X142.050 Y45.002 E6.07656
G1 X144.197 Y45.219 E6.21631
G1 X146.189 Y45.812 E6.35088
G1 X148.087 Y46.793 E6.48917
G1 X149.592 Y47.952 E6.61217
G1 X150.989 Y49.489 E6.74665
G1 X152.088 Y51.275 E6.88240
G1 X152.842 Y53.256 E7.01961
G1 X153.212 Y55.355 E7.15761
G1 X153.245 Y144.004 E12.89695
G1 X153.038 Y145.914 E13.02133
G1 X152.497 Y147.789 E13.14767
G1 X151.734 Y149.385 E13.26217
G1 X150.617 Y150.978 E13.38816
G1 X149.637 Y152.006 E13.48012
G1 X148.729 Y152.762 E13.55665
G1 X147.690 Y153.452 E13.63734
G1 X146.695 Y153.971 E13.71004
G1 X145.526 Y154.431 E13.79137
G1 X144.398 Y154.739 E13.86704
G1 X143.216 Y154.932 E13.94462
G1 X142.088 Y154.997 E14.01772
G1 X57.731 Y154.994 E19.47917
G1 X55.837 Y154.788 E19.60257
G1 X54.125 Y154.309 E19.71762
G1 X52.404 Y153.507 E19.84058
G1 X50.772 Y152.367 E19.96944
G1 X49.744 Y151.387 E20.06140
G1 X48.986 Y150.477 E20.13808
G1 X48.296 Y149.437 E20.21886
G1 X47.779 Y148.445 E20.29132
G1 X47.319 Y147.274 E20.37273
G1 X47.010 Y146.145 E20.44855
G1 X46.818 Y144.961 E20.52622
G1 X46.753 Y143.832 E20.59940
G1 X46.755 Y55.988 E26.28665
G1 X46.971 Y54.041 E26.41347
G1 X47.503 Y52.211 E26.53683
G1 X48.268 Y50.611 E26.65164
G1 X49.350 Y49.069 E26.77358
; INIT printing object SupportEpaper400x300-Devant_V2.stl id:0 copy 0
G92 E0
G1 E-2.00000 F2400
; printing object SupportEpaper400x300-Devant_V2.stl id:0 copy 0
G1 X71.974 Y55.724 F7800
G1 E0.00000 F2400
;TYPE:Internal perimeter
G1 F1800
G1 X71.974 Y144.276 E5.73300
G1 X138.526 Y144.276 E10.04168
G1 X138.526 Y55.724 E15.77468
G1 X72.034 Y55.724 E20.07947
G1 X72.470 Y56.220 F7800
;TYPE:External perimeter
G1 F900
G1 X72.470 Y143.780 E25.74830
G1 X138.030 Y143.780 E29.99280
G1 X138.030 Y56.220 E35.66162
G1 X72.530 Y56.220 E39.90224
G1 X72.070 Y56.220 F7800
G92 E0
G1 E-2.00000 F2400
G1 X139.021 Y57.203 F7800
G1 E0.00000 F2400
;TYPE:Internal perimeter
G1 F1800
G1 X139.404 Y57.131 E0.02525
G1 X139.516 Y57.415 E0.04501
G1 X139.593 Y57.583 E0.05697
G1 X139.656 Y57.707 E0.06602
G1 X139.746 Y57.865 E0.07778
G1 X139.848 Y58.026 E0.09007
G1 X139.959 Y58.182 E0.10249
G1 X140.076 Y58.328 E0.11461
G1 X140.201 Y58.470 E0.12687
G1 X140.334 Y58.605 E0.13917
G1 X140.476 Y58.735 E0.15159
G1 X140.620 Y58.854 E0.16371
G1 X140.768 Y58.963 E0.17561
G1 X140.878 Y59.037 E0.18415
G1 X140.990 Y59.107 E0.19270
G1 X141.150 Y59.198 E0.20462
G1 X141.319 Y59.282 E0.21689
G1 X141.488 Y59.356 E0.22881
G1 X141.617 Y59.405 E0.23771
G1 X141.791 Y59.463 E0.24963
G1 X141.974 Y59.514 E0.26190
G1 X142.159 Y59.555 E0.27418
G1 X142.346 Y59.586 E0.28645
G1 X142.534 Y59.608 E0.29873
G1 X142.724 Y59.619 E0.31100
G1 X142.913 Y59.621 E0.32328
G1 X143.103 Y59.613 E0.33555
G1 X143.286 Y59.595 E0.34747
G1 X143.422 Y59.576 E0.35637
G1 X143.603 Y59.543 E0.36829
G1 X143.787 Y59.498 E0.38056
G1 X143.969 Y59.444 E0.39284
G1 X144.148 Y59.381 E0.40512
G1 X144.323 Y59.309 E0.41739
G1 X144.494 Y59.227 E0.42967
G1 X144.656 Y59.139 E0.44158
G1 X144.774 Y59.068 E0.45049
G1 X144.927 Y58.967 E0.46240
G1 X145.080 Y58.854 E0.47468
G1 X145.222 Y58.737 E0.48660
G1 X145.324 Y58.645 E0.49550
G1 X145.729 Y58.247 E0.53224
G1 X145.728 Y141.727 E5.93690
G1 X145.226 Y141.267 E5.98098
G1 X145.084 Y141.150 E5.99290
G1 X144.974 Y141.067 E6.00180
G1 X144.827 Y140.966 E6.01335
G1 X144.710 Y140.893 E6.02226
G1 X144.550 Y140.802 E6.03418
G1 X144.381 Y140.718 E6.04645
G1 X144.212 Y140.644 E6.05837
G1 X144.083 Y140.595 E6.06727
G1 X143.909 Y140.537 E6.07919
G1 X143.726 Y140.486 E6.09146
G1 X143.541 Y140.445 E6.10376
G1 X143.351 Y140.413 E6.11621
G1 X143.162 Y140.392 E6.12850
G1 X142.974 Y140.380 E6.14075
G1 X142.787 Y140.379 E6.15285
G1 X142.603 Y140.387 E6.16478
G1 X142.463 Y140.399 E6.17386
G1 X142.281 Y140.423 E6.18576
G1 X142.102 Y140.457 E6.19753
G1 X141.966 Y140.488 E6.20659
G1 X141.788 Y140.538 E6.21852
G1 X141.609 Y140.598 E6.23077
G1 X141.434 Y140.666 E6.24290
G1 X141.260 Y140.746 E6.25531
G1 X141.099 Y140.830 E6.26709
G1 X140.978 Y140.900 E6.27613
G1 X140.825 Y140.998 E6.28788
G1 X140.670 Y141.108 E6.30015
G1 X140.522 Y141.226 E6.31245
G1 X140.378 Y141.353 E6.32487
G1 X140.245 Y141.484 E6.33699
G1 X140.117 Y141.624 E6.34925
G1 X139.996 Y141.771 E6.36155
G1 X139.882 Y141.925 E6.37397
G1 X139.779 Y142.081 E6.38609
G1 X139.682 Y142.244 E6.39835
G1 X139.597 Y142.407 E6.41027
G1 X139.539 Y142.532 E6.41917
G1 X139.400 Y142.868 E6.44270
G1 X139.021 Y142.792 E6.46772
G1 X139.021 Y57.263 E12.00506
G92 E0
G1 E-2.00000 F2400
G1 X139.310 Y55.229 F7800
G1 E0.00000 F2400
G1 F1800
G1 X71.479 Y55.229 E4.39154
G1 X71.479 Y144.771 E10.18872
G1 X139.307 Y144.771 E14.58005
G1 X139.387 Y145.061 E14.59955
G1 X139.447 Y145.239 E14.61166
G1 X139.516 Y145.415 E14.62393
G1 X139.593 Y145.583 E14.63587
G1 X139.656 Y145.707 E14.64492
G1 X139.746 Y145.865 E14.65667
G1 X139.848 Y146.026 E14.66896
G1 X139.959 Y146.182 E14.68138
G1 X140.076 Y146.328 E14.69350
G1 X140.201 Y146.470 E14.70576
G1 X140.334 Y146.605 E14.71806
G1 X140.476 Y146.735 E14.73048
G1 X140.620 Y146.854 E14.74260
G1 X140.768 Y146.963 E14.75451
G1 X140.882 Y147.040 E14.76341
G1 X141.038 Y147.136 E14.77523
G1 X140.941 Y147.479 E14.79831
G1 X59.062 Y147.478 E20.09934
G1 X58.961 Y147.143 E20.12200
G1 X59.227 Y146.967 E20.14266
G1 X59.380 Y146.854 E20.15494
G1 X59.522 Y146.737 E20.16686
G1 X59.624 Y146.645 E20.17576
G1 X59.755 Y146.516 E20.18767
G1 X59.883 Y146.376 E20.19995
G1 X60.004 Y146.230 E20.21222
G1 X60.117 Y146.077 E20.22450
G1 X60.221 Y145.919 E20.23677
G1 X60.318 Y145.756 E20.24905
G1 X60.403 Y145.593 E20.26097
G1 X60.461 Y145.468 E20.26987
G1 X60.531 Y145.298 E20.28179
G1 X60.593 Y145.124 E20.29373
G1 X60.633 Y144.990 E20.30278
G1 X60.679 Y144.815 E20.31453
G1 X60.717 Y144.629 E20.32680
G1 X60.745 Y144.441 E20.33907
G1 X60.762 Y144.258 E20.35101
G1 X60.770 Y144.118 E20.36006
G1 X60.771 Y143.937 E20.37182
G1 X60.763 Y143.753 E20.38372
G1 X60.751 Y143.616 E20.39263
G1 X60.727 Y143.433 E20.40454
G1 X60.694 Y143.252 E20.41646
G1 X60.663 Y143.118 E20.42536
G1 X60.613 Y142.941 E20.43728
G1 X60.553 Y142.761 E20.44955
G1 X60.484 Y142.585 E20.46183
G1 X60.407 Y142.417 E20.47374
G1 X60.345 Y142.295 E20.48265
G1 X60.254 Y142.135 E20.49457
G1 X60.153 Y141.975 E20.50684
G1 X60.042 Y141.820 E20.51914
G1 X59.922 Y141.670 E20.53159
G1 X59.797 Y141.528 E20.54384
G1 X59.671 Y141.401 E20.55542
G1 X59.569 Y141.305 E20.56446
G1 X59.429 Y141.185 E20.57640
G1 X59.279 Y141.070 E20.58868
G1 X59.127 Y140.966 E20.60059
G1 X59.010 Y140.893 E20.60949
G1 X58.850 Y140.802 E20.62141
G1 X58.681 Y140.718 E20.63369
G1 X58.512 Y140.644 E20.64560
G1 X58.383 Y140.595 E20.65451
G1 X58.209 Y140.537 E20.66642
G1 X58.026 Y140.486 E20.67870
G1 X57.841 Y140.445 E20.69100
G1 X57.651 Y140.413 E20.70344
G1 X57.462 Y140.392 E20.71573
G1 X57.274 Y140.380 E20.72799
G1 X57.087 Y140.379 E20.74009
G1 X56.897 Y140.387 E20.75235
G1 X56.714 Y140.405 E20.76430
G1 X56.575 Y140.424 E20.77335
G1 X56.396 Y140.458 E20.78512
G1 X56.210 Y140.503 E20.79756
G1 X56.028 Y140.556 E20.80982
G1 X55.852 Y140.619 E20.82193
G1 X55.677 Y140.691 E20.83419
G1 X55.506 Y140.773 E20.84647
G1 X55.339 Y140.864 E20.85874
G1 X55.182 Y140.960 E20.87068
G1 X55.066 Y141.038 E20.87973
G1 X54.925 Y141.143 E20.89113
G1 X54.818 Y141.230 E20.90004
G1 X54.678 Y141.353 E20.91211
G1 X54.271 Y141.753 E20.94905
G1 X54.272 Y58.274 E26.35369
G1 X54.776 Y58.735 E26.39792
G1 X54.920 Y58.854 E26.41004
G1 X55.068 Y58.963 E26.42194
G1 X55.178 Y59.037 E26.43048
G1 X55.290 Y59.107 E26.43903
G1 X55.450 Y59.198 E26.45094
G1 X55.619 Y59.282 E26.46322
G1 X55.788 Y59.356 E26.47513
G1 X55.917 Y59.405 E26.48404
G1 X56.091 Y59.463 E26.49595
G1 X56.274 Y59.514 E26.50823
G1 X56.459 Y59.555 E26.52050
G1 X56.646 Y59.586 E26.53278
G1 X56.834 Y59.608 E26.54506
G1 X57.024 Y59.619 E26.55733
G1 X57.213 Y59.621 E26.56961
G1 X57.397 Y59.613 E26.58152
G1 X57.534 Y59.601 E26.59043
G1 X57.717 Y59.577 E26.60234
G1 X57.903 Y59.543 E26.61462
G1 X58.087 Y59.498 E26.62689
G1 X58.269 Y59.444 E26.63917
G1 X58.443 Y59.383 E26.65109
G1 X58.570 Y59.331 E26.65999
G1 X58.738 Y59.255 E26.67190
G1 X58.906 Y59.168 E26.68418
G1 X59.069 Y59.071 E26.69646
G1 X59.227 Y58.967 E26.70873
G1 X59.380 Y58.854 E26.72101
G1 X59.522 Y58.737 E26.73292
G1 X59.624 Y58.645 E26.74183
G1 X59.755 Y58.516 E26.75374
G1 X59.883 Y58.376 E26.76602
G1 X60.004 Y58.230 E26.77829
G1 X60.117 Y58.077 E26.79057
G1 X60.221 Y57.919 E26.80284
G1 X60.318 Y57.756 E26.81512
G1 X60.403 Y57.593 E26.82704
G1 X60.461 Y57.468 E26.83594
G1 X60.531 Y57.298 E26.84786
G1 X60.593 Y57.124 E26.85980
G1 X60.633 Y56.990 E26.86885
G1 X60.679 Y56.815 E26.88060
G1 X60.717 Y56.629 E26.89287
G1 X60.745 Y56.441 E26.90514
G1 X60.762 Y56.258 E26.91708
G1 X60.770 Y56.118 E26.92613
G1 X60.771 Y55.937 E26.93789
G1 X60.763 Y55.753 E26.94979
G1 X60.751 Y55.616 E26.95870
G1 X60.727 Y55.433 E26.97061
G1 X60.694 Y55.252 E26.98253
G1 X60.663 Y55.118 E26.99143
G1 X60.613 Y54.941 E27.00335
G1 X60.553 Y54.761 E27.01562
G1 X60.484 Y54.585 E27.02790
G1 X60.405 Y54.412 E27.04017
G1 X60.318 Y54.244 E27.05245
G1 X60.221 Y54.081 E27.06473
G1 X60.117 Y53.923 E27.07700
G1 X60.007 Y53.774 E27.08894
G1 X59.919 Y53.666 E27.09802
G1 X59.797 Y53.528 E27.10992
G1 X59.666 Y53.395 E27.12202
G1 X59.526 Y53.267 E27.13429
G1 X59.384 Y53.150 E27.14620
G1 X59.274 Y53.067 E27.15511
G1 X59.123 Y52.963 E27.16702
G1 X58.963 Y52.865 E27.17912
G1 X59.060 Y52.522 E27.20219
G1 X140.941 Y52.521 E32.50335
G1 X141.040 Y52.860 E32.52621
G1 X140.825 Y52.998 E32.54273
G1 X140.670 Y53.108 E32.55499
G1 X140.522 Y53.226 E32.56729
G1 X140.378 Y53.353 E32.57971
G1 X140.245 Y53.484 E32.59183
G1 X140.117 Y53.624 E32.60409
G1 X139.996 Y53.771 E32.61639
G1 X139.882 Y53.925 E32.62881
G1 X139.779 Y54.081 E32.64093
G1 X139.682 Y54.244 E32.65320
G1 X139.597 Y54.407 E32.66511
G1 X139.539 Y54.532 E32.67401
G1 X139.471 Y54.697 E32.68557
G1 X139.424 Y54.826 E32.69447
G1 X139.369 Y55.002 E32.70639
G1 X139.325 Y55.171 E32.71769
G92 E0
G1 E-2.00000 F2400
G1 X144.304 Y53.222 F7800
G1 E0.00000 F2400
G1 F1800
G1 X144.021 Y53.102 E0.01990
G1 X143.916 Y53.062 E0.02718
G1 X143.764 Y53.011 E0.03756
G1 X143.606 Y52.967 E0.04815
G1 X143.446 Y52.931 E0.05876
G1 X143.282 Y52.904 E0.06951
G1 X143.120 Y52.886 E0.08012
G1 X142.957 Y52.876 E0.09070
G1 X142.795 Y52.875 E0.10114
G1 X142.635 Y52.882 E0.11152
G1 X142.517 Y52.892 E0.11918
G1 X142.359 Y52.913 E0.12955
G1 X142.203 Y52.942 E0.13978
G1 X142.088 Y52.969 E0.14743
G1 X141.933 Y53.012 E0.15781
G1 X141.779 Y53.064 E0.16839
G1 X141.628 Y53.123 E0.17885
G1 X141.478 Y53.192 E0.18958
G1 X141.337 Y53.265 E0.19982
G1 X141.235 Y53.324 E0.20746
G1 X141.102 Y53.409 E0.21768
G1 X140.969 Y53.504 E0.22827
G1 X140.841 Y53.606 E0.23888
G1 X140.716 Y53.716 E0.24962
G1 X140.601 Y53.829 E0.26006
G1 X140.491 Y53.949 E0.27065
G1 X140.387 Y54.076 E0.28126
G1 X140.288 Y54.209 E0.29200
G1 X140.199 Y54.344 E0.30244
G1 X140.116 Y54.485 E0.31303
G1 X140.042 Y54.627 E0.32341
G1 X139.993 Y54.732 E0.33091
G1 X139.933 Y54.877 E0.34107
G1 X139.893 Y54.986 E0.34857
G1 X139.845 Y55.138 E0.35894
G1 X139.804 Y55.297 E0.36954
G1 X139.772 Y55.457 E0.38013
G1 X139.748 Y55.616 E0.39053
G1 X139.736 Y55.734 E0.39819
G1 X139.726 Y55.893 E0.40855
G1 X139.725 Y56.055 E0.41899
G1 X139.732 Y56.215 E0.42938
G1 X139.742 Y56.333 E0.43702
G1 X139.763 Y56.489 E0.44724
G1 X139.792 Y56.647 E0.45761
G1 X139.818 Y56.760 E0.46513
G1 X139.861 Y56.916 E0.47564
G1 X139.912 Y57.067 E0.48594
G1 X139.973 Y57.221 E0.49667
G1 X140.039 Y57.367 E0.50707
G1 X140.093 Y57.473 E0.51472
G1 X140.171 Y57.610 E0.52494
G1 X140.259 Y57.748 E0.53555
G1 X140.355 Y57.883 E0.54628
G1 X140.456 Y58.009 E0.55673
G1 X140.564 Y58.132 E0.56732
G1 X140.679 Y58.249 E0.57793
G1 X140.801 Y58.361 E0.58866
G1 X140.926 Y58.463 E0.59911
G1 X141.054 Y58.559 E0.60948
G1 X141.148 Y58.621 E0.61676
G1 X141.243 Y58.681 E0.62404
G1 X141.382 Y58.760 E0.63442
G1 X141.529 Y58.833 E0.64501
G1 X141.676 Y58.897 E0.65539
G1 X141.784 Y58.938 E0.66289
G1 X141.936 Y58.989 E0.67327
G1 X142.094 Y59.033 E0.68386
G1 X142.254 Y59.068 E0.69446
G1 X142.415 Y59.095 E0.70505
G1 X142.578 Y59.114 E0.71565
G1 X142.741 Y59.124 E0.72625
G1 X142.905 Y59.125 E0.73684
G1 X143.068 Y59.118 E0.74743
G1 X143.228 Y59.103 E0.75781
G1 X143.342 Y59.087 E0.76531
G1 X143.500 Y59.058 E0.77569
G1 X143.659 Y59.019 E0.78628
G1 X143.816 Y58.973 E0.79688
G1 X143.970 Y58.918 E0.80747
G1 X144.121 Y58.856 E0.81807
G1 X144.269 Y58.785 E0.82867
G1 X144.410 Y58.709 E0.83904
G1 X144.509 Y58.649 E0.84654
G1 X144.643 Y58.561 E0.85692
G1 X144.774 Y58.463 E0.86752
G1 X144.898 Y58.361 E0.87789
G1 X144.984 Y58.284 E0.88539
G1 X145.099 Y58.171 E0.89577
G1 X145.209 Y58.051 E0.90636
G1 X145.311 Y57.927 E0.91674
G1 X145.381 Y57.835 E0.92424
G1 X145.472 Y57.702 E0.93462
G1 X145.557 Y57.563 E0.94521
G1 X145.635 Y57.419 E0.95581
G1 X145.706 Y57.271 E0.96640
G1 X145.768 Y57.120 E0.97700
G1 X145.833 Y56.937 E0.98961
G1 X146.224 Y57.004 E1.01530
G1 X146.224 Y142.993 E6.58245
G1 X145.841 Y143.066 E6.60769
G1 X145.727 Y142.779 E6.62769
G1 X145.660 Y142.630 E6.63828
G1 X145.584 Y142.485 E6.64888
G1 X145.501 Y142.344 E6.65947
G1 X145.411 Y142.207 E6.67007
G1 X145.315 Y142.078 E6.68046
G1 X145.241 Y141.986 E6.68812
G1 X145.134 Y141.866 E6.69849
G1 X145.021 Y141.751 E6.70892
G1 X144.901 Y141.641 E6.71951
G1 X144.777 Y141.539 E6.72989
G1 X144.685 Y141.469 E6.73739
G1 X144.555 Y141.380 E6.74755
G1 X144.457 Y141.319 E6.75505
G1 X144.318 Y141.240 E6.76543
G1 X144.171 Y141.167 E6.77602
G1 X144.024 Y141.103 E6.78640
G1 X143.916 Y141.062 E6.79390
G1 X143.764 Y141.011 E6.80427
G1 X143.606 Y140.967 E6.81487
G1 X143.446 Y140.931 E6.82548
G1 X143.282 Y140.904 E6.83623
G1 X143.120 Y140.886 E6.84683
G1 X142.957 Y140.876 E6.85741
G1 X142.795 Y140.875 E6.86785
G1 X142.635 Y140.882 E6.87824
G1 X142.517 Y140.892 E6.88590
G1 X142.359 Y140.913 E6.89626
G1 X142.203 Y140.942 E6.90650
G1 X142.088 Y140.969 E6.91415
G1 X141.933 Y141.012 E6.92453
G1 X141.779 Y141.064 E6.93511
G1 X141.628 Y141.123 E6.94557
G1 X141.478 Y141.192 E6.95629
G1 X141.337 Y141.265 E6.96654
G1 X141.235 Y141.324 E6.97417
G1 X141.102 Y141.409 E6.98440
G1 X140.969 Y141.504 E6.99499
G1 X140.841 Y141.606 E7.00560
G1 X140.716 Y141.716 E7.01633
G1 X140.601 Y141.829 E7.02678
G1 X140.491 Y141.949 E7.03737
G1 X140.387 Y142.076 E7.04798
G1 X140.288 Y142.209 E7.05871
G1 X140.199 Y142.344 E7.06916
G1 X140.116 Y142.485 E7.07975
G1 X140.042 Y142.627 E7.09013
G1 X139.993 Y142.732 E7.09763
G1 X139.933 Y142.877 E7.10778
G1 X139.893 Y142.986 E7.11529
G1 X139.845 Y143.138 E7.12566
G1 X139.804 Y143.297 E7.13626
G1 X139.772 Y143.457 E7.14685
G1 X139.748 Y143.616 E7.15724
G1 X139.736 Y143.734 E7.16490
G1 X139.726 Y143.893 E7.17527
G1 X139.725 Y144.055 E7.18571
G1 X139.732 Y144.215 E7.19609
