; generated by SuperSlicer 2.3.56 on 2022-04-01 at 02:04:37 UTC

; 

; external perimeters extrusion width = 0.42mm
; perimeters extrusion width = 0.45mm
; infill extrusion width = 0.45mm
; solid infill extrusion width = 0.45mm
; top infill extrusion width = 0.42mm
; first layer extrusion width = 0.56mm

; object:{"name":"SupportEpaper400x300-Plaque_V1","id":"SupportEpaper400x300-Plaque_V1.stl id:0 copy 0","object_center":[100.000000,100.000000,0.000000],"boundingbox_center":[100.000000,100.000000,3.500000],"boundingbox_size":[94.000000,97.500000,7.000000]}
; object:{"name":"SupportEpaper400x300-Attache_V1","id":"SupportEpaper400x300-Attache_V1.stl id:1 copy 0","object_center":[104.421273,69.752642,0.000000],"boundingbox_center":[104.421273,69.752642,2.700000],"boundingbox_size":[33.000000,8.000000,5.400000]}
; object:{"name":"SupportEpaper400x300-Attache_V1","id":"SupportEpaper400x300-Attache_V1.stl id:1 copy 1","object_center":[103.323313,130.090288,0.000000],"boundingbox_center":[103.323313,130.090288,2.700000],"boundingbox_size":[33.000000,8.000000,5.400000]}
; plater:{"center":[100.000000,100.000000,0.000000],"boundingbox_center":[100.000000,100.000000,3.500000],"boundingbox_size":[94.000000,97.500000,7.000000]}

M140 S60 ; set bed temperature
;TYPE:Custom
G28 ; home all axes
G1 Z5 F5000 ; lift nozzle
M107
G21 ; set units to millimeters
G90 ; use absolute coordinates
M82 ; use absolute distances for extrusion
G92 E0
; Filament gcode
M109 S210 ; set temperature and wait for it to be reached
M190 S60 ; set bed temperature and wait for it to be reached
;LAYER_CHANGE
;Z:0.3
;HEIGHT:0.3
G1 Z0.300000 F7800
G1 E-2.00000 F2400
G1 X49.411 Y48.987 F7800
G1 E0.00000 F2400
;TYPE:Skirt
;WIDTH:0.56
G1 F1800
G1 X50.991 Y47.453 E0.14429
G1 X51.913 Y46.792 E0.21859
G1 X52.962 Y46.194 E0.29769
G1 X53.984 Y45.744 E0.37081
G1 X55.071 Y45.390 E0.44572
G1 X56.197 Y45.148 E0.52117
G1 X57.428 Y45.017 E0.60222
G1 X142.050 Y45.002 E6.14549
G1 X144.197 Y45.219 E6.28687
G1 X146.189 Y45.812 E6.42304
G1 X148.086 Y46.792 E6.56289
G1 X149.597 Y47.956 E6.68782
G1 X150.992 Y49.493 E6.82382
G1 X152.088 Y51.275 E6.96084
G1 X152.853 Y53.296 E7.10238
G1 X153.213 Y55.361 E7.23966
G1 X153.245 Y144.004 E13.04635
G1 X153.029 Y145.956 E13.17498
G1 X152.499 Y147.786 E13.29978
G1 X151.735 Y149.384 E13.41582
G1 X150.616 Y150.980 E13.54348
G1 X149.637 Y152.006 E13.63640
G1 X148.728 Y152.763 E13.71391
G1 X147.686 Y153.455 E13.79584
G1 X146.694 Y153.971 E13.86903
G1 X145.526 Y154.431 E13.95129
G1 X144.396 Y154.739 E14.02801
G1 X143.216 Y154.932 E14.10638
G1 X142.088 Y154.997 E14.18038
G1 X57.734 Y154.994 E19.70609
G1 X55.788 Y154.778 E19.83432
G1 X53.953 Y154.244 E19.95952
G1 X52.167 Y153.366 E20.08986
G1 X50.739 Y152.340 E20.20505
G1 X49.735 Y151.378 E20.29614
G1 X48.993 Y150.486 E20.37215
G1 X48.334 Y149.502 E20.44976
G1 X47.810 Y148.512 E20.52309
G1 X47.366 Y147.415 E20.60065
G1 X47.044 Y146.294 E20.67701
G1 X46.844 Y145.178 E20.75131
G1 X46.753 Y143.831 E20.83977
G1 X46.758 Y55.899 E26.59986
G1 X46.980 Y53.997 E26.72530
G1 X47.469 Y52.299 E26.84100
G1 X48.281 Y50.589 E26.96501
G1 X49.377 Y49.036 E27.08950
; INIT printing object SupportEpaper400x300-Plaque_V1.stl id:0 copy 0
G92 E0
G1 E-2.00000 F2400
; printing object SupportEpaper400x300-Plaque_V1.stl id:0 copy 0
G1 X141.216 Y142.415 F7800
G1 E0.00000 F2400
;TYPE:Internal perimeter
G1 F1800
G1 X141.131 Y142.508 E0.00825
G1 X141.052 Y142.604 E0.01641
G1 X140.941 Y142.760 E0.02898
G1 X140.843 Y142.927 E0.04162
G1 X140.787 Y143.038 E0.04980
G1 X140.739 Y143.149 E0.05768
G1 X140.698 Y143.260 E0.06549
G1 X140.662 Y143.374 E0.07329
G1 X140.632 Y143.488 E0.08102
G1 X140.608 Y143.606 E0.08889
G1 X140.591 Y143.723 E0.09663
G1 X140.579 Y143.849 E0.10496
G1 X140.574 Y144.034 E0.11708
G1 X140.580 Y144.160 E0.12533
G1 X140.591 Y144.279 E0.13313
G1 X140.609 Y144.395 E0.14085
G1 X140.634 Y144.519 E0.14910
G1 X140.684 Y144.698 E0.16129
G1 X140.725 Y144.816 E0.16947
G1 X140.774 Y144.932 E0.17772
G1 X140.857 Y145.099 E0.18991
G1 X140.920 Y145.206 E0.19809
G1 X140.990 Y145.311 E0.20634
G1 X141.103 Y145.459 E0.21854
G1 X141.186 Y145.553 E0.22679
G1 X141.274 Y145.642 E0.23496
G1 X141.412 Y145.765 E0.24708
G1 X141.513 Y145.842 E0.25540
G1 X141.616 Y145.913 E0.26358
G1 X141.777 Y146.007 E0.27577
G1 X141.888 Y146.063 E0.28394
G1 X141.997 Y146.110 E0.29174
G1 X142.109 Y146.152 E0.29956
G1 X142.224 Y146.188 E0.30744
G1 X142.339 Y146.218 E0.31524
G1 X142.455 Y146.241 E0.32298
G1 X142.574 Y146.259 E0.33085
G1 X142.698 Y146.271 E0.33903
G1 X142.884 Y146.276 E0.35123
G1 X143.010 Y146.270 E0.35948
G1 X143.129 Y146.259 E0.36729
G1 X143.247 Y146.241 E0.37509
G1 X143.363 Y146.217 E0.38290
G1 X143.479 Y146.187 E0.39069
G1 X143.598 Y146.150 E0.39887
G1 X143.771 Y146.081 E0.41107
G1 X143.885 Y146.027 E0.41932
G1 X143.995 Y145.967 E0.42757
G1 X144.157 Y145.864 E0.44013
G1 X144.309 Y145.747 E0.45270
G1 X144.403 Y145.663 E0.46095
G1 X144.488 Y145.580 E0.46875
G1 X144.569 Y145.492 E0.47655
G1 X144.648 Y145.396 E0.48473
G1 X144.760 Y145.239 E0.49736
G1 X144.857 Y145.074 E0.50986
G1 X144.913 Y144.961 E0.51818
G1 X144.963 Y144.845 E0.52643
G1 X145.025 Y144.671 E0.53856
G1 X145.059 Y144.549 E0.54681
G1 X145.084 Y144.433 E0.55460
G1 X145.104 Y144.316 E0.56233
G1 X145.118 Y144.189 E0.57077
G1 X145.126 Y143.987 E0.58397
G1 X145.122 Y143.860 E0.59233
G1 X145.110 Y143.732 E0.60069
G1 X145.078 Y143.534 E0.61389
G1 X145.048 Y143.410 E0.62224
G1 X145.012 Y143.290 E0.63042
G1 X144.947 Y143.116 E0.64261
G1 X144.895 Y143.001 E0.65086
G1 X144.837 Y142.890 E0.65904
G1 X144.740 Y142.732 E0.67123
G1 X144.667 Y142.629 E0.67949
G1 X144.592 Y142.536 E0.68729
G1 X144.513 Y142.447 E0.69510
G1 X144.430 Y142.362 E0.70290
G1 X144.342 Y142.281 E0.71071
G1 X144.245 Y142.201 E0.71896
G1 X144.094 Y142.094 E0.73108
G1 X143.987 Y142.028 E0.73933
G1 X143.876 Y141.968 E0.74758
G1 X143.708 Y141.892 E0.75970
G1 X143.590 Y141.848 E0.76795
G1 X143.476 Y141.812 E0.77575
G1 X143.361 Y141.782 E0.78355
G1 X143.238 Y141.757 E0.79172
G1 X143.054 Y141.733 E0.80392
G1 X142.928 Y141.725 E0.81217
G1 X142.803 Y141.724 E0.82034
G1 X142.617 Y141.736 E0.83254
G1 X142.493 Y141.752 E0.84078
G1 X142.377 Y141.774 E0.84851
G1 X142.261 Y141.802 E0.85630
G1 X142.147 Y141.836 E0.86412
G1 X142.033 Y141.876 E0.87200
G1 X141.918 Y141.924 E0.88017
G1 X141.752 Y142.006 E0.89230
G1 X141.643 Y142.071 E0.90061
G1 X141.544 Y142.136 E0.90836
G1 X141.448 Y142.207 E0.91623
G1 X141.351 Y142.287 E0.92441
G1 X141.260 Y142.374 E0.93268
G1 X141.601 Y142.733 F7800
;TYPE:External perimeter
G1 F1233.1846
G1 X141.570 Y142.762 E0.93547
G1 X141.506 Y142.833 E0.94173
G1 X141.446 Y142.906 E0.94792
G1 X141.357 Y143.030 E0.95794
G1 X141.279 Y143.163 E0.96802
G1 X141.237 Y143.248 E0.97422
G1 X141.199 Y143.334 E0.98039
G1 X141.167 Y143.422 E0.98650
G1 X141.139 Y143.510 E0.99260
G1 X141.116 Y143.600 E0.99864
G1 X141.097 Y143.692 E1.00481
G1 X141.083 Y143.783 E1.01085
G1 X141.074 Y143.879 E1.01718
G1 X141.070 Y144.030 E1.02704
G1 X141.074 Y144.125 E1.03330
G1 X141.083 Y144.218 E1.03940
G1 X141.097 Y144.309 E1.04544
G1 X141.116 Y144.403 E1.05170
G1 X141.157 Y144.549 E1.06162
G1 X141.188 Y144.638 E1.06782
G1 X141.225 Y144.726 E1.07409
G1 X141.292 Y144.862 E1.08401
G1 X141.340 Y144.943 E1.09020
G1 X141.393 Y145.023 E1.09647
G1 X141.485 Y145.143 E1.10639
G1 X141.549 Y145.215 E1.11266
G1 X141.615 Y145.282 E1.11885
G1 X141.728 Y145.382 E1.12871
G1 X141.805 Y145.441 E1.13504
G1 X141.883 Y145.494 E1.14124
G1 X142.013 Y145.571 E1.15116
G1 X142.098 Y145.613 E1.15735
G1 X142.183 Y145.650 E1.16346
G1 X142.271 Y145.683 E1.16956
G1 X142.360 Y145.711 E1.17574
G1 X142.451 Y145.735 E1.18184
G1 X142.541 Y145.753 E1.18788
G1 X142.634 Y145.767 E1.19405
G1 X142.728 Y145.776 E1.20025
G1 X142.880 Y145.780 E1.21017
G1 X142.975 Y145.776 E1.21644
G1 X143.068 Y145.767 E1.22254
G1 X143.160 Y145.753 E1.22865
G1 X143.252 Y145.734 E1.23475
G1 X143.342 Y145.711 E1.24086
G1 X143.432 Y145.682 E1.24705
G1 X143.573 Y145.627 E1.25697
G1 X143.659 Y145.586 E1.26324
G1 X143.743 Y145.540 E1.26951
G1 X143.872 Y145.458 E1.27952
G1 X143.993 Y145.365 E1.28953
G1 X144.065 Y145.301 E1.29580
G1 X144.131 Y145.236 E1.30190
G1 X144.194 Y145.167 E1.30800
G1 X144.254 Y145.094 E1.31420
G1 X144.344 Y144.969 E1.32428
G1 X144.421 Y144.838 E1.33423
G1 X144.464 Y144.751 E1.34056
G1 X144.502 Y144.664 E1.34683
G1 X144.552 Y144.522 E1.35668
G1 X144.577 Y144.430 E1.36295
G1 X144.598 Y144.339 E1.36905
G1 X144.613 Y144.248 E1.37509
G1 X144.624 Y144.151 E1.38146
G1 X144.630 Y143.986 E1.39225
G1 X144.627 Y143.890 E1.39856
G1 X144.618 Y143.794 E1.40486
G1 X144.592 Y143.632 E1.41565
G1 X144.569 Y143.538 E1.42195
G1 X144.542 Y143.447 E1.42815
G1 X144.489 Y143.306 E1.43807
G1 X144.449 Y143.219 E1.44434
G1 X144.406 Y143.135 E1.45054
G1 X144.327 Y143.006 E1.46046
G1 X144.271 Y142.928 E1.46672
G1 X144.213 Y142.855 E1.47283
G1 X144.151 Y142.785 E1.47893
G1 X144.086 Y142.719 E1.48504
G1 X144.017 Y142.656 E1.49114
G1 X143.943 Y142.595 E1.49741
G1 X143.821 Y142.508 E1.50726
G1 X143.739 Y142.458 E1.51353
G1 X143.655 Y142.412 E1.51979
G1 X143.518 Y142.350 E1.52964
G1 X143.428 Y142.317 E1.53591
G1 X143.340 Y142.289 E1.54201
G1 X143.249 Y142.265 E1.54812
G1 X143.157 Y142.246 E1.55431
G1 X143.006 Y142.227 E1.56423
G1 X142.911 Y142.221 E1.57050
G1 X142.816 Y142.220 E1.57670
G1 X142.665 Y142.229 E1.58662
G1 X142.570 Y142.242 E1.59288
G1 X142.480 Y142.259 E1.59892
G1 X142.389 Y142.281 E1.60502
G1 X142.300 Y142.307 E1.61113
G1 X142.211 Y142.339 E1.61730
G1 X142.124 Y142.375 E1.62350
G1 X141.989 Y142.442 E1.63335
G1 X141.906 Y142.491 E1.63968
G1 X141.829 Y142.542 E1.64572
G1 X141.753 Y142.598 E1.65189
G1 X141.680 Y142.658 E1.65809
G1 X141.645 Y142.692 E1.66129
G1 X141.560 Y142.721 F7800
G92 E0
G1 E-2.00000 F2400
G1 X59.426 Y143.966 F7800
G1 E0.00000 F2400
;TYPE:Internal perimeter
G1 F1800
G1 X59.420 Y143.840 E0.00826
G1 X59.408 Y143.714 E0.01651
G1 X59.377 Y143.532 E0.02863
G1 X59.348 Y143.410 E0.03687
G1 X59.312 Y143.290 E0.04504
G1 X59.247 Y143.116 E0.05724
G1 X59.195 Y143.001 E0.06548
G1 X59.137 Y142.890 E0.07366
G1 X59.036 Y142.724 E0.08641
G1 X58.911 Y142.558 E0.10005
G1 X58.828 Y142.462 E0.10834
G1 X58.739 Y142.371 E0.11666
G1 X58.602 Y142.247 E0.12879
G1 X58.503 Y142.170 E0.13704
G1 X58.405 Y142.101 E0.14484
G1 X58.304 Y142.038 E0.15264
G1 X58.193 Y141.977 E0.16093
G1 X58.009 Y141.892 E0.17420
G1 X57.890 Y141.848 E0.18257
G1 X57.776 Y141.812 E0.19037
G1 X57.661 Y141.782 E0.19817
G1 X57.538 Y141.757 E0.20635
G1 X57.354 Y141.733 E0.21854
G1 X57.228 Y141.725 E0.22679
G1 X57.103 Y141.724 E0.23496
G1 X56.917 Y141.736 E0.24716
G1 X56.793 Y141.752 E0.25541
G1 X56.677 Y141.774 E0.26313
G1 X56.561 Y141.802 E0.27093
G1 X56.447 Y141.836 E0.27874
G1 X56.333 Y141.876 E0.28662
G1 X56.218 Y141.924 E0.29479
G1 X56.052 Y142.006 E0.30692
G1 X55.943 Y142.071 E0.31524
G1 X55.844 Y142.136 E0.32298
G1 X55.748 Y142.207 E0.33085
G1 X55.651 Y142.287 E0.33903
G1 X55.516 Y142.415 E0.35123
G1 X55.431 Y142.508 E0.35947
G1 X55.357 Y142.599 E0.36720
G1 X55.286 Y142.695 E0.37500
G1 X55.220 Y142.794 E0.38281
G1 X55.159 Y142.898 E0.39069
G1 X55.101 Y143.009 E0.39887
G1 X55.027 Y143.179 E0.41107
G1 X54.985 Y143.298 E0.41931
G1 X54.950 Y143.418 E0.42749
G1 X54.909 Y143.599 E0.43967
G1 X54.891 Y143.723 E0.44786
G1 X54.879 Y143.849 E0.45618
G1 X54.874 Y144.043 E0.46886
G1 X54.888 Y144.252 E0.48261
G1 X54.908 Y144.394 E0.49197
G1 X54.934 Y144.519 E0.50033
G1 X54.984 Y144.698 E0.51252
G1 X55.025 Y144.816 E0.52070
G1 X55.074 Y144.932 E0.52895
G1 X55.157 Y145.099 E0.54114
G1 X55.220 Y145.206 E0.54932
G1 X55.290 Y145.311 E0.55757
G1 X55.403 Y145.459 E0.56977
G1 X55.486 Y145.553 E0.57801
G1 X55.574 Y145.642 E0.58618
G1 X55.712 Y145.765 E0.59831
G1 X55.813 Y145.842 E0.60663
G1 X55.916 Y145.913 E0.61481
G1 X56.077 Y146.007 E0.62699
G1 X56.188 Y146.063 E0.63517
G1 X56.297 Y146.110 E0.64297
G1 X56.409 Y146.152 E0.65078
G1 X56.524 Y146.188 E0.65867
G1 X56.639 Y146.218 E0.66647
G1 X56.755 Y146.241 E0.67421
G1 X56.874 Y146.259 E0.68208
G1 X56.998 Y146.271 E0.69026
G1 X57.184 Y146.276 E0.70245
G1 X57.310 Y146.270 E0.71071
G1 X57.429 Y146.259 E0.71851
G1 X57.547 Y146.241 E0.72632
G1 X57.663 Y146.217 E0.73413
G1 X57.779 Y146.187 E0.74192
G1 X57.898 Y146.150 E0.75010
G1 X58.071 Y146.081 E0.76229
G1 X58.185 Y146.027 E0.77055
G1 X58.295 Y145.967 E0.77880
G1 X58.451 Y145.867 E0.79092
G1 X58.552 Y145.793 E0.79917
G1 X58.649 Y145.712 E0.80742
G1 X58.784 Y145.585 E0.81954
G1 X58.869 Y145.492 E0.82778
G1 X58.948 Y145.396 E0.83595
G1 X59.056 Y145.244 E0.84814
G1 X59.121 Y145.138 E0.85632
G1 X59.182 Y145.026 E0.86465
G1 X59.258 Y144.858 E0.87677
G1 X59.302 Y144.740 E0.88502
G1 X59.338 Y144.626 E0.89283
G1 X59.368 Y144.511 E0.90063
G1 X59.392 Y144.394 E0.90843
G1 X59.409 Y144.277 E0.91615
G1 X59.421 Y144.152 E0.92440
G1 X59.424 Y144.026 E0.93267
G1 X58.929 Y144.013 F7800
;TYPE:External perimeter
G1 F1233.1825
G1 X58.930 Y143.970 E0.93547
G1 X58.926 Y143.875 E0.94173
G1 X58.916 Y143.779 E0.94800
G1 X58.892 Y143.631 E0.95785
G1 X58.869 Y143.538 E0.96411
G1 X58.842 Y143.447 E0.97031
G1 X58.789 Y143.306 E0.98023
G1 X58.749 Y143.219 E0.98650
G1 X58.706 Y143.135 E0.99269
G1 X58.625 Y143.003 E1.00282
G1 X58.525 Y142.869 E1.01376
G1 X58.462 Y142.797 E1.02000
G1 X58.395 Y142.728 E1.02634
G1 X58.283 Y142.627 E1.03619
G1 X58.208 Y142.568 E1.04246
G1 X58.132 Y142.515 E1.04856
G1 X58.053 Y142.466 E1.05466
G1 X57.969 Y142.420 E1.06090
G1 X57.819 Y142.350 E1.07176
G1 X57.728 Y142.317 E1.07807
G1 X57.640 Y142.289 E1.08417
G1 X57.549 Y142.265 E1.09027
G1 X57.457 Y142.246 E1.09647
G1 X57.306 Y142.227 E1.10639
G1 X57.211 Y142.221 E1.11266
G1 X57.116 Y142.220 E1.11885
G1 X56.965 Y142.229 E1.12877
G1 X56.870 Y142.242 E1.13504
G1 X56.780 Y142.259 E1.14107
G1 X56.689 Y142.281 E1.14717
G1 X56.600 Y142.307 E1.15328
G1 X56.511 Y142.339 E1.15946
G1 X56.424 Y142.375 E1.16565
G1 X56.289 Y142.442 E1.17551
G1 X56.206 Y142.491 E1.18184
G1 X56.129 Y142.542 E1.18788
G1 X56.053 Y142.598 E1.19405
G1 X55.980 Y142.658 E1.20025
G1 X55.870 Y142.762 E1.21017
G1 X55.806 Y142.833 E1.21643
G1 X55.747 Y142.904 E1.22247
G1 X55.692 Y142.979 E1.22857
G1 X55.640 Y143.057 E1.23468
G1 X55.593 Y143.138 E1.24085
G1 X55.549 Y143.222 E1.24705
G1 X55.489 Y143.361 E1.25697
G1 X55.457 Y143.451 E1.26324
G1 X55.430 Y143.542 E1.26943
G1 X55.397 Y143.690 E1.27935
G1 X55.383 Y143.783 E1.28555
G1 X55.374 Y143.879 E1.29188
G1 X55.370 Y144.033 E1.30194
G1 X55.381 Y144.200 E1.31293
G1 X55.397 Y144.309 E1.32010
G1 X55.416 Y144.403 E1.32641
G1 X55.457 Y144.549 E1.33633
G1 X55.488 Y144.638 E1.34252
G1 X55.525 Y144.726 E1.34879
G1 X55.592 Y144.862 E1.35871
G1 X55.640 Y144.943 E1.36491
G1 X55.693 Y145.023 E1.37117
G1 X55.785 Y145.143 E1.38109
G1 X55.849 Y145.215 E1.38736
G1 X55.915 Y145.282 E1.39355
G1 X56.028 Y145.382 E1.40341
G1 X56.105 Y145.441 E1.40974
G1 X56.183 Y145.494 E1.41594
G1 X56.313 Y145.571 E1.42586
G1 X56.398 Y145.613 E1.43205
G1 X56.483 Y145.650 E1.43816
G1 X56.571 Y145.683 E1.44427
G1 X56.660 Y145.711 E1.45044
G1 X56.751 Y145.735 E1.45654
G1 X56.841 Y145.753 E1.46258
G1 X56.934 Y145.767 E1.46875
G1 X57.028 Y145.776 E1.47495
G1 X57.180 Y145.780 E1.48487
G1 X57.275 Y145.776 E1.49114
G1 X57.368 Y145.767 E1.49725
G1 X57.460 Y145.753 E1.50335
G1 X57.552 Y145.734 E1.50946
G1 X57.642 Y145.711 E1.51556
G1 X57.732 Y145.682 E1.52175
G1 X57.873 Y145.627 E1.53168
G1 X57.959 Y145.586 E1.53794
G1 X58.043 Y145.540 E1.54421
G1 X58.170 Y145.459 E1.55406
G1 X58.247 Y145.402 E1.56033
G1 X58.321 Y145.341 E1.56659
G1 X58.430 Y145.238 E1.57644
G1 X58.494 Y145.167 E1.58271
G1 X58.554 Y145.094 E1.58890
G1 X58.642 Y144.971 E1.59882
G1 X58.692 Y144.890 E1.60502
G1 X58.738 Y144.805 E1.61136
G1 X58.800 Y144.668 E1.62121
G1 X58.833 Y144.578 E1.62748
G1 X58.861 Y144.490 E1.63358
G1 X58.885 Y144.399 E1.63969
G1 X58.903 Y144.308 E1.64579
G1 X58.917 Y144.217 E1.65182
G1 X58.926 Y144.122 E1.65809
G1 X58.927 Y144.073 E1.66129
G1 X58.966 Y143.993 F7800
G92 E0
G1 E-2.00000 F2400
G1 X57.151 Y58.276 F7800
G1 E0.00000 F2400
;TYPE:Internal perimeter
G1 F1800
G1 X57.343 Y58.268 E0.01257
G1 X57.468 Y58.254 E0.02081
G1 X57.584 Y58.234 E0.02854
