; generated by Slic3r 1.2.9 on 2022-08-08 at 20:58:24

; external perimeters extrusion width = 0.40mm
; perimeters extrusion width = 0.67mm
; infill extrusion width = 0.67mm
; solid infill extrusion width = 0.67mm
; top infill extrusion width = 0.67mm
; support material extrusion width = 0.40mm

M104 S200 ; set temperature
G28 ; home all axes
G1 Z5 F5000 ; lift nozzle

M109 S200 ; wait for temperature to be reached
G21 ; set units to millimeters
G90 ; use absolute coordinates
M82 ; use absolute distances for extrusion
G92 E0
G1 Z0.200 F1800.000
G1 E-3.00000 F2400.00000
G92 E0
G1 X63.290 Y63.295 F1800.000
G1 E3.00000 F2400.00000
G1 X64.696 Y61.960 E3.04073 F1800.000
G1 X66.008 Y60.829 E3.07712
G1 X67.500 Y59.664 E3.11687
G1 X68.301 Y59.085 E3.13763
G1 X69.118 Y58.528 E3.15840
G1 X70.584 Y57.603 E3.19480
G1 X72.230 Y56.671 E3.23454
G1 X73.778 Y55.891 E3.27095
G1 X74.677 Y55.478 E3.29172
G1 X75.586 Y55.089 E3.31248
G1 X77.354 Y54.410 E3.35226
G1 X78.289 Y54.092 E3.37301
G1 X79.226 Y53.799 E3.39364
G1 X80.904 Y53.342 E3.43017
G1 X82.752 Y52.932 E3.46993
G1 X83.725 Y52.755 E3.49069
G1 X84.701 Y52.604 E3.51145
G1 X86.422 Y52.400 E3.54785
G1 X88.310 Y52.268 E3.58759
G1 X90.043 Y52.230 E3.62399
G1 X91.605 Y52.264 E3.65682 F1800.000
G1 X93.251 Y52.370 E3.69146
G1 X94.888 Y52.548 E3.72604
G1 X96.517 Y52.797 E3.76065
G1 X98.134 Y53.116 E3.79527
G1 X99.734 Y53.506 E3.82988
G1 X101.318 Y53.966 E3.86450
G1 X102.872 Y54.491 E3.89897
G1 X104.188 Y54.996 E3.92858
G1 X105.702 Y55.649 E3.96320
G1 X107.185 Y56.366 E3.99781
G1 X108.636 Y57.148 E4.03242
G1 X110.051 Y57.992 E4.06703
G1 X111.359 Y58.850 E4.09989
G1 X112.696 Y59.810 E4.13446
G1 X113.992 Y60.829 E4.16908
G1 X115.243 Y61.904 E4.20373
G1 X116.443 Y63.031 E4.23831
G1 X117.595 Y64.211 E4.27294
G1 X118.693 Y65.438 E4.30753
G1 X119.738 Y66.715 E4.34219
G1 X120.721 Y68.027 E4.37662
G1 X121.519 Y69.189 E4.40623
G1 X122.397 Y70.584 E4.44085
G1 X123.213 Y72.015 E4.47546
G1 X123.930 Y73.408 E4.50835
G1 X124.620 Y74.900 E4.54289
G1 X125.246 Y76.425 E4.57750
G1 X125.804 Y77.975 E4.61211
G1 X126.296 Y79.551 E4.64679
G1 X126.716 Y81.141 E4.68134
G1 X127.067 Y82.745 E4.71582
G1 X127.311 Y84.133 E4.74543
G1 X127.532 Y85.767 E4.78005
G1 X127.681 Y87.408 E4.81466
G1 X127.758 Y89.054 E4.84927
G1 X127.765 Y90.618 E4.88213
G1 X127.702 Y92.264 E4.91673
G1 X127.567 Y93.906 E4.95132
G1 X127.361 Y95.541 E4.98593
G1 X127.130 Y96.925 E5.01541
G1 X126.792 Y98.538 E5.05003
G1 X126.385 Y100.134 E5.08463
G1 X125.908 Y101.712 E5.11925
G1 X125.363 Y103.267 E5.15386
G1 X124.751 Y104.797 E5.18847
G1 X124.072 Y106.299 E5.22308
G1 X123.329 Y107.770 E5.25770
G1 X122.522 Y109.206 E5.29231
G1 X121.653 Y110.607 E5.32692
G1 X120.724 Y111.968 E5.36154
G1 X119.788 Y113.222 E5.39441
G1 X118.748 Y114.497 E5.42896
G1 X117.656 Y115.723 E5.46345
G1 X116.677 Y116.737 E5.49306
G1 X115.485 Y117.876 E5.52767
G1 X114.245 Y118.961 E5.56229
G1 X112.959 Y119.991 E5.59690
G1 X111.698 Y120.916 E5.62975
G1 X110.330 Y121.832 E5.66433
G1 X108.921 Y122.689 E5.69897
G1 X107.478 Y123.483 E5.73356
G1 X106.000 Y124.214 E5.76819
G1 X104.493 Y124.878 E5.80278
G1 X103.187 Y125.393 E5.83226
G1 X101.631 Y125.934 E5.86688
G1 X100.135 Y126.385 E5.89970
G1 X98.538 Y126.792 E5.93431
G1 X97.165 Y127.084 E5.96379
G1 X95.621 Y127.349 E5.99668
G1 X93.996 Y127.558 E6.03110
G1 X92.592 Y127.681 E6.06070
G1 X91.361 Y127.745 E6.08661
G1 X90.043 Y127.770 E6.11429
G1 X87.281 Y127.384 E6.17286
G1 X84.741 Y126.234 E6.23143
G1 X83.092 Y124.908 E6.27587
G1 X55.092 Y96.908 E7.10759
G1 X53.421 Y94.675 E7.16616
G1 X52.450 Y92.061 E7.22473
G1 X52.230 Y89.958 E7.26914
G1 X52.252 Y88.724 E7.29507
G1 X52.303 Y87.652 E7.31762
G1 X52.408 Y86.337 E7.34531
G1 X52.559 Y85.028 E7.37300
G1 X52.755 Y83.724 E7.40070
G1 X52.980 Y82.512 E7.42660
G1 X53.264 Y81.224 E7.45429
G1 X53.592 Y79.948 E7.48198
G1 X53.965 Y78.683 E7.50967
G1 X54.274 Y77.744 E7.53044
G1 X54.637 Y76.733 E7.55300
G1 X55.089 Y75.585 E7.57889
G1 X55.513 Y74.599 E7.60145
G1 X56.034 Y73.481 E7.62736
G1 X56.517 Y72.522 E7.64991
G1 X57.106 Y71.438 E7.67583
G1 X57.647 Y70.511 E7.69837
G1 X58.300 Y69.465 E7.72427
G1 X58.849 Y68.642 E7.74505
G1 X59.469 Y67.765 E7.76760
G1 X60.211 Y66.780 E7.79351
G1 X60.883 Y65.943 E7.81606
G1 X61.684 Y65.005 E7.84196
G1 X62.406 Y64.210 E7.86452
G1 X63.248 Y63.338 E7.88997
G1 X63.694 Y63.780 F1800.000
G1 X64.937 Y62.590 E7.92613 F1800.000
G1 X66.345 Y61.366 E7.96531
G1 X67.102 Y60.757 E7.98572
G1 X67.870 Y60.171 E8.00601
G1 X69.264 Y59.186 E8.04185
G1 X70.837 Y58.184 E8.08103
G1 X71.676 Y57.693 E8.10144
G1 X72.528 Y57.225 E8.12187
G1 X74.046 Y56.459 E8.15758
G1 X75.750 Y55.701 E8.19676
G1 X76.654 Y55.339 E8.21719
G1 X77.559 Y55.004 E8.23746
G1 X79.179 Y54.470 E8.27330
G1 X80.976 Y53.971 E8.31247
G1 X81.923 Y53.747 E8.33292
G1 X82.868 Y53.550 E8.35319
G1 X84.550 Y53.261 E8.38903
G1 X86.400 Y53.033 E8.42819
G1 X87.369 Y52.952 E8.44862
G1 X88.340 Y52.896 E8.46904
G1 X90.040 Y52.858 E8.50475
G1 X91.660 Y52.896 E8.53879 F1800.000
G1 X93.199 Y52.996 E8.57118
G1 X94.808 Y53.171 E8.60519
G1 X96.410 Y53.416 E8.63922
G1 X98.000 Y53.730 E8.67327
G1 X99.574 Y54.114 E8.70730
G1 X101.131 Y54.566 E8.74135
G1 X102.660 Y55.083 E8.77524
G1 X103.950 Y55.578 E8.80427
G1 X105.439 Y56.219 E8.83831
G1 X106.897 Y56.925 E8.87235
G1 X108.324 Y57.693 E8.90638
G1 X109.716 Y58.523 E8.94042
G1 X111.006 Y59.369 E8.97281
G1 X112.320 Y60.313 E9.00682
G1 X113.594 Y61.315 E9.04086
G1 X114.824 Y62.373 E9.07493
G1 X116.004 Y63.481 E9.10893
G1 X117.137 Y64.641 E9.14299
G1 X118.217 Y65.848 E9.17700
G1 X119.245 Y67.104 E9.21108
G1 X120.211 Y68.394 E9.24494
G1 X120.994 Y69.533 E9.27398
G1 X121.857 Y70.905 E9.30802
G1 X122.660 Y72.313 E9.34205
G1 X123.367 Y73.685 E9.37448
G1 X124.045 Y75.153 E9.40845
G1 X124.660 Y76.652 E9.44248
G1 X125.209 Y78.177 E9.47652
G1 X125.692 Y79.727 E9.51062
G1 X126.106 Y81.291 E9.54460
G1 X126.450 Y82.868 E9.57850
G1 X126.690 Y84.229 E9.60754
G1 X126.907 Y85.835 E9.64157
G1 X127.054 Y87.449 E9.67561
G1 X127.130 Y89.068 E9.70965
G1 X127.137 Y90.610 E9.74204
G1 X127.075 Y92.229 E9.77607
G1 X126.942 Y93.843 E9.81008
G1 X126.739 Y95.450 E9.84412
G1 X126.467 Y97.048 E9.87815
G1 X126.181 Y98.394 E9.90706
G1 X125.780 Y99.964 E9.94109
G1 X125.311 Y101.515 E9.97513
G1 X124.775 Y103.045 E10.00917
G1 X124.173 Y104.549 E10.04321
G1 X123.506 Y106.026 E10.07724
G1 X122.775 Y107.472 E10.11128
G1 X121.982 Y108.885 E10.14531
G1 X121.171 Y110.196 E10.17769
G1 X120.261 Y111.536 E10.21171
G1 X119.291 Y112.837 E10.24580
G1 X118.269 Y114.091 E10.27978
G1 X117.193 Y115.298 E10.31374
G1 X116.235 Y116.291 E10.34273
G1 X115.063 Y117.411 E10.37676
G1 X113.844 Y118.478 E10.41080
G1 X112.579 Y119.491 E10.44483
G1 X111.335 Y120.402 E10.47723
G1 X109.990 Y121.303 E10.51123
G1 X108.604 Y122.146 E10.54529
G1 X107.185 Y122.927 E10.57931
G1 X105.732 Y123.645 E10.61337
G1 X104.250 Y124.299 E10.64738
G1 X102.970 Y124.803 E10.67629
G1 X101.439 Y125.336 E10.71032
G1 X99.964 Y125.780 E10.74268
G1 X98.394 Y126.181 E10.77672
G1 X97.048 Y126.467 E10.80562
G1 X95.526 Y126.728 E10.83805
G1 X93.928 Y126.933 E10.87190
G1 X92.551 Y127.054 E10.90093
G1 X91.336 Y127.117 E10.92649
G1 X90.040 Y127.142 E10.95371
G1 X87.371 Y126.755 E11.01036
G1 X84.931 Y125.607 E11.06700
G1 X83.536 Y124.464 E11.10488
G1 X55.536 Y96.464 E11.93659
G1 X53.931 Y94.297 E11.99324
G1 X53.029 Y91.755 E12.04988
G1 X52.858 Y89.961 E12.08774
G1 X52.892 Y88.420 E12.12013
G1 X52.969 Y87.132 E12.14722
G1 X53.066 Y86.078 E12.16945
G1 X53.215 Y84.869 E12.19504
G1 X53.416 Y83.590 E12.22223
G1 X53.612 Y82.556 E12.24433
G1 X53.894 Y81.291 E12.27156
G1 X54.220 Y80.036 E12.29879
G1 X54.589 Y78.793 E12.32602
G1 X54.895 Y77.870 E12.34645
G1 X55.311 Y76.727 E12.37200
G1 X55.701 Y75.750 E12.39410
G1 X56.186 Y74.634 E12.41965
G1 X56.600 Y73.754 E12.44008
G1 X57.073 Y72.815 E12.46217
G1 X57.654 Y71.745 E12.48774
G1 X58.184 Y70.837 E12.50983
G1 X58.829 Y69.805 E12.53538
G1 X59.368 Y68.995 E12.55581
G1 X59.975 Y68.137 E12.57790
G1 X60.708 Y67.165 E12.60346
G1 X61.366 Y66.344 E12.62556
G1 X62.156 Y65.419 E12.65111
G1 X62.864 Y64.640 E12.67321
G1 X63.652 Y63.823 E12.69706
G1 X64.098 Y64.265 F1800.000
G1 X65.359 Y63.055 E12.73378 F1800.000
G1 X66.746 Y61.849 E12.77238
G1 X68.247 Y60.674 E12.81240
G1 X69.613 Y59.708 E12.84755
G1 X71.163 Y58.721 E12.88614
G1 X71.988 Y58.239 E12.90622
G1 X72.825 Y57.778 E12.92629
G1 X74.314 Y57.028 E12.96131
G1 X75.993 Y56.280 E12.99992
G1 X77.771 Y55.596 E13.03993
G1 X79.360 Y55.071 E13.07508
G1 X81.131 Y54.580 E13.11367
G1 X82.990 Y54.166 E13.15369
G1 X84.640 Y53.882 E13.18884
G1 X86.463 Y53.658 E13.22743
G1 X87.416 Y53.578 E13.24751
G1 X88.370 Y53.523 E13.26759
G1 X90.037 Y53.487 E13.30261
G1 X91.630 Y53.523 E13.33607 F1800.000
G1 X93.147 Y53.623 E13.36800
G1 X94.729 Y53.794 E13.40143
G1 X96.304 Y54.035 E13.43489
G1 X97.867 Y54.344 E13.46836
G1 X99.414 Y54.721 E13.50181
G1 X100.945 Y55.166 E13.53528
G1 X102.448 Y55.674 E13.56860
G1 X103.712 Y56.159 E13.59706
G1 X105.176 Y56.790 E13.63052
G1 X106.610 Y57.483 E13.66398
G1 X108.012 Y58.239 E13.69744
G1 X109.381 Y59.055 E13.73091
G1 X110.652 Y59.888 E13.76284
G1 X111.944 Y60.817 E13.79626
G1 X113.197 Y61.802 E13.82973
G1 X114.406 Y62.842 E13.86323
G1 X115.566 Y63.931 E13.89665
G1 X116.680 Y65.072 E13.93013
G1 X117.741 Y66.258 E13.96357
G1 X118.751 Y67.493 E13.99707
G1 X119.701 Y68.761 E14.03036
G1 X120.468 Y69.878 E14.05882
G1 X121.317 Y71.226 E14.09228
G1 X122.106 Y72.610 E14.12574
G1 X122.803 Y73.963 E14.15771
G1 X123.470 Y75.406 E14.19110
G1 X124.075 Y76.880 E14.22456
G1 X124.614 Y78.379 E14.25802
G1 X125.089 Y79.902 E14.29154
G1 X125.496 Y81.440 E14.32495
G1 X125.834 Y82.990 E14.35828
G1 X126.069 Y84.325 E14.38673
G1 X126.283 Y85.904 E14.42020
G1 X126.427 Y87.490 E14.45366
G1 X126.502 Y89.081 E14.48712
G1 X126.508 Y90.602 E14.51905
G1 X126.447 Y92.193 E14.55250
G1 X126.317 Y93.780 E14.58594
G1 X126.118 Y95.360 E14.61940
G1 X125.895 Y96.691 E14.64773
G1 X125.569 Y98.250 E14.68119
G1 X125.175 Y99.793 E14.71465
G1 X124.715 Y101.319 E14.74811
G1 X124.188 Y102.822 E14.78157
G1 X123.596 Y104.301 E14.81503
G1 X122.940 Y105.753 E14.84849
G1 X122.222 Y107.175 E14.88196
G1 X121.442 Y108.564 E14.91541
G1 X120.643 Y109.856 E14.94733
G1 X119.747 Y111.173 E14.98078
G1 X118.794 Y112.452 E15.01428
G1 X117.789 Y113.685 E15.04770
G1 X116.734 Y114.870 E15.08103
G1 X115.792 Y115.845 E15.10949
G1 X114.641 Y116.945 E15.14295
G1 X113.442 Y117.995 E15.17641
G1 X112.198 Y118.990 E15.20987
G1 X110.913 Y119.931 E15.24333
G1 X109.587 Y120.815 E15.27679
G1 X108.288 Y121.603 E15.30872
G1 X106.893 Y122.370 E15.34215
G1 X105.464 Y123.077 E15.37563
G1 X104.007 Y123.720 E15.40907
G1 X102.752 Y124.214 E15.43741
G1 X101.248 Y124.738 E15.47087
G1 X99.793 Y125.175 E15.50277
G1 X98.250 Y125.569 E15.53622
G1 X96.931 Y125.849 E15.56456
G1 X95.431 Y126.107 E15.59652
G1 X93.853 Y126.309 E15.62992
G1 X92.510 Y126.427 E15.65825
G1 X91.237 Y126.492 E15.68501
G1 X90.037 Y126.513 E15.71022
G1 X87.464 Y126.127 E15.76488
G1 X85.128 Y124.981 E15.81953
G1 X83.980 Y124.020 E15.85097
G1 X55.980 Y96.020 E16.68269
G1 X54.443 Y93.920 E16.73734
G1 X53.612 Y91.455 E16.79200
G1 X53.487 Y89.964 E16.82342
G1 X53.500 Y89.008 E16.84350
G1 X53.539 Y88.052 E16.86359
G1 X53.623 Y86.853 E16.88883
G1 X53.754 Y85.593 E16.91544
G1 X53.893 Y84.566 E16.93721
G1 X54.091 Y83.383 E16.96242
G1 X54.344 Y82.133 E16.98919
G1 X54.580 Y81.131 E17.01083
G1 X54.891 Y79.970 E17.03605
G1 X55.262 Y78.752 E17.06280
G1 X55.594 Y77.777 E17.08444
G1 X56.012 Y76.658 E17.10952
G1 X56.375 Y75.767 E17.12973
G1 X56.790 Y74.824 E17.15137
G1 X57.307 Y73.741 E17.17658
G1 X57.778 Y72.825 E17.19821
G1 X58.357 Y71.781 E17.22330
G1 X58.848 Y70.954 E17.24350
G1 X59.398 Y70.082 E17.26514
G1 X60.065 Y69.092 E17.29022
G1 X60.627 Y68.311 E17.31043
G1 X61.250 Y67.491 E17.33206
G1 X61.849 Y66.746 E17.35214
G1 X62.629 Y65.833 E17.37735
G1 X63.321 Y65.071 E17.39899
G1 X64.056 Y64.308 E17.42123
G1 X64.502 Y64.750 F1800.000
G1 X65.782 Y63.520 E17.45852 F1800.000
G1 X67.148 Y62.332 E17.49655
G1 X68.622 Y61.178 E17.53587
G1 X69.962 Y60.231 E17.57033
G1 X71.489 Y59.258 E17.60835
G1 X73.123 Y58.332 E17.64781
G1 X74.582 Y57.596 E17.68214
G1 X76.236 Y56.860 E17.72017
G1 X77.984 Y56.187 E17.75951
G1 X79.541 Y55.673 E17.79394
G1 X81.285 Y55.189 E17.83196
G1 X83.113 Y54.782 E17.87129
G1 X84.730 Y54.504 E17.90575
G1 X86.526 Y54.284 E17.94376
G1 X88.400 Y54.151 E17.98322
G1 X90.034 Y54.115 E18.01755
G1 X91.531 Y54.148 E18.04900 F1800.000
G1 X93.095 Y54.249 E18.08191
G1 X94.650 Y54.418 E18.11476
G1 X96.197 Y54.654 E18.14765
G1 X97.734 Y54.958 E18.18054
G1 X99.254 Y55.329 E18.21342
G1 X100.758 Y55.766 E18.24631
G1 X102.236 Y56.266 E18.27907
G1 X103.475 Y56.741 E18.30694
G1 X104.913 Y57.360 E18.33983
G1 X106.322 Y58.042 E18.37271
G1 X107.701 Y58.784 E18.40560
G1 X109.045 Y59.586 E18.43848
G1 X110.298 Y60.408 E18.46995
G1 X111.569 Y61.320 E18.50280
G1 X112.799 Y62.288 E18.53569
G1 X113.987 Y63.310 E18.56861
G1 X115.128 Y64.381 E18.60146
G1 X116.222 Y65.502 E18.63437
G1 X117.265 Y66.668 E18.66723
G1 X118.258 Y67.881 E18.70016
G1 X119.191 Y69.128 E18.73287
G1 X119.943 Y70.222 E18.76075
G1 X120.777 Y71.548 E18.79364
G1 X121.553 Y72.907 E18.82652
G1 X122.239 Y74.241 E18.85802
G1 X122.895 Y75.659 E18.89085
G1 X123.489 Y77.108 E18.92373
G1 X124.020 Y78.581 E18.95662
G1 X124.486 Y80.078 E18.98955
G1 X124.885 Y81.589 E19.02239
G1 X125.218 Y83.113 E19.05514
G1 X125.448 Y84.420 E19.08303
G1 X125.658 Y85.972 E19.11591
G1 X125.800 Y87.531 E19.14880
G1 X125.873 Y89.095 E19.18168
G1 X125.880 Y90.593 E19.21315
G1 X125.820 Y92.157 E19.24603
G1 X125.692 Y93.717 E19.27889
G1 X125.496 Y95.270 E19.31178
G1 X125.232 Y96.813 E19.34466
G1 X124.957 Y98.106 E19.37242
G1 X124.571 Y99.623 E19.40530
G1 X124.118 Y101.122 E19.43819
G1 X123.600 Y102.599 E19.47107
G1 X123.019 Y104.053 E19.50396
G1 X122.374 Y105.480 E19.53684
G1 X121.668 Y106.877 E19.56973
G1 X120.902 Y108.242 E19.60261
G1 X120.114 Y109.516 E19.63406
G1 X119.234 Y110.810 E19.66694
G1 X118.298 Y112.067 E19.69986
G1 X117.310 Y113.279 E19.73270
G1 X116.272 Y114.444 E19.76546
G1 X115.350 Y115.399 E19.79334
G1 X114.218 Y116.480 E19.82623
G1 X113.093 Y117.467 E19.85767
G1 X111.873 Y118.448 E19.89055
G1 X110.610 Y119.376 E19.92346
G1 X109.310 Y120.247 E19.95632
G1 X107.971 Y121.061 E19.98923
G1 X106.600 Y121.814 E20.02209
G1 X105.196 Y122.509 E20.05500
G1 X103.764 Y123.140 E20.08786
G1 X102.828 Y123.514 E20.10904
G1 X101.712 Y123.920 E20.13398
G1 X100.758 Y124.234 E20.15508
G1 X99.623 Y124.571 E20.17994
G1 X98.648 Y124.827 E20.20112
G1 X97.494 Y125.094 E20.22599
G1 X96.506 Y125.290 E20.24716
G1 X95.270 Y125.496 E20.27347
G1 X94.028 Y125.658 E20.29978
G1 X92.781 Y125.777 E20.32609
G1 X91.531 Y125.852 E20.35240
G1 X90.034 Y125.885 E20.38383
G1 X87.561 Y125.498 E20.43642
G1 X84.424 Y123.576 E20.51369
G1 X56.424 Y95.576 E21.34541
G1 X54.958 Y93.547 E21.39799
G1 X54.115 Y89.966 E21.47524
G1 X54.136 Y88.782 E21.50013
G1 X54.200 Y87.531 E21.52643
G1 X54.284 Y86.526 E21.54761
G1 X54.418 Y85.350 E21.57247
G1 X54.602 Y84.111 E21.59878
G1 X54.781 Y83.119 E21.61996
G1 X55.027 Y81.960 E21.64485
G1 X55.329 Y80.746 E21.67113
G1 X55.603 Y79.775 E21.69231
G1 X55.959 Y78.646 E21.71719
G1 X56.291 Y77.694 E21.73835
G1 X56.625 Y76.816 E21.75808
G1 X57.075 Y75.728 E21.78282
G1 X57.463 Y74.866 E21.80268
G1 X57.870 Y74.019 E21.82241
G1 X58.332 Y73.123 E21.84359
G1 X58.906 Y72.087 E21.86845
G1 X59.421 Y71.221 E21.88963
G1 X59.923 Y70.427 E21.90936
G1 X60.585 Y69.445 E21.93423
G1 X61.133 Y68.682 E21.95396
G1 X61.743 Y67.880 E21.97513
G1 X62.332 Y67.148 E21.99486
G1 X63.101 Y66.248 E22.01973
G1 X63.779 Y65.501 E22.04091
G1 X64.460 Y64.793 E22.06154
G1 X64.906 Y65.235 F1800.000
G1 X66.204 Y63.985 E22.09941 F1800.000
G1 X67.550 Y62.815 E22.13686
G1 X68.998 Y61.681 E22.17549
G1 X70.311 Y60.753 E22.20926
G1 X71.815 Y59.795 E22.24670
G1 X73.420 Y58.885 E22.28546
G1 X74.850 Y58.164 E22.31910
G1 X76.479 Y57.439 E22.35656
G1 X78.196 Y56.778 E22.39518
G1 X79.722 Y56.275 E22.42895
G1 X81.440 Y55.798 E22.46639
G1 X83.236 Y55.398 E22.50503
G1 X84.820 Y55.126 E22.53880
G1 X86.589 Y54.909 E22.57624
G1 X88.430 Y54.778 E22.61501
