; generated by SuperSlicer 2.3.57 on 2022-08-31 at 18:30:36 UTC

; 

; external perimeters extrusion width = 0.42mm
; perimeters extrusion width = 0.46mm
; infill extrusion width = 0.44mm
; solid infill extrusion width = 0.46mm
; top infill extrusion width = 0.44mm
; first layer extrusion width = 0.60mm

; object:{"name":"Support_batterie_V1","id":"Support_batterie_V1.stl id:0 copy 0","object_center":[85.500000,86.625000,0.000000],"boundingbox_center":[85.500000,86.625000,5.000000],"boundingbox_size":[23.000000,20.750000,10.000000]}
; object:{"name":"Support_batterie_V1","id":"Support_batterie_V1.stl id:0 copy 1","object_center":[85.500000,113.375000,0.000000],"boundingbox_center":[85.500000,113.375000,5.000000],"boundingbox_size":[23.000000,20.750000,10.000000]}
; object:{"name":"Support_batterie_V1","id":"Support_batterie_V1.stl id:0 copy 2","object_center":[114.500000,100.000000,0.000000],"boundingbox_center":[114.500000,100.000000,5.000000],"boundingbox_size":[23.000000,20.750000,10.000000]}
; plater:{"center":[100.000000,100.000000,0.000000],"boundingbox_center":[100.000000,100.000000,5.000000],"boundingbox_size":[52.000000,47.500000,10.000000]}

M140 S60 ; set bed temperature
M104 S210 ; set temperature
;TYPE:Custom
G28 ; home all axes
G1 Z5 F5000 ; lift nozzle
M107
G21 ; set units to millimeters
G90 ; use absolute coordinates
M82 ; use absolute distances for extrusion
G92 E0
; Filament gcode
M109 S210 ; set temperature and wait for it to be reached
M190 S60 ; set bed temperature and wait for it to be reached
;LAYER_CHANGE
;Z:0.3
;HEIGHT:0.3
G1 Z0.3 F7800
G1 E-2 F2400
G1 X68.097 Y70.753 F7800
G1 E0 F2400
;TYPE:Skirt
;WIDTH:0.44
G1 F1800
G1 X67.436 Y71.562 E0.05126
G1 X66.886 Y72.45 E0.10252
G1 X66.452 Y73.408 E0.15413
G1 X66.07 Y74.778 E0.22392
G1 X65.934 Y76.187 E0.29338
G1 X65.934 Y117.529 E2.32188
G1 X66.088 Y119.943 E2.44059
G1 X66.426 Y121.858 E2.53603
G1 X67.072 Y124.073 E2.64924
G1 X67.788 Y125.814 E2.74158
G1 X68.731 Y127.572 E2.83946
G1 X69.638 Y128.781 E2.91362
G1 X70.713 Y129.805 E2.98648
G1 X71.887 Y130.607 E3.05623
G1 X73.264 Y131.252 E3.13087
G1 X74.786 Y131.67 E3.20828
G1 X76.342 Y131.815 E3.28496
G1 X94.784 Y131.814 E4.18988
G1 X96.16 Y131.679 E4.25768
G1 X97.579 Y131.308 E4.32967
G1 X128.134 Y117.222 E5.98053
G1 X128.933 Y116.701 E6.02735
G1 X129.625 Y116.143 E6.07097
G1 X130.273 Y115.504 E6.11562
G1 X130.85 Y114.809 E6.15993
G1 X131.878 Y113.115 E6.25715
G1 X132.854 Y110.902 E6.37586
G1 X133.354 Y109.351 E6.45582
G1 X133.63 Y108.229 E6.5125
G1 X133.899 Y106.671 E6.59006
G1 X134.042 Y105.083 E6.66831
G1 X134.063 Y89.422 E7.43676
G1 X133.915 Y88.07 E7.50347
G1 X133.544 Y86.77 E7.56984
G1 X132.96 Y85.549 E7.6362
G1 X132.177 Y84.438 E7.70291
G1 X131.572 Y83.794 E7.74627
G1 X130.896 Y83.215 E7.78997
G1 X130.165 Y82.718 E7.83333
G1 X129.384 Y82.304 E7.87668
G1 X100.226 Y68.857 E9.45219
G1 X98.651 Y68.355 E9.5333
G1 X97.007 Y68.184 E9.61441
G1 X73.96 Y68.184 E10.74526
G1 X72.64 Y68.3 E10.81026
G1 X71.624 Y68.542 E10.86152
G1 X70.641 Y68.917 E10.91312
G1 X69.716 Y69.416 E10.96473
G1 X68.863 Y70.032 E11.01633
G1 X68.141 Y70.712 E11.06499
G1 X68.397 Y70.982 F7800
G1 F1800
G1 X67.757 Y71.759 E11.11437
G1 X67.227 Y72.607 E11.16342
G1 X66.81 Y73.522 E11.2128
G1 X66.441 Y74.833 E11.27961
G1 X66.31 Y76.195 E11.34675
G1 X66.31 Y117.524 E13.37461
G1 X66.458 Y119.879 E13.4904
G1 X66.79 Y121.764 E13.58429
G1 X67.422 Y123.937 E13.69538
G1 X68.124 Y125.644 E13.78592
G1 X69.029 Y127.342 E13.88031
G1 X69.902 Y128.513 E13.95201
G1 X70.935 Y129.501 E14.0221
G1 X72.064 Y130.276 E14.08931
G1 X73.382 Y130.895 E14.16078
G1 X74.84 Y131.298 E14.235
G1 X76.342 Y131.439 E14.30902
G1 X94.768 Y131.438 E15.2131
G1 X96.09 Y131.309 E15.27827
G1 X97.453 Y130.954 E15.34738
G1 X127.929 Y116.906 E16.99399
G1 X128.702 Y116.405 E17.0392
G1 X129.373 Y115.865 E17.08143
G1 X130.55 Y114.583 E17.16681
G1 X131.546 Y112.941 E17.26107
G1 X132.498 Y110.782 E17.37686
G1 X132.993 Y109.247 E17.45598
G1 X133.262 Y108.155 E17.51117
G1 X133.527 Y106.627 E17.58727
G1 X133.667 Y105.055 E17.66471
G1 X133.688 Y89.446 E18.43057
G1 X133.548 Y88.153 E18.49437
G1 X133.192 Y86.903 E18.55816
G1 X132.631 Y85.73 E18.62196
G1 X131.885 Y84.674 E18.68542
G1 X131.308 Y84.06 E18.72674
G1 X130.667 Y83.513 E18.76807
G1 X129.971 Y83.039 E18.8094
G1 X129.227 Y82.645 E18.85072
G1 X100.083 Y69.205 E20.42546
G1 X98.578 Y68.723 E20.50298
G1 X97.007 Y68.56 E20.58049
G1 X73.964 Y68.56 E21.71111
G1 X72.75 Y68.662 E21.77089
G1 X71.777 Y68.888 E21.81993
G1 X70.835 Y69.241 E21.86931
G1 X69.946 Y69.715 E21.91869
G1 X69.128 Y70.3 E21.96807
G1 X68.441 Y70.941 E22.01417
G1 X68.695 Y71.215 F7800
G1 F1800
G1 X68.075 Y71.96 E22.06173
G1 X67.567 Y72.769 E22.10858
G1 X67.166 Y73.643 E22.15576
G1 X66.811 Y74.901 E22.21993
G1 X66.686 Y76.197 E22.28377
G1 X66.685 Y117.526 E24.31167
G1 X66.828 Y119.809 E24.42392
G1 X67.155 Y121.676 E24.5169
G1 X67.773 Y123.802 E24.62554
G1 X68.459 Y125.475 E24.71427
G1 X69.329 Y127.112 E24.80524
G1 X70.168 Y128.246 E24.87443
G1 X71.156 Y129.197 E24.94174
G1 X72.236 Y129.942 E25.00608
G1 X73.5 Y130.539 E25.0747
G1 X74.901 Y130.927 E25.14604
G1 X76.329 Y131.064 E25.21642
G1 X94.738 Y131.063 E26.11967
G1 X95.954 Y130.952 E26.17958
G1 X97.203 Y130.642 E26.24274
G1 X98.033 Y130.319 E26.28646
G1 X127.725 Y116.59 E27.89154
G1 X129.115 Y115.591 E27.97552
G1 X130.249 Y114.358 E28.05773
G1 X131.21 Y112.772 E28.14872
G1 X132.14 Y110.667 E28.26162
G1 X132.631 Y109.148 E28.33994
G1 X132.894 Y108.08 E28.39391
G1 X133.154 Y106.575 E28.46887
G1 X133.292 Y105.033 E28.54482
G1 X133.313 Y89.468 E29.30857
G1 X133.181 Y88.234 E29.36947
G1 X132.845 Y87.046 E29.43005
G1 X132.31 Y85.925 E29.49096
G1 X131.594 Y84.912 E29.55187
G1 X130.435 Y83.808 E29.63039
G1 X129.063 Y82.983 E29.70892
G1 X99.935 Y69.55 E31.28281
G1 X98.506 Y69.092 E31.35645
G1 X97.007 Y68.935 E31.43041
G1 X73.976 Y68.935 E32.56045
G1 X72.858 Y69.025 E32.61548
G1 X71.927 Y69.235 E32.66232
G1 X71.025 Y69.568 E32.7095
G1 X70.174 Y70.016 E32.75668
G1 X69.389 Y70.571 E32.80385
G1 X68.739 Y71.174 E32.84737
G1 X68.991 Y71.449 F7800
G1 F1800
G1 X68.978 Y71.462 E32.84828
G1 X68.394 Y72.161 E32.89295
G1 X67.907 Y72.93 E32.93762
G1 X67.522 Y73.762 E32.98262
G1 X67.183 Y74.956 E33.04352
G1 X67.061 Y76.191 E33.10443
G1 X67.061 Y117.515 E35.13203
G1 X67.145 Y119.245 E35.21702
G1 X67.473 Y121.372 E35.32261
G1 X67.927 Y123.084 E35.40952
G1 X68.735 Y125.176 E35.51957
G1 X69.569 Y126.784 E35.60847
G1 X70.387 Y127.925 E35.67734
G1 X71.339 Y128.86 E35.74281
G1 X72.391 Y129.598 E35.80587
G1 X73.619 Y130.182 E35.87257
G1 X74.956 Y130.555 E35.94071
G1 X76.33 Y130.688 E36.00844
G1 X94.728 Y130.688 E36.91118
G1 X95.886 Y130.583 E36.96819
G1 X97.07 Y130.291 E37.02805
G1 X97.876 Y129.978 E37.07048
G1 X127.522 Y116.274 E38.673
G1 X128.863 Y115.313 E38.75392
G1 X129.953 Y114.127 E38.83295
G1 X130.877 Y112.597 E38.92067
G1 X131.784 Y110.546 E39.03073
G1 X132.13 Y109.525 E39.08361
G1 X132.525 Y108.006 E39.16062
G1 X132.782 Y106.524 E39.23444
G1 X132.918 Y105.006 E39.30923
G1 X132.938 Y89.494 E40.07032
G1 X132.815 Y88.318 E40.12837
G1 X132.496 Y87.185 E40.18609
G1 X131.987 Y86.117 E40.24414
G1 X131.304 Y85.151 E40.30219
G1 X130.203 Y84.104 E40.37676
G1 X128.906 Y83.324 E40.45101
G1 X99.789 Y69.896 E42.0243
G1 X98.428 Y69.459 E42.09443
G1 X97.007 Y69.311 E42.16456
G1 X73.975 Y69.311 E43.29464
G1 X72.964 Y69.389 E43.34441
G1 X72.074 Y69.584 E43.38909
G1 X71.212 Y69.896 E43.43408
G1 X70.404 Y70.315 E43.47875
G1 X69.653 Y70.841 E43.52374
G1 X69.035 Y71.409 E43.56488
G1 X69.286 Y71.684 F7800
G1 F1800
G1 X69.273 Y71.697 E43.56579
G1 X68.71 Y72.364 E43.60861
G1 X68.245 Y73.095 E43.65113
G1 X67.879 Y73.881 E43.69364
G1 X67.553 Y75.017 E43.75164
G1 X67.437 Y76.199 E43.80994
G1 X67.437 Y117.51 E45.83693
G1 X67.516 Y119.185 E45.91922
G1 X67.841 Y121.296 E46.02399
G1 X68.281 Y122.96 E46.10845
G1 X69.076 Y125.017 E46.21663
G1 X69.877 Y126.566 E46.30221
G1 X70.635 Y127.636 E46.36658
G1 X71.499 Y128.504 E46.42665
G1 X72.532 Y129.245 E46.48905
G1 X73.737 Y129.825 E46.55467
G1 X75.018 Y130.185 E46.61994
G1 X76.331 Y130.312 E46.68468
G1 X94.713 Y130.312 E47.5866
G1 X95.811 Y130.214 E47.64072
G1 X96.944 Y129.937 E47.69793
G1 X97.719 Y129.637 E47.73872
G1 X127.325 Y115.954 E49.33902
G1 X128.61 Y115.035 E49.41655
G1 X129.656 Y113.897 E49.49236
G1 X130.547 Y112.417 E49.57715
G1 X131.429 Y110.424 E49.68409
G1 X131.767 Y109.426 E49.7358
G1 X132.157 Y107.932 E49.81156
G1 X132.409 Y106.479 E49.88392
G1 X132.543 Y104.985 E49.95752
G1 X132.562 Y89.512 E50.7167
G1 X132.448 Y88.399 E50.7716
G1 X132.144 Y87.316 E50.82681
G1 X131.662 Y86.306 E50.88171
G1 X131.012 Y85.388 E50.93692
G1 X129.972 Y84.4 E51.00728
G1 X128.749 Y83.665 E51.07733
G1 X99.644 Y70.243 E52.64993
G1 X98.351 Y69.827 E52.71658
G1 X97.006 Y69.687 E52.78293
G1 X73.982 Y69.687 E53.91267
G1 X73.067 Y69.753 E53.95767
G1 X72.213 Y69.934 E54.00049
G1 X71.397 Y70.225 E54.04301
G1 X70.626 Y70.62 E54.08552
G1 X69.914 Y71.114 E54.12804
G1 X69.331 Y71.644 E54.16671
G1 X69.58 Y71.921 F7800
G1 F1800
G1 X69.035 Y72.557 E54.20777
G1 X68.589 Y73.248 E54.24814
G1 X68.239 Y73.993 E54.28852
G1 X67.924 Y75.077 E54.34393
G1 X67.812 Y76.201 E54.39933
G1 X67.812 Y117.512 E56.42634
G1 X67.886 Y119.115 E56.50507
G1 X68.206 Y121.208 E56.60896
G1 X68.633 Y122.824 E56.691
G1 X69.209 Y124.387 E56.77273
G1 X70.157 Y126.301 E56.87752
G1 X70.873 Y127.335 E56.93925
G1 X71.661 Y128.148 E56.99481
G1 X72.629 Y128.865 E57.05387
G1 X73.721 Y129.415 E57.11389
G1 X75.013 Y129.801 E57.18005
G1 X76.314 Y129.937 E57.24421
G1 X94.697 Y129.937 E58.14622
G1 X95.719 Y129.849 E58.19657
G1 X96.771 Y129.599 E58.24961
G1 X97.562 Y129.295 E58.29117
G1 X127.08 Y115.661 E59.88656
G1 X128.293 Y114.813 E59.95916
G1 X129.265 Y113.79 E60.02844
G1 X130.146 Y112.374 E60.11025
G1 X130.885 Y110.786 E60.19621
G1 X131.375 Y109.426 E60.2671
G1 X131.768 Y107.954 E60.34191
G1 X132.034 Y106.452 E60.41672
G1 X132.165 Y105.007 E60.48791
G1 X132.188 Y89.591 E61.24432
G1 X132.091 Y88.534 E61.29642
G1 X131.812 Y87.503 E61.34883
G1 X131.364 Y86.54 E61.40093
G1 X130.758 Y85.668 E61.45303
G1 X129.767 Y84.716 E61.52044
G1 X128.597 Y84.009 E61.58754
G1 X99.496 Y70.588 E63.15999
G1 X98.281 Y70.196 E63.22259
G1 X97.006 Y70.062 E63.2855
G1 X73.984 Y70.062 E64.41513
G1 X73.163 Y70.119 E64.4555
G1 X72.363 Y70.283 E64.49558
G1 X71.586 Y70.553 E64.53596
G1 X70.851 Y70.923 E64.57633
G1 X70.177 Y71.385 E64.61641
G1 X69.624 Y71.881 E64.65285
; INIT printing object Support_batterie_V1.stl id:0 copy 0
G92 E0
G1 E-2 F2400
; printing object Support_batterie_V1.stl id:0 copy 0
G1 X93.82 Y78.869 F7800
G1 E0 F2400
;TYPE:Internal perimeter
;WIDTH:0.604
G1 F1800
G1 X75.381 Y78.869 E1.29975
G1 X75.381 Y77.631 E1.38698
G1 X95.619 Y77.631 E2.81352
G1 X95.619 Y78.869 E2.90075
G1 X93.88 Y78.869 E3.02332
G1 X93.88 Y79.408 F7800
G1 F1800
G1 X74.842 Y79.408 E4.36533
G1 X74.842 Y77.092 E4.52864
G1 X96.158 Y77.092 E6.03125
G1 X96.158 Y79.408 E6.19456
G1 X93.94 Y79.408 E6.35094
G1 X93.94 Y79.948 F7800
;TYPE:External perimeter
G1 F1800
G1 X75.698 Y79.948 E7.63681
G1 X75.698 Y90.753 E8.39848
G1 X75.707 Y91.178 E8.42839
G1 X75.735 Y91.604 E8.45854
G1 X75.782 Y92.029 E8.48868
G1 X75.847 Y92.452 E8.51883
G1 X75.93 Y92.872 E8.54897
G1 X76.032 Y93.287 E8.57912
G1 X76.152 Y93.698 E8.60926
G1 X76.289 Y94.103 E8.63941
G1 X76.444 Y94.501 E8.66956
G1 X76.616 Y94.893 E8.6997
G1 X76.805 Y95.276 E8.72985
G1 X77.024 Y95.675 E8.76191
G1 X77.05 Y95.73 E8.7662
G1 X77.081 Y95.823 E8.77309
G1 X77.094 Y95.879 E8.77715
G1 X77.102 Y95.939 E8.78144
G1 X77.104 Y95.997 E8.78554
G1 X77.098 Y96.091 E8.79216
G1 X77.08 Y96.181 E8.79863
G1 X77.051 Y96.267 E8.80502
G1 X77.01 Y96.349 E8.81149
G1 X76.96 Y96.424 E8.81788
G1 X76.9 Y96.493 E8.82431
G1 X76.831 Y96.553 E8.83074
G1 X76.755 Y96.604 E8.83717
G1 X76.674 Y96.644 E8.8436
G1 X76.587 Y96.674 E8.85007
G1 X76.494 Y96.692 E8.85673
G1 X76.437 Y96.697 E8.86075
G1 X76.38 Y96.697 E8.86481
G1 X76.286 Y96.687 E8.87147
G1 X76.197 Y96.665 E8.8779
G1 X76.112 Y96.632 E8.88437
G1 X76.029 Y96.586 E8.89103
G1 X75.982 Y96.553 E8.89509
G1 X75.935 Y96.514 E8.89938
G1 X75.895 Y96.474 E8.9034
G1 X75.833 Y96.397 E8.9103
G1 X75.801 Y96.346 E8.91459
G1 X75.567 Y95.921 E8.9488
G1 X75.351 Y95.482 E8.98323
G1 X75.154 Y95.035 E9.01767
G1 X74.977 Y94.58 E9.05211
G1 X74.82 Y94.117 E9.08655
G1 X74.684 Y93.648 E9.12099
G1 X74.568 Y93.174 E9.15543
G1 X74.472 Y92.695 E9.18987
G1 X74.398 Y92.212 E9.22431
G1 X74.345 Y91.726 E9.25874
G1 X74.313 Y91.238 E9.29318
G1 X74.302 Y90.747 E9.32785
G1 X74.302 Y76.552 E10.32844
G1 X96.698 Y76.552 E11.90713
G1 X96.698 Y90.747 E12.90771
G1 X96.687 Y91.238 E12.94238
G1 X96.655 Y91.726 E12.97682
G1 X96.602 Y92.212 E13.01126
G1 X96.528 Y92.695 E13.0457
G1 X96.432 Y93.174 E13.08014
G1 X96.316 Y93.648 E13.11458
G1 X96.18 Y94.117 E13.14901
G1 X96.023 Y94.58 E13.18345
G1 X95.846 Y95.035 E13.21789
G1 X95.649 Y95.482 E13.25233
G1 X95.433 Y95.92 E13.28673
G1 X95.18 Y96.377 E13.32355
G1 X95.147 Y96.425 E13.32764
G1 X95.108 Y96.471 E13.33193
G1 X95.065 Y96.514 E13.33622
G1 X95.021 Y96.551 E13.34028
G1 X94.942 Y96.604 E13.34694
G1 X94.86 Y96.644 E13.35337
G1 X94.774 Y96.674 E13.3598
G1 X94.684 Y96.691 E13.36623
G1 X94.593 Y96.697 E13.37266
G1 X94.499 Y96.691 E13.37933
G1 X94.442 Y96.681 E13.38338
G1 X94.387 Y96.666 E13.38744
G1 X94.299 Y96.632 E13.3941
G1 X94.218 Y96.588 E13.40057
G1 X94.142 Y96.532 E13.4072
G1 X94.1 Y96.493 E13.41126
G1 X94.061 Y96.451 E13.41531
G1 X94.003 Y96.372 E13.42225
G1 X93.974 Y96.322 E13.42626
G1 X93.95 Y96.27 E13.43032
G1 X93.919 Y96.177 E13.43722
G1 X93.906 Y96.121 E13.44128
G1 X93.899 Y96.064 E13.44534
G1 X93.897 Y95.966 E13.45223
G1 X93.902 Y95.909 E13.45629
G1 X93.912 Y95.849 E13.46058
G1 X93.928 Y95.79 E13.46487
G1 X93.949 Y95.732 E13.4692
G1 X93.976 Y95.675 E13.47368
G1 X94.195 Y95.276 E13.50574
G1 X94.384 Y94.893 E13.53589
G1 X94.556 Y94.501 E13.56604
G1 X94.711 Y94.103 E13.59618
G1 X94.848 Y93.698 E13.62633
G1 X94.968 Y93.287 E13.65647
G1 X95.07 Y92.872 E13.68662
G1 X95.153 Y92.452 E13.71677
G1 X95.218 Y92.029 E13.74691
G1 X95.265 Y91.604 E13.77706
G1 X95.293 Y91.178 E13.8072
G1 X95.302 Y90.753 E13.83712
G1 X95.302 Y79.948 E14.59878
G1 X94 Y79.948 E14.69056
;WIPE_START
G1 X93.74 Y79.602 F7800
;WIPE_END
G1 X95.371 Y78.25
;TYPE:Gap fill
;WIDTH:0.805776
G1 F1200
G1 X95.185 Y78.25 E14.70851
G1 X95 Y78.25 E14.72646
G1 X76 Y78.25 E16.56656
G1 X75.815 Y78.25 E16.58452
G1 X75.629 Y78.25 E16.60247
G1 X75 Y79.656 F7800
;WIDTH:0.964449
G1 F1200
G1 X75 Y80.106 E16.65537
G1 X75 Y90.739 E17.90551
G1 X75 Y90.766 E17.90865
G1 X75.005 Y90.982 E17.93407
G1 X75.01 Y91.198 E17.9595
G1 X75.011 Y91.218 E17.9618
G1 X75.025 Y91.437 E17.98758
G1 X75.039 Y91.655 E18.01336
G1 X75.041 Y91.675 E18.01567
G1 X75.065 Y91.893 E18.04144
G1 X75.089 Y92.111 E18.06722
G1 X75.091 Y92.13 E18.06953
G1 X75.125 Y92.347 E18.0953
G1 X75.158 Y92.564 E18.12108
G1 X75.161 Y92.583 E18.12339
G1 X75.247 Y93.013 E18.17494
G1 X75.251 Y93.032 E18.17725
G1 X75.303 Y93.245 E18.20303
G1 X75.355 Y93.458 E18.22881
G1 X75.361 Y93.477 E18.23111
G1 X75.422 Y93.688 E18.25689
G1 X75.483 Y93.898 E18.28267
G1 X75.489 Y93.917 E18.28498
G1 X75.56 Y94.124 E18.31075
G1 X75.63 Y94.332 E18.33653
G1 X75.637 Y94.35 E18.33884
G1 X75.716 Y94.555 E18.36461
G1 X75.796 Y94.759 E18.39039
G1 X75.803 Y94.777 E18.3927
G1 X75.98 Y95.179 E18.44425
G1 X75.988 Y95.196 E18.44656
G1 X76.085 Y95.393 E18.47234
G1 X76.182 Y95.59 E18.49812
G1 X76.191 Y95.607 E18.50042
G1 X76.401 Y95.991 E18.55185
;WIDTH:0.815009
G1 X76.255 Y96.096 E18.56949
;WIDTH:0.461193
G1 X76.108 Y96.2 E18.57881
;WIDTH:0.195829
G1 X76.035 Y96.253 E18.58036
G1 X76.594 Y96.407 F7800
;WIDTH:0.896434
G1 F1200
G1 X76.407 Y96.002 E18.62885
;WIDTH:1.02222
G1 X76.482 Y95.949 E18.64028
;WIDTH:0.638013
G1 X76.643 Y95.868 E18.65374
;WIDTH:0.284258
G1 X76.803 Y95.787 E18.6589
G92 E0
G1 E-2 F2400
G1 X94.626 Y96.447 F7800
G1 E0 F2400
;WIDTH:0.363843
G1 F1200
G1 X94.57 Y96.19 E0.01027
;WIDTH:0.460064
G1 X94.594 Y95.997 E0.02031
;WIDTH:0.962046
G1 X94.703 Y95.799 E0.04693
G1 X94.809 Y95.607 E0.07258
G1 X94.818 Y95.59 E0.07488
G1 X94.915 Y95.393 E0.10059
G1 X95.012 Y95.196 E0.12629
