; generated by SuperSlicer 2.3.57 on 2022-08-28 at 04:07:20 UTC

; 

; external perimeters extrusion width = 0.42mm
; perimeters extrusion width = 0.46mm
; infill extrusion width = 0.44mm
; solid infill extrusion width = 0.46mm
; top infill extrusion width = 0.44mm
; first layer extrusion width = 0.60mm

; object:{"name":"SupportEpaper400x300_V4-dos epaper (Meshed)_V1","id":"SupportEpaper400x300_V4-dos epaper (Meshed)_V1.stl id:0 copy 0","object_center":[100.000000,100.000000,0.000000],"boundingbox_center":[100.000000,100.000000,4.000000],"boundingbox_size":[98.000000,112.000000,8.000000]}
; plater:{"center":[100.000000,100.000000,0.000000],"boundingbox_center":[100.000000,100.000000,4.000000],"boundingbox_size":[98.000000,112.000000,8.000000]}

M140 S60 ; set bed temperature
M104 S210 ; set temperature
;TYPE:Custom
G28 ; home all axes
G1 Z5 F5000 ; lift nozzle
M107
G21 ; set units to millimeters
G90 ; use absolute coordinates
M82 ; use absolute distances for extrusion
G92 E0
; Filament gcode
M109 S210 ; set temperature and wait for it to be reached
M190 S60 ; set bed temperature and wait for it to be reached
;LAYER_CHANGE
;Z:0.3
;HEIGHT:0.3
G1 Z0.3 F7800
G1 E-2 F2400
G1 X53.026 Y46.581 F7800
G1 E0 F2400
;TYPE:Skirt
;WIDTH:0.44
G1 F1800
G1 X52.428 Y47.324 E0.04679
G1 X51.922 Y48.132 E0.09359
G1 X51.515 Y48.995 E0.14038
G1 X43.681 Y70.647 E1.27017
G1 X43.28 Y72.013 E1.34004
G1 X43.021 Y73.496 E1.41388
G1 X42.935 Y74.9 E1.48292
G1 X42.948 Y125.6 E3.97062
G1 X43.17 Y127.467 E4.06287
G1 X43.603 Y129.127 E4.14704
G1 X51.609 Y151.229 E5.30046
G1 X52.37 Y152.593 E5.37711
G1 X53.38 Y153.785 E5.45377
G1 X54.6 Y154.76 E5.53042
G1 X55.993 Y155.484 E5.60741
G1 X57.547 Y155.934 E5.68681
G1 X101.732 Y163.868 E7.88952
G1 X103.121 Y164.036 E7.95813
G1 X104.567 Y164.053 E8.02908
G1 X105.718 Y163.952 E8.0858
G1 X106.731 Y163.777 E8.13623
G1 X143.299 Y155.731 E9.97343
G1 X144.157 Y155.423 E10.01816
G1 X144.968 Y155.022 E10.06255
G1 X145.729 Y154.534 E10.10694
G1 X146.431 Y153.963 E10.15133
G1 X147.07 Y153.312 E10.19606
G1 X147.626 Y152.599 E10.24044
G1 X148.1 Y151.828 E10.28483
G1 X148.484 Y151.009 E10.32922
G1 X148.764 Y150.186 E10.37189
G1 X148.954 Y149.337 E10.41456
G1 X156.883 Y102.178 E12.76101
G1 X157.025 Y101.028 E12.81786
G1 X157.066 Y100.005 E12.86806
G1 X157.025 Y98.974 E12.91869
G1 X156.878 Y97.795 E12.97699
G1 X148.95 Y50.635 E15.32345
G1 X148.525 Y49.096 E15.40181
G1 X148.143 Y48.253 E15.44723
G1 X147.67 Y47.465 E15.49231
G1 X147.111 Y46.736 E15.53739
G1 X146.468 Y46.07 E15.5828
G1 X145.758 Y45.487 E15.62788
G1 X144.987 Y44.988 E15.67296
G1 X144.164 Y44.58 E15.71803
G1 X143.293 Y44.267 E15.76345
G1 X106.714 Y36.219 E17.60118
G1 X105.378 Y36.007 E17.66753
G1 X104.051 Y35.934 E17.73277
G1 X102.851 Y35.985 E17.79169
G1 X101.787 Y36.123 E17.84433
G1 X57.056 Y44.172 E20.0744
G1 X56.145 Y44.456 E20.12119
G1 X55.281 Y44.843 E20.16764
G1 X54.462 Y45.332 E20.21444
G1 X53.707 Y45.914 E20.26123
G1 X53.068 Y46.539 E20.30508
G1 X53.329 Y46.807 F7800
G1 F1800
G1 X53.316 Y46.82 E20.30603
G1 X52.743 Y47.529 E20.35072
G1 X52.258 Y48.3 E20.3954
G1 X51.868 Y49.123 E20.44008
G1 X44.036 Y70.769 E21.56958
G1 X43.646 Y72.096 E21.63747
G1 X43.395 Y73.536 E21.70919
G1 X43.311 Y74.9 E21.77626
G1 X43.323 Y125.566 E24.26224
G1 X43.506 Y127.223 E24.34406
G1 X43.959 Y129.005 E24.43427
G1 X51.943 Y151.056 E25.58499
G1 X52.67 Y152.366 E25.6585
G1 X53.631 Y153.506 E25.73167
G1 X54.795 Y154.439 E25.80483
G1 X56.123 Y155.132 E25.87834
G1 X57.614 Y155.564 E25.95452
G1 X101.795 Y163.497 E28.15698
G1 X103.136 Y163.661 E28.22329
G1 X104.527 Y163.679 E28.29155
G1 X105.658 Y163.581 E28.34726
G1 X106.651 Y163.41 E28.3967
G1 X143.164 Y155.379 E30.2311
G1 X143.984 Y155.088 E30.27377
G1 X144.759 Y154.709 E30.3161
G1 X145.487 Y154.246 E30.35844
G1 X146.163 Y153.699 E30.40111
G1 X146.769 Y153.085 E30.44344
G1 X147.306 Y152.401 E30.48611
G1 X147.763 Y151.661 E30.52878
G1 X148.133 Y150.874 E30.57145
G1 X148.403 Y150.084 E30.61244
G1 X148.584 Y149.275 E30.6531
G1 X156.512 Y102.118 E32.99943
G1 X156.651 Y100.995 E33.05493
G1 X156.69 Y100.002 E33.10371
G1 X156.65 Y99 E33.15291
G1 X156.508 Y97.858 E33.20939
G1 X148.58 Y50.7 E35.55576
G1 X148.176 Y49.236 E35.63026
G1 X147.812 Y48.431 E35.6736
G1 X147.358 Y47.673 E35.71694
G1 X146.824 Y46.978 E35.75995
G1 X146.21 Y46.343 E35.80329
G1 X145.527 Y45.783 E35.84663
G1 X144.784 Y45.305 E35.88997
G1 X143.991 Y44.915 E35.93331
G1 X143.159 Y44.619 E35.97665
G1 X106.639 Y36.587 E37.81142
G1 X105.341 Y36.381 E37.87589
G1 X104.052 Y36.31 E37.93924
G1 X102.888 Y36.359 E37.99642
G1 X101.852 Y36.493 E38.04764
G1 X57.17 Y44.531 E40.27526
G1 X56.3 Y44.799 E40.31994
G1 X55.467 Y45.169 E40.36463
G1 X54.685 Y45.635 E40.40931
G1 X53.968 Y46.185 E40.45366
G1 X53.372 Y46.765 E40.49445
G1 X53.634 Y47.034 F7800
G1 F1800
G1 X53.597 Y47.069 E40.49695
G1 X53.051 Y47.744 E40.53954
G1 X52.592 Y48.473 E40.58181
G1 X52.219 Y49.257 E40.6244
G1 X44.391 Y70.891 E41.75326
G1 X44.013 Y72.18 E41.81917
G1 X43.768 Y73.577 E41.88877
G1 X43.686 Y74.901 E41.95386
G1 X43.697 Y125.539 E44.4385
G1 X43.875 Y127.148 E44.51795
G1 X44.316 Y128.89 E44.60609
G1 X52.279 Y150.887 E45.75397
G1 X52.964 Y152.132 E45.82369
G1 X53.881 Y153.225 E45.89374
G1 X54.988 Y154.116 E45.96346
G1 X56.253 Y154.779 E46.03351
G1 X57.681 Y155.195 E46.10649
G1 X101.857 Y163.127 E48.30871
G1 X103.158 Y163.286 E48.37306
G1 X104.495 Y163.305 E48.43866
G1 X105.612 Y163.208 E48.49366
G1 X106.571 Y163.043 E48.54143
G1 X143.039 Y155.025 E50.37351
G1 X143.814 Y154.752 E50.41382
G1 X144.559 Y154.391 E50.45445
G1 X145.258 Y153.947 E50.49508
G1 X145.903 Y153.428 E50.53571
G1 X146.485 Y152.839 E50.57634
G1 X146.993 Y152.193 E50.61665
G1 X147.426 Y151.495 E50.65695
G1 X147.78 Y150.746 E50.69758
G1 X148.213 Y149.213 E50.77578
G1 X156.141 Y102.058 E53.122
G1 X156.315 Y100.005 E53.22309
G1 X156.139 Y97.926 E53.32543
G1 X148.209 Y50.762 E55.6721
G1 X147.829 Y49.379 E55.74247
G1 X147.483 Y48.612 E55.78376
G1 X147.051 Y47.89 E55.82505
G1 X146.539 Y47.223 E55.86633
G1 X145.949 Y46.614 E55.90795
G1 X145.297 Y46.081 E55.94923
G1 X144.589 Y45.626 E55.99052
G1 X143.834 Y45.256 E56.03181
G1 X143.04 Y44.976 E56.07309
G1 X106.557 Y36.954 E57.90596
G1 X105.304 Y36.755 E57.96823
G1 X104.053 Y36.686 E58.02968
G1 X102.918 Y36.733 E58.08546
G1 X101.911 Y36.864 E58.13525
G1 X57.274 Y44.892 E60.36059
G1 X56.45 Y45.144 E60.40286
G1 X55.656 Y45.494 E60.44546
G1 X54.909 Y45.936 E60.48805
G1 X54.219 Y46.464 E60.53065
G1 X53.677 Y46.992 E60.5678
G1 X53.937 Y47.26 F7800
G1 F1800
G1 X53.889 Y47.307 E60.57108
G1 X53.367 Y47.948 E60.61161
G1 X52.926 Y48.646 E60.65214
G1 X52.57 Y49.391 E60.69267
G1 X44.747 Y71.013 E61.82088
G1 X44.379 Y72.263 E61.88481
G1 X44.141 Y73.617 E61.95229
G1 X44.062 Y74.901 E62.01541
G1 X44.072 Y125.512 E64.49872
G1 X44.244 Y127.08 E64.57612
G1 X44.673 Y128.774 E64.66184
G1 X52.616 Y150.72 E65.80702
G1 X53.268 Y151.911 E65.87365
G1 X54.135 Y152.948 E65.93997
G1 X55.186 Y153.797 E66.00628
G1 X56.388 Y154.429 E66.07291
G1 X57.754 Y154.826 E66.14272
G1 X101.925 Y162.757 E68.34469
G1 X103.181 Y162.911 E68.40677
G1 X104.464 Y162.93 E68.46975
G1 X106.492 Y162.676 E68.57001
G1 X142.916 Y154.669 E70.39988
G1 X143.659 Y154.409 E70.4385
G1 X144.367 Y154.067 E70.47712
G1 X145.033 Y153.647 E70.51574
G1 X145.641 Y153.158 E70.55403
G1 X146.191 Y152.604 E70.59233
G1 X146.679 Y151.987 E70.63095
G1 X147.094 Y151.318 E70.66957
G1 X147.428 Y150.613 E70.70786
G1 X147.843 Y149.15 E70.78244
G1 X155.771 Y101.998 E73.12853
G1 X155.939 Y100.008 E73.22652
G1 X155.768 Y97.989 E73.32596
G1 X147.84 Y50.831 E75.67232
G1 X147.483 Y49.527 E75.73863
G1 X147.153 Y48.791 E75.77821
G1 X146.742 Y48.105 E75.81746
G1 X146.252 Y47.465 E75.85703
G1 X145.695 Y46.89 E75.89629
G1 X145.075 Y46.384 E75.93554
G1 X144.396 Y45.949 E75.97512
G1 X143.671 Y45.596 E76.01469
G1 X142.916 Y45.331 E76.05395
G1 X106.482 Y37.322 E77.88431
G1 X105.26 Y37.128 E77.94504
G1 X104.048 Y37.061 E78.00459
G1 X102.948 Y37.108 E78.05863
G1 X101.977 Y37.234 E78.10666
G1 X57.382 Y45.252 E80.32988
G1 X56.598 Y45.49 E80.37009
G1 X55.841 Y45.822 E80.41062
G1 X55.13 Y46.241 E80.45115
G1 X54.478 Y46.737 E80.49136
G1 X53.98 Y47.219 E80.52535
G1 X54.24 Y47.488 F7800
G1 F1800
G1 X54.172 Y47.554 E80.52997
G1 X53.68 Y48.156 E80.56814
G1 X53.262 Y48.813 E80.60632
G1 X52.923 Y49.52 E80.6448
G1 X45.102 Y71.135 E81.77267
G1 X44.745 Y72.346 E81.83461
G1 X44.514 Y73.664 E81.90028
G1 X44.437 Y74.901 E81.96111
G1 X44.447 Y125.486 E84.44313
G1 X44.613 Y127.012 E84.51845
G1 X45.028 Y128.651 E84.60143
G1 X52.954 Y150.555 E85.74437
G1 X53.567 Y151.682 E85.80731
G1 X54.387 Y152.669 E85.87026
G1 X55.383 Y153.477 E85.9332
G1 X56.523 Y154.078 E85.99645
G1 X57.821 Y154.457 E86.06279
G1 X101.987 Y162.387 E88.26453
G1 X103.197 Y162.536 E88.32434
G1 X104.434 Y162.555 E88.38504
G1 X106.418 Y162.308 E88.48315
G1 X142.788 Y154.315 E90.31029
G1 X144.162 Y153.752 E90.38312
G1 X145.373 Y152.894 E90.45594
G1 X146.361 Y151.787 E90.52877
G1 X147.077 Y150.48 E90.6019
G1 X147.473 Y149.088 E90.67288
G1 X155.4 Y101.938 E93.01886
G1 X155.563 Y100.005 E93.11406
G1 X155.398 Y98.051 E93.21027
G1 X147.47 Y50.898 E95.55636
G1 X147.135 Y49.667 E95.619
G1 X146.824 Y48.974 E95.65624
G1 X146.432 Y48.316 E95.6938
G1 X145.967 Y47.709 E95.73136
G1 X145.433 Y47.16 E95.76891
G1 X144.84 Y46.677 E95.80647
G1 X144.199 Y46.269 E95.84371
G1 X143.516 Y45.938 E95.88096
G1 X142.793 Y45.686 E95.91852
G1 X106.408 Y37.69 E97.74646
G1 X105.223 Y37.501 E97.80531
G1 X104.05 Y37.437 E97.86296
G1 X102.043 Y37.604 E97.96178
G1 X57.488 Y45.613 E100.18299
G1 X56.743 Y45.837 E100.22117
G1 X56.029 Y46.147 E100.25935
G1 X55.357 Y46.54 E100.29752
G1 X54.732 Y47.014 E100.33601
G1 X54.283 Y47.447 E100.36662
G1 X54.585 Y47.725 F7800
G1 F1800
G1 X53.986 Y48.374 E100.40996
G1 X53.271 Y49.661 E100.48216
G1 X45.459 Y71.251 E101.60875
G1 X45.112 Y72.429 E101.66902
G1 X44.888 Y73.705 E101.73255
G1 X44.813 Y74.902 E101.79142
G1 X44.822 Y125.461 E104.27216
G1 X44.982 Y126.938 E104.34507
G1 X45.386 Y128.535 E104.42591
G1 X53.293 Y150.392 E105.56642
G1 X53.871 Y151.461 E105.62602
G1 X54.646 Y152.397 E105.68563
G1 X55.584 Y153.159 E105.74494
G1 X56.658 Y153.727 E105.80455
G1 X57.888 Y154.087 E105.86746
G1 X102.056 Y162.018 E108.06926
G1 X103.22 Y162.161 E108.12683
G1 X104.405 Y162.18 E108.18496
G1 X106.339 Y161.941 E108.28058
G1 X142.668 Y153.959 E110.10569
G1 X143.969 Y153.429 E110.17459
G1 X145.117 Y152.62 E110.24349
G1 X146.052 Y151.573 E110.3124
G1 X146.728 Y150.341 E110.3813
G1 X147.099 Y149.044 E110.44751
G1 X155.026 Y101.893 E112.79352
G1 X155.188 Y100.008 E112.88638
G1 X155.027 Y98.113 E112.97968
G1 X147.1 Y50.96 E115.32581
G1 X146.785 Y49.805 E115.38452
G1 X146.121 Y48.526 E115.45522
G1 X145.179 Y47.436 E115.52592
G1 X144.005 Y46.591 E115.59692
G1 X142.672 Y46.042 E115.66762
G1 X106.327 Y38.057 E117.49352
G1 X105.186 Y37.875 E117.5502
G1 X104.051 Y37.812 E117.60595
G1 X102.108 Y37.973 E117.7016
G1 X57.591 Y45.975 E119.92091
G1 X56.209 Y46.478 E119.99311
G1 X54.984 Y47.293 E120.06531
G1 X54.625 Y47.681 E120.09122
; INIT printing object SupportEpaper400x300_V4-dos epaper (Meshed)_V1.stl id:0 copy 0
G92 E0
G1 E-2 F2400
; printing object SupportEpaper400x300_V4-dos epaper (Meshed)_V1.stl id:0 copy 0
G1 X62.619 Y120.119 F7800
G1 E0 F2400
;TYPE:Internal perimeter
;WIDTH:0.604
G1 F1800
G1 X62.619 Y144.381 E1.71026
G1 X137.381 Y144.381 E6.98026
G1 X137.381 Y120.119 E8.69052
G1 X62.679 Y120.119 E13.95628
G1 X63.158 Y120.658 F7800
G1 F1800
G1 X63.158 Y143.842 E15.59047
G1 X136.842 Y143.842 E20.78439
G1 X136.842 Y120.658 E22.41857
G1 X63.218 Y120.658 E27.60827
G1 X78.678 Y121.198 F7800
;TYPE:External perimeter
G1 F1800
G1 X63.698 Y121.198 E28.66422
G1 X63.698 Y143.302 E30.22233
G1 X136.302 Y143.302 E35.34018
G1 X136.302 Y121.198 E36.89829
G1 X78.738 Y121.198 E40.95595
;WIPE_START
G1 X78.478 Y120.852 F7800
;WIPE_END
G92 E0
G1 E-2 F2400
G1 X58.838 Y124.499 F7800
G1 E0 F2400
;TYPE:Internal perimeter
G1 F1800
G1 X58.805 Y124.34 E0.01143
G1 X58.744 Y124.12 E0.0275
G1 X58.69 Y123.967 E0.03893
G1 X58.628 Y123.817 E0.05042
G1 X58.526 Y123.612 E0.06651
G1 X58.443 Y123.472 E0.078
G1 X58.36 Y123.346 E0.08862
G1 X58.271 Y123.226 E0.0992
G1 X58.166 Y123.099 E0.11075
G1 X58.01 Y122.934 E0.12678
G1 X57.89 Y122.824 E0.13827
G1 X57.764 Y122.721 E0.14975
G1 X57.579 Y122.589 E0.16578
G1 X57.44 Y122.504 E0.17726
G1 X57.307 Y122.432 E0.1879
G1 X57.171 Y122.367 E0.19853
G1 X57.02 Y122.305 E0.21001
G1 X56.805 Y122.233 E0.22604
G1 X56.647 Y122.192 E0.23753
G1 X56.499 Y122.162 E0.24816
G1 X56.35 Y122.14 E0.25879
G1 X56.188 Y122.124 E0.27028
G1 X55.948 Y122.118 E0.28715
G1 X55.709 Y122.133 E0.30403
G1 X55.548 Y122.154 E0.31551
G1 X55.4 Y122.182 E0.32615
G1 X55.253 Y122.217 E0.33677
G1 X55.098 Y122.263 E0.3482
G1 X54.884 Y122.343 E0.36428
G1 X54.736 Y122.41 E0.37576
G1 X54.603 Y122.48 E0.38633
G1 X54.473 Y122.556 E0.39696
G1 X54.337 Y122.646 E0.40845
G1 X54.157 Y122.785 E0.42448
G1 X54.034 Y122.893 E0.43602
G1 X53.927 Y122.998 E0.44661
G1 X53.825 Y123.11 E0.45729
G1 X53.721 Y123.235 E0.46873
G1 X53.589 Y123.421 E0.48481
G1 X53.504 Y123.56 E0.49631
G1 X53.432 Y123.693 E0.50694
G1 X53.367 Y123.829 E0.51756
G1 X53.31 Y123.968 E0.52814
G1 X53.259 Y124.11 E0.53882
G1 X53.213 Y124.266 E0.55025
G1 X53.164 Y124.488 E0.56628
G1 X53.14 Y124.65 E0.57782
G1 X53.124 Y124.811 E0.58926
G1 X53.118 Y125.039 E0.60534
G1 X53.125 Y125.202 E0.61683
G1 X53.14 Y125.352 E0.62747
G1 X53.162 Y125.502 E0.6381
G1 X53.195 Y125.661 E0.64959
G1 X53.256 Y125.88 E0.66561
G1 X53.31 Y126.034 E0.6771
G1 X53.368 Y126.173 E0.68774
G1 X53.433 Y126.309 E0.69836
G1 X53.51 Y126.452 E0.70978
G1 X53.639 Y126.654 E0.72672
G1 X53.785 Y126.844 E0.7436
G1 X53.893 Y126.966 E0.75509
G1 X53.999 Y127.074 E0.76572
G1 X54.11 Y127.176 E0.77636
G1 X54.236 Y127.279 E0.78784
G1 X54.421 Y127.411 E0.80385
G1 X54.559 Y127.496 E0.81529
G1 X54.693 Y127.568 E0.82598
G1 X54.829 Y127.633 E0.83662
G1 X54.98 Y127.695 E0.84811
G1 X55.195 Y127.767 E0.86412
G1 X55.352 Y127.808 E0.87555
G1 X55.501 Y127.838 E0.88624
G1 X55.65 Y127.86 E0.89687
G1 X55.811 Y127.876 E0.9083
G1 X56.051 Y127.882 E0.92524
G1 X56.291 Y127.867 E0.94212
G1 X56.452 Y127.846 E0.95361
G1 X56.6 Y127.819 E0.96423
G1 X56.746 Y127.783 E0.97481
G1 X56.891 Y127.74 E0.98549
G1 X57.033 Y127.69 E0.99608
G1 X57.173 Y127.632 E1.00677
G1 X57.309 Y127.567 E1.0174
G1 X57.452 Y127.49 E1.02883
G1 X57.644 Y127.367 E1.0449
G1 X57.774 Y127.271 E1.05634
G1 X57.901 Y127.166 E1.06789
G1 X58.066 Y127.01 E1.08391
G1 X58.175 Y126.89 E1.09532
G1 X58.279 Y126.765 E1.10681
G1 X58.411 Y126.579 E1.1229
G1 X58.496 Y126.44 E1.13439
G1 X58.568 Y126.308 E1.14496
G1 X58.633 Y126.171 E1.15566
G1 X58.691 Y126.032 E1.16629
G1 X58.741 Y125.89 E1.17687
G1 X58.787 Y125.733 E1.18841
G1 X58.836 Y125.511 E1.20445
G1 X58.86 Y125.35 E1.21593
G1 X58.876 Y125.188 E1.22742
G1 X58.882 Y124.96 E1.24344
G1 X58.875 Y124.798 E1.25493
G1 X58.86 Y124.648 E1.26556
G1 X58.847 Y124.558 E1.27195
G1 X58.313 Y124.638 F7800
G1 F1800
G1 X58.306 Y124.592 E1.27519
G1 X58.28 Y124.466 E1.2843
G1 X58.229 Y124.282 E1.29771
G1 X58.186 Y124.161 E1.30682
G1 X58.137 Y124.041 E1.31598
G1 X58.052 Y123.87 E1.32941
G1 X57.986 Y123.758 E1.33858
G1 X57.918 Y123.656 E1.34721
G1 X57.845 Y123.558 E1.3558
G1 X57.762 Y123.457 E1.36502
G1 X57.632 Y123.32 E1.37839
G1 X57.536 Y123.232 E1.38755
G1 X57.435 Y123.149 E1.39671
G1 X57.281 Y123.039 E1.41008
G1 X57.17 Y122.971 E1.41924
G1 X57.062 Y122.913 E1.42788
G1 X56.952 Y122.86 E1.43653
G1 X56.832 Y122.81 E1.44569
G1 X56.652 Y122.75 E1.45905
G1 X56.526 Y122.718 E1.46822
G1 X56.406 Y122.694 E1.47686
G1 X56.284 Y122.675 E1.4855
G1 X56.155 Y122.663 E1.49466
G1 X55.958 Y122.658 E1.50855
G1 X55.761 Y122.67 E1.52243
G1 X55.633 Y122.687 E1.53159
G1 X55.512 Y122.709 E1.54024
G1 X55.393 Y122.738 E1.54887
G1 X55.269 Y122.775 E1.55798
G1 X55.091 Y122.842 E1.5714
G1 X54.973 Y122.896 E1.58056
G1 X54.865 Y122.952 E1.58915
G1 X54.759 Y123.014 E1.59778
G1 X54.651 Y123.086 E1.60694
G1 X54.5 Y123.201 E1.62032
G1 X54.402 Y123.288 E1.62953
G1 X54.315 Y123.373 E1.63813
G1 X54.232 Y123.464 E1.64682
G1 X54.15 Y123.564 E1.65593
