; generated by SuperSlicer 2.3.56 on 2022-04-01 at 21:33:32 UTC

; 

; external perimeters extrusion width = 0.42mm
; perimeters extrusion width = 0.45mm
; infill extrusion width = 0.45mm
; solid infill extrusion width = 0.45mm
; top infill extrusion width = 0.42mm
; first layer extrusion width = 0.56mm

; object:{"name":"SupportEpaper400x300-Devant_V1","id":"SupportEpaper400x300-Devant_V1.stl id:0 copy 0","object_center":[100.000000,100.000000,0.000000],"boundingbox_center":[100.000000,100.000000,1.500000],"boundingbox_size":[94.000000,97.500000,3.000000]}
; object:{"name":"SupportEpaper400x300-Attache_V2","id":"SupportEpaper400x300-Attache_V2.stl id:1 copy 0","object_center":[100.000000,100.000000,0.000000],"boundingbox_center":[100.000000,100.000000,2.700000],"boundingbox_size":[8.000000,33.250000,5.400000]}
; object:{"name":"SupportEpaper400x300-Attache_V2","id":"SupportEpaper400x300-Attache_V2.stl id:1 copy 1","object_center":[119.360795,100.127594,0.000000],"boundingbox_center":[119.360795,100.127594,2.700000],"boundingbox_size":[8.000000,33.250000,5.400000]}
; plater:{"center":[100.000000,100.000000,0.000000],"boundingbox_center":[100.000000,100.000000,2.700000],"boundingbox_size":[94.000000,97.500000,5.400000]}

M140 S60 ; set bed temperature
;TYPE:Custom
G28 ; home all axes
G1 Z5 F5000 ; lift nozzle
M107
G21 ; set units to millimeters
G90 ; use absolute coordinates
M82 ; use absolute distances for extrusion
G92 E0
; Filament gcode
M109 S210 ; set temperature and wait for it to be reached
M190 S60 ; set bed temperature and wait for it to be reached
;LAYER_CHANGE
;Z:0.3
;HEIGHT:0.3
G1 Z0.300000 F7800
G1 E-2.00000 F2400
G1 X48.712 Y47.613 F7800
G1 E0.00000 F2400
;TYPE:Skirt
;WIDTH:0.56
G1 F1800
G1 X49.363 Y46.962 E0.06032
G1 X49.651 Y46.702 E0.08577
G1 X50.373 Y46.116 E0.14669
G1 X50.675 Y45.896 E0.17113
G1 X51.409 Y45.414 E0.22864
G1 X51.731 Y45.224 E0.25311
G1 X52.555 Y44.795 E0.31401
G1 X52.909 Y44.633 E0.33949
G1 X53.782 Y44.288 E0.40096
G1 X54.151 Y44.165 E0.42647
G1 X55.055 Y43.913 E0.48793
G1 X55.434 Y43.829 E0.51337
G1 X56.349 Y43.675 E0.57414
G1 X56.719 Y43.631 E0.59860
G1 X57.533 Y43.577 E0.65198
G1 X57.780 Y43.569 E0.66819
G1 X142.513 Y43.577 E6.21870
G1 X142.912 Y43.599 E6.24489
G1 X143.783 Y43.693 E6.30231
G1 X144.121 Y43.745 E6.32470
G1 X144.914 Y43.906 E6.37768
G1 X145.260 Y43.993 E6.40108
G1 X146.133 Y44.259 E6.46084
G1 X146.483 Y44.385 E6.48523
G1 X147.278 Y44.717 E6.54165
G1 X147.587 Y44.863 E6.56405
G1 X148.296 Y45.240 E6.61662
G1 X148.589 Y45.413 E6.63894
G1 X149.264 Y45.855 E6.69180
G1 X149.488 Y46.013 E6.70977
G1 X149.930 Y46.351 E6.74620
G1 X150.144 Y46.528 E6.76440
G1 X150.754 Y47.072 E6.81788
G1 X151.008 Y47.321 E6.84120
G1 X151.594 Y47.954 E6.89771
G1 X151.824 Y48.228 E6.92114
G1 X152.345 Y48.912 E6.97750
G1 X152.547 Y49.205 E7.00082
G1 X152.999 Y49.934 E7.05699
G1 X153.172 Y50.245 E7.08032
G1 X153.553 Y51.016 E7.13666
G1 X153.696 Y51.343 E7.16003
G1 X154.002 Y52.148 E7.21640
G1 X154.112 Y52.487 E7.23978
G1 X154.340 Y53.317 E7.29614
G1 X154.417 Y53.665 E7.31952
G1 X154.563 Y54.505 E7.37536
G1 X154.605 Y54.844 E7.39774
G1 X154.667 Y55.620 E7.44874
G1 X154.679 Y55.915 E7.46808
G1 X154.681 Y143.953 E13.23512
G1 X154.675 Y144.179 E13.24988
G1 X154.631 Y144.904 E13.29749
G1 X154.597 Y145.225 E13.31862
G1 X154.481 Y146.006 E13.37035
G1 X154.416 Y146.340 E13.39266
G1 X154.216 Y147.160 E13.44791
G1 X154.120 Y147.487 E13.47026
G1 X153.860 Y148.246 E13.52281
G1 X153.734 Y148.563 E13.54513
G1 X153.390 Y149.330 E13.60022
G1 X153.236 Y149.634 E13.62252
G1 X152.846 Y150.325 E13.67449
G1 X152.674 Y150.600 E13.69576
G1 X152.228 Y151.250 E13.74739
G1 X152.023 Y151.521 E13.76966
G1 X151.480 Y152.176 E13.82540
G1 X151.239 Y152.439 E13.84875
G1 X150.623 Y153.052 E13.90568
G1 X150.345 Y153.302 E13.93018
G1 X149.621 Y153.889 E13.99124
G1 X149.306 Y154.118 E14.01671
G1 X148.522 Y154.628 E14.07801
G1 X148.186 Y154.823 E14.10347
G1 X147.350 Y155.250 E14.16493
G1 X146.995 Y155.409 E14.19043
G1 X146.119 Y155.746 E14.25195
G1 X145.748 Y155.867 E14.27751
G1 X144.839 Y156.112 E14.33917
G1 X144.458 Y156.193 E14.36467
G1 X143.534 Y156.341 E14.42598
G1 X143.147 Y156.382 E14.45144
G1 X142.308 Y156.427 E14.50646
G1 X142.109 Y156.432 E14.51951
G1 X57.794 Y156.431 E20.04269
G1 X57.568 Y156.424 E20.05749
G1 X56.836 Y156.380 E20.10551
G1 X56.500 Y156.344 E20.12765
G1 X55.668 Y156.217 E20.18281
G1 X55.333 Y156.150 E20.20516
G1 X54.555 Y155.957 E20.25770
G1 X54.228 Y155.859 E20.28004
G1 X53.434 Y155.583 E20.33512
G1 X53.118 Y155.456 E20.35742
G1 X52.396 Y155.128 E20.40939
G1 X52.106 Y154.981 E20.43066
G1 X51.427 Y154.597 E20.48174
G1 X51.153 Y154.426 E20.50295
G1 X50.501 Y153.979 E20.55471
G1 X50.229 Y153.774 E20.57702
G1 X49.574 Y153.230 E20.63279
G1 X49.311 Y152.989 E20.65615
G1 X48.699 Y152.373 E20.71305
G1 X48.449 Y152.096 E20.73749
G1 X47.863 Y151.374 E20.79840
G1 X47.634 Y151.058 E20.82394
G1 X47.120 Y150.270 E20.88559
G1 X46.925 Y149.933 E20.91109
G1 X46.500 Y149.099 E20.97240
G1 X46.341 Y148.744 E20.99786
G1 X46.004 Y147.869 E21.05932
G1 X45.883 Y147.499 E21.08482
G1 X45.639 Y146.592 E21.14634
G1 X45.557 Y146.210 E21.17190
G1 X45.409 Y145.281 E21.23356
G1 X45.368 Y144.894 E21.25905
G1 X45.323 Y144.057 E21.31393
G1 X45.318 Y143.859 E21.32693
G1 X45.319 Y56.044 E27.07936
G1 X45.326 Y55.818 E27.09415
G1 X45.370 Y55.086 E27.14217
G1 X45.406 Y54.750 E27.16432
G1 X45.533 Y53.918 E27.21945
G1 X45.600 Y53.585 E27.24174
G1 X45.790 Y52.816 E27.29359
G1 X45.883 Y52.504 E27.31493
G1 X46.141 Y51.753 E27.36693
G1 X46.266 Y51.436 E27.38929
G1 X46.612 Y50.667 E27.44454
G1 X46.766 Y50.363 E27.46683
G1 X47.155 Y49.674 E27.51862
G1 X47.326 Y49.400 E27.53984
G1 X47.767 Y48.756 E27.59093
G1 X47.962 Y48.497 E27.61220
G1 X48.472 Y47.878 E27.66471
G1 X48.672 Y47.658 E27.68420
G1 X49.039 Y47.991 F7800
G1 F1800
G1 X49.071 Y47.955 E27.68735
G1 X49.704 Y47.321 E27.74604
G1 X49.974 Y47.078 E27.76980
G1 X50.676 Y46.509 E27.82905
G1 X50.957 Y46.303 E27.85186
G1 X51.670 Y45.835 E27.90774
G1 X51.971 Y45.658 E27.93058
G1 X52.773 Y45.240 E27.98982
G1 X53.103 Y45.089 E28.01359
G1 X53.952 Y44.754 E28.07337
G1 X54.296 Y44.639 E28.09717
G1 X55.175 Y44.394 E28.15693
G1 X55.529 Y44.315 E28.18068
G1 X56.419 Y44.165 E28.23979
G1 X56.765 Y44.125 E28.26261
G1 X57.557 Y44.072 E28.31464
G1 X57.788 Y44.065 E28.32977
G1 X142.499 Y44.073 E33.87887
G1 X142.872 Y44.093 E33.90331
G1 X143.719 Y44.184 E33.95911
G1 X144.034 Y44.233 E33.98001
G1 X144.804 Y44.389 E34.03146
G1 X145.127 Y44.471 E34.05330
G1 X145.977 Y44.729 E34.11147
G1 X146.304 Y44.847 E34.13423
G1 X147.076 Y45.170 E34.18909
G1 X147.365 Y45.307 E34.21000
G1 X148.053 Y45.672 E34.26108
G1 X148.327 Y45.834 E34.28192
G1 X148.985 Y46.264 E34.33342
G1 X149.194 Y46.412 E34.35020
G1 X149.621 Y46.739 E34.38543
G1 X149.821 Y46.904 E34.40241
G1 X150.415 Y47.434 E34.45451
G1 X150.652 Y47.666 E34.47627
G1 X151.222 Y48.282 E34.53122
G1 X151.437 Y48.537 E34.55309
G1 X151.944 Y49.203 E34.60789
G1 X152.132 Y49.477 E34.62966
G1 X152.571 Y50.185 E34.68427
G1 X152.733 Y50.476 E34.70605
G1 X153.104 Y51.225 E34.76083
G1 X153.237 Y51.531 E34.78264
G1 X153.534 Y52.313 E34.83745
G1 X153.637 Y52.629 E34.85927
G1 X153.858 Y53.436 E34.91408
G1 X153.931 Y53.761 E34.93590
G1 X154.072 Y54.579 E34.99022
G1 X154.112 Y54.895 E35.01110
G1 X154.172 Y55.650 E35.06072
G1 X154.183 Y55.925 E35.07876
G1 X154.186 Y143.946 E40.84467
G1 X154.179 Y144.156 E40.85844
G1 X154.136 Y144.863 E40.90486
G1 X154.105 Y145.163 E40.92458
G1 X153.993 Y145.922 E40.97486
G1 X153.932 Y146.234 E40.99568
G1 X153.737 Y147.031 E41.04944
G1 X153.648 Y147.337 E41.07030
G1 X153.395 Y148.074 E41.12136
G1 X153.278 Y148.370 E41.14220
G1 X152.942 Y149.116 E41.19580
G1 X152.799 Y149.400 E41.21661
G1 X152.420 Y150.071 E41.26713
G1 X152.259 Y150.329 E41.28698
G1 X151.826 Y150.960 E41.33716
G1 X151.635 Y151.213 E41.35794
G1 X151.106 Y151.850 E41.41216
G1 X150.882 Y152.096 E41.43396
G1 X150.282 Y152.691 E41.48930
G1 X150.023 Y152.925 E41.51216
G1 X149.319 Y153.496 E41.57155
G1 X149.025 Y153.709 E41.59533
G1 X148.263 Y154.206 E41.65493
G1 X147.949 Y154.387 E41.67869
G1 X147.136 Y154.803 E41.73845
G1 X146.805 Y154.951 E41.76226
G1 X145.953 Y155.279 E41.82207
G1 X145.606 Y155.392 E41.84593
G1 X144.722 Y155.630 E41.90588
G1 X144.367 Y155.706 E41.92968
G1 X143.468 Y155.849 E41.98930
G1 X143.108 Y155.887 E42.01306
G1 X142.289 Y155.931 E42.06679
G1 X142.103 Y155.936 E42.07898
G1 X57.801 Y155.936 E47.60123
G1 X57.591 Y155.929 E47.61504
G1 X56.878 Y155.886 E47.66182
G1 X56.564 Y155.852 E47.68249
G1 X55.754 Y155.729 E47.73617
G1 X55.442 Y155.666 E47.75703
G1 X54.685 Y155.478 E47.80808
G1 X54.380 Y155.387 E47.82893
G1 X53.608 Y155.118 E47.88253
G1 X53.313 Y155.000 E47.90334
G1 X52.611 Y154.681 E47.95385
G1 X52.341 Y154.544 E47.97370
G1 X51.680 Y154.171 E48.02337
G1 X51.424 Y154.011 E48.04316
G1 X50.791 Y153.577 E48.09348
G1 X50.537 Y153.385 E48.11430
G1 X49.900 Y152.856 E48.16855
G1 X49.654 Y152.632 E48.19035
G1 X49.059 Y152.033 E48.24566
G1 X48.826 Y151.774 E48.26846
G1 X48.256 Y151.071 E48.32772
G1 X48.042 Y150.777 E48.35155
G1 X47.543 Y150.010 E48.41150
G1 X47.361 Y149.696 E48.43529
G1 X46.947 Y148.885 E48.49491
G1 X46.799 Y148.554 E48.51867
G1 X46.471 Y147.703 E48.57843
G1 X46.358 Y147.357 E48.60223
G1 X46.121 Y146.476 E48.66205
G1 X46.045 Y146.120 E48.68591
G1 X45.901 Y145.216 E48.74586
G1 X45.862 Y144.855 E48.76966
G1 X45.819 Y144.038 E48.82325
G1 X45.814 Y143.852 E48.83539
G1 X45.814 Y56.051 E54.58689
G1 X45.821 Y55.841 E54.60070
G1 X45.864 Y55.128 E54.64748
G1 X45.898 Y54.814 E54.66815
G1 X46.021 Y54.004 E54.72180
G1 X46.084 Y53.693 E54.74260
G1 X46.269 Y52.946 E54.79301
G1 X46.355 Y52.655 E54.81292
G1 X46.606 Y51.925 E54.86347
G1 X46.723 Y51.629 E54.88434
G1 X47.059 Y50.880 E54.93809
G1 X47.203 Y50.597 E54.95890
G1 X47.581 Y49.928 E55.00924
G1 X47.741 Y49.671 E55.02905
G1 X48.170 Y49.046 E55.07872
G1 X48.352 Y48.804 E55.09857
G1 X48.847 Y48.202 E55.14959
G1 X48.998 Y48.035 E55.16437
G1 X49.366 Y48.368 F7800
G1 F1800
G1 X49.430 Y48.297 E55.17067
G1 X50.046 Y47.681 E55.22773
G1 X50.296 Y47.455 E55.24979
G1 X50.979 Y46.901 E55.30738
G1 X51.240 Y46.710 E55.32856
G1 X51.932 Y46.256 E55.38281
G1 X52.211 Y46.092 E55.40402
G1 X52.990 Y45.686 E55.46159
G1 X53.297 Y45.546 E55.48367
G1 X54.122 Y45.220 E55.54175
G1 X54.442 Y45.113 E55.56385
G1 X55.295 Y44.875 E55.62191
G1 X55.624 Y44.802 E55.64397
G1 X56.489 Y44.656 E55.70141
G1 X56.810 Y44.619 E55.72260
G1 X57.582 Y44.567 E55.77328
G1 X57.796 Y44.560 E55.78732
G1 X142.486 Y44.568 E61.33501
G1 X142.832 Y44.587 E61.35770
G1 X143.654 Y44.676 E61.41188
G1 X143.947 Y44.721 E61.43129
G1 X144.694 Y44.872 E61.48122
G1 X144.994 Y44.948 E61.50150
G1 X145.820 Y45.200 E61.55807
G1 X146.124 Y45.309 E61.57921
G1 X146.875 Y45.623 E61.63251
G1 X147.142 Y45.750 E61.65192
G1 X147.811 Y46.104 E61.70151
G1 X148.066 Y46.255 E61.72086
G1 X148.706 Y46.674 E61.77102
G1 X148.900 Y46.812 E61.78660
G1 X149.313 Y47.127 E61.82062
G1 X149.498 Y47.281 E61.83639
G1 X150.076 Y47.796 E61.88710
G1 X150.297 Y48.012 E61.90732
G1 X150.850 Y48.610 E61.96071
G1 X151.050 Y48.847 E61.98101
G1 X151.542 Y49.494 E62.03426
G1 X151.717 Y49.748 E62.05447
G1 X152.144 Y50.436 E62.10753
G1 X152.294 Y50.706 E62.12775
G1 X152.654 Y51.434 E62.18097
G1 X152.778 Y51.718 E62.20123
G1 X153.067 Y52.478 E62.25448
G1 X153.163 Y52.772 E62.27474
G1 X153.377 Y53.556 E62.32799
G1 X153.445 Y53.858 E62.34825
G1 X153.582 Y54.652 E62.40104
G1 X153.619 Y54.945 E62.42043
G1 X153.677 Y55.679 E62.46866
G1 X153.688 Y55.935 E62.48542
G1 X153.690 Y143.938 E68.25018
G1 X153.684 Y144.134 E68.26297
G1 X153.642 Y144.823 E68.30819
G1 X153.613 Y145.101 E68.32651
G1 X153.504 Y145.838 E68.37534
G1 X153.447 Y146.128 E68.39467
G1 X153.258 Y146.903 E68.44695
G1 X153.175 Y147.187 E68.46632
G1 X152.930 Y147.903 E68.51589
G1 X152.821 Y148.177 E68.53523
G1 X152.495 Y148.903 E68.58735
G1 X152.362 Y149.166 E68.60667
G1 X151.994 Y149.818 E68.65574
G1 X151.845 Y150.057 E68.67417
G1 X151.424 Y150.671 E68.72290
G1 X151.246 Y150.906 E68.74220
G1 X150.732 Y151.525 E68.79490
G1 X150.524 Y151.753 E68.81514
G1 X149.942 Y152.331 E68.86888
G1 X149.701 Y152.548 E68.89011
G1 X149.016 Y153.103 E68.94784
G1 X148.744 Y153.301 E68.96991
G1 X148.003 Y153.783 E69.02782
G1 X147.712 Y153.952 E69.04988
G1 X146.922 Y154.355 E69.10795
G1 X146.614 Y154.493 E69.13005
G1 X145.786 Y154.812 E69.18816
G1 X145.465 Y154.917 E69.21032
G1 X144.606 Y155.148 E69.26857
G1 X144.276 Y155.218 E69.29066
G1 X143.403 Y155.358 E69.34858
G1 X143.068 Y155.393 E69.37065
G1 X142.269 Y155.436 E69.42310
G1 X142.096 Y155.441 E69.43441
G1 X57.809 Y155.440 E74.95574
G1 X57.613 Y155.434 E74.96856
G1 X56.919 Y155.392 E75.01411
G1 X56.628 Y155.361 E75.03331
G1 X55.840 Y155.240 E75.08550
G1 X55.550 Y155.182 E75.10487
G1 X54.816 Y155.000 E75.15444
G1 X54.533 Y154.916 E75.17379
G1 X53.781 Y154.654 E75.22590
G1 X53.508 Y154.544 E75.24523
G1 X52.826 Y154.234 E75.29429
G1 X52.575 Y154.107 E75.31272
G1 X51.933 Y153.745 E75.36097
G1 X51.695 Y153.596 E75.37935
G1 X51.080 Y153.174 E75.42822
G1 X50.845 Y152.996 E75.44756
G1 X50.225 Y152.482 E75.50028
G1 X49.997 Y152.274 E75.52052
G1 X49.419 Y151.692 E75.57423
G1 X49.203 Y151.452 E75.59541
G1 X48.649 Y150.769 E75.65300
G1 X48.450 Y150.496 E75.67514
G1 X47.965 Y149.751 E75.73338
G1 X47.796 Y149.459 E75.75547
G1 X47.394 Y148.671 E75.81339
G1 X47.257 Y148.364 E75.83545
G1 X46.938 Y147.537 E75.89352
G1 X46.833 Y147.216 E75.91562
G1 X46.603 Y146.359 E75.97373
G1 X46.532 Y146.029 E75.99589
G1 X46.392 Y145.151 E76.05414
G1 X46.357 Y144.815 E76.07623
G1 X46.314 Y144.018 E76.12854
G1 X46.309 Y143.846 E76.13982
G1 X46.310 Y56.059 E81.89039
G1 X46.316 Y55.863 E81.90321
G1 X46.358 Y55.169 E81.94877
G1 X46.389 Y54.878 E81.96796
G1 X46.510 Y54.091 E82.02013
G1 X46.567 Y53.801 E82.03944
G1 X46.747 Y53.076 E82.08839
G1 X46.827 Y52.805 E82.10689
G1 X47.071 Y52.097 E82.15597
G1 X47.179 Y51.822 E82.17535
G1 X47.507 Y51.094 E82.22762
G1 X47.640 Y50.831 E82.24694
G1 X48.007 Y50.181 E82.29583
G1 X48.156 Y49.943 E82.31423
G1 X48.572 Y49.335 E82.36248
G1 X48.741 Y49.110 E82.38091
G1 X49.222 Y48.526 E82.43044
G1 X49.325 Y48.413 E82.44051
G1 X49.692 Y48.746 F7800
G1 F1800
G1 X49.789 Y48.639 E82.44996
G1 X50.387 Y48.040 E82.50539
G1 X50.618 Y47.832 E82.52575
G1 X51.281 Y47.294 E82.58168
G1 X51.522 Y47.118 E82.60123
G1 X52.194 Y46.677 E82.65386
G1 X52.451 Y46.526 E82.67343
G1 X53.208 Y46.131 E82.72934
G1 X53.491 Y46.002 E82.74972
G1 X54.292 Y45.686 E82.80609
G1 X54.587 Y45.587 E82.82650
G1 X55.416 Y45.356 E82.88286
G1 X55.719 Y45.288 E82.90322
G1 X56.559 Y45.147 E82.95900
G1 X56.855 Y45.112 E82.97856
G1 X57.607 Y45.062 E83.02788
G1 X57.804 Y45.056 E83.04084
G1 X142.473 Y45.064 E88.58712
G1 X142.792 Y45.081 E88.60807
G1 X143.590 Y45.167 E88.66063
G1 X143.860 Y45.209 E88.67855
G1 X144.584 Y45.356 E88.72694
G1 X144.861 Y45.426 E88.74566
G1 X145.664 Y45.670 E88.80064
G1 X145.944 Y45.771 E88.82015
G1 X146.673 Y46.076 E88.87189
G1 X146.920 Y46.193 E88.88981
G1 X147.569 Y46.537 E88.93791
G1 X147.804 Y46.676 E88.95577
G1 X148.427 Y47.084 E89.00459
G1 X148.606 Y47.211 E89.01897
G1 X149.004 Y47.515 E89.05179
G1 X149.175 Y47.657 E89.06634
G1 X149.738 Y48.158 E89.11567
G1 X149.941 Y48.357 E89.13433
G1 X150.479 Y48.938 E89.18617
G1 X150.663 Y49.157 E89.20491
G1 X151.141 Y49.785 E89.25659
G1 X151.302 Y50.019 E89.27525
G1 X151.717 Y50.687 E89.32675
G1 X151.855 Y50.936 E89.34542
G1 X152.205 Y51.643 E89.39709
G1 X152.319 Y51.905 E89.41579
G1 X152.599 Y52.643 E89.46747
G1 X152.688 Y52.914 E89.48618
G1 X152.896 Y53.675 E89.53787
G1 X152.958 Y53.954 E89.55657
G1 X153.092 Y54.725 E89.60784
G1 X153.126 Y54.996 E89.62574
G1 X153.183 Y55.709 E89.67257
G1 X153.192 Y55.945 E89.68804
G1 X153.194 Y143.931 E95.45167
G1 X153.189 Y144.111 E95.46348
G1 X153.148 Y144.782 E95.50750
G1 X153.122 Y145.039 E95.52441
G1 X153.015 Y145.754 E95.57179
G1 X152.963 Y146.022 E95.58964
G1 X152.780 Y146.775 E95.64042
G1 X152.703 Y147.037 E95.65830
G1 X152.465 Y147.731 E95.70638
G1 X152.364 Y147.984 E95.72424
G1 X152.047 Y148.689 E95.77487
G1 X151.925 Y148.932 E95.79271
G1 X151.567 Y149.565 E95.84032
