; generated by SuperSlicer 2.3.56 on 2022-04-07 at 02:18:28 UTC

; 

; external perimeters extrusion width = 0.42mm
; perimeters extrusion width = 0.45mm
; infill extrusion width = 0.45mm
; solid infill extrusion width = 0.45mm
; top infill extrusion width = 0.42mm
; first layer extrusion width = 0.56mm

; object:{"name":"SupportEpaper400x300-Support LEDs (Meshed) V1","id":"SupportEpaper400x300-Support LEDs (Meshed) V1.stl id:0 copy 0","object_center":[116.179851,83.560417,0.000000],"boundingbox_center":[116.179851,83.560417,4.000000],"boundingbox_size":[27.169308,27.293259,8.000000]}
; object:{"name":"SupportEpaper400x300-Support LEDs (Meshed) V1","id":"SupportEpaper400x300-Support LEDs (Meshed) V1.stl id:0 copy 1","object_center":[83.696756,83.560417,0.000000],"boundingbox_center":[83.696756,83.560417,4.000000],"boundingbox_size":[27.169308,27.293259,8.000000]}
; object:{"name":"SupportEpaper400x300-Support LEDs (Meshed) V1","id":"SupportEpaper400x300-Support LEDs (Meshed) V1.stl id:0 copy 2","object_center":[116.179851,116.293633,0.000000],"boundingbox_center":[116.179851,116.293633,4.000000],"boundingbox_size":[27.169308,27.293259,8.000000]}
; object:{"name":"SupportEpaper400x300-Support LEDs (Meshed) V1","id":"SupportEpaper400x300-Support LEDs (Meshed) V1.stl id:0 copy 3","object_center":[83.696756,116.293633,0.000000],"boundingbox_center":[83.696756,116.293633,4.000000],"boundingbox_size":[27.169308,27.293259,8.000000]}
; plater:{"center":[99.938303,99.927025,0.000000],"boundingbox_center":[99.938303,99.927025,4.000000],"boundingbox_size":[59.652403,60.026475,8.000000]}

M140 S60 ; set bed temperature
M104 S210 ; set temperature
;TYPE:Custom
G28 ; home all axes
G1 Z5 F5000 ; lift nozzle
M107
G21 ; set units to millimeters
G90 ; use absolute coordinates
M82 ; use absolute distances for extrusion
G92 E0
; Filament gcode
M109 S210 ; set temperature and wait for it to be reached
M190 S60 ; set bed temperature and wait for it to be reached
;LAYER_CHANGE
;Z:0.3
;HEIGHT:0.3
G1 Z0.300000 F7800
G1 E-2.00000 F2400
G1 X67.999 Y67.878 F7800
G1 E0.00000 F2400
;TYPE:Skirt
;WIDTH:0.56
G1 F1800
G1 X69.240 Y66.765 E0.10788
G1 X70.727 Y65.729 E0.22521
G1 X72.210 Y64.946 E0.33381
G1 X73.902 Y64.302 E0.45103
G1 X75.554 Y63.898 E0.56108
G1 X77.917 Y63.668 E0.71484
G1 X110.660 Y63.666 E2.83467
G1 X112.779 Y63.834 E2.97232
G1 X114.822 Y64.308 E3.10809
G1 X116.791 Y65.084 E3.24508
G1 X118.578 Y66.113 E3.37863
G1 X133.778 Y78.060 E4.63031
G1 X134.732 Y79.059 E4.71969
G1 X135.445 Y80.248 E4.80946
G1 X135.867 Y81.510 E4.89565
G1 X136.012 Y82.834 E4.98184
G1 X136.012 Y115.668 E7.10762
G1 X135.878 Y116.869 E7.18585
G1 X135.516 Y118.022 E7.26409
G1 X134.767 Y119.325 E7.36141
G1 X132.301 Y122.322 E7.61267
G1 X129.804 Y125.092 E7.85410
G1 X126.698 Y128.224 E8.13972
G1 X123.411 Y131.211 E8.42726
G1 X120.514 Y133.600 E8.67036
G1 X118.381 Y135.208 E8.84329
G1 X116.920 Y135.892 E8.94775
G1 X116.007 Y136.110 E9.00846
G1 X115.073 Y136.188 E9.06917
G1 X82.507 Y136.188 E11.17759
G1 X81.280 Y136.060 E11.25742
G1 X80.097 Y135.692 E11.33764
G1 X78.779 Y134.931 E11.43615
G1 X77.684 Y133.875 E11.53466
G1 X66.654 Y119.114 E12.72765
G1 X65.906 Y117.995 E12.81480
G1 X65.216 Y116.704 E12.90958
G1 X64.643 Y115.291 E13.00828
G1 X64.264 Y113.997 E13.09556
G1 X63.989 Y112.527 E13.19240
G1 X63.867 Y110.903 E13.29785
G1 X63.869 Y77.563 E15.45637
G1 X63.981 Y76.094 E15.55175
G1 X64.203 Y74.827 E15.63499
G1 X64.587 Y73.435 E15.72847
G1 X65.029 Y72.273 E15.80901
G1 X65.768 Y70.799 E15.91577
G1 X66.807 Y69.242 E16.03692
G1 X67.960 Y67.923 E16.15036
; INIT printing object SupportEpaper400x300-Support LEDs (Meshed) V1.stl id:0 copy 0
G92 E0
G1 E-2.00000 F2400
; printing object SupportEpaper400x300-Support LEDs (Meshed) V1.stl id:0 copy 0
G1 X107.876 Y77.376 F7800
G1 E0.00000 F2400
;TYPE:Internal perimeter
G1 F1800
G1 X107.850 Y77.528 E0.01002
G1 X107.834 Y77.672 E0.01942
G1 X107.825 Y77.818 E0.02889
G1 X107.824 Y77.973 E0.03893
G1 X107.837 Y78.193 E0.05315
G1 X107.858 Y78.349 E0.06334
G1 X107.886 Y78.501 E0.07337
G1 X107.941 Y78.714 E0.08760
G1 X107.991 Y78.863 E0.09778
G1 X108.048 Y79.007 E0.10783
G1 X108.143 Y79.207 E0.12212
G1 X108.219 Y79.341 E0.13216
G1 X108.297 Y79.464 E0.14155
G1 X108.383 Y79.583 E0.15104
G1 X108.473 Y79.697 E0.16043
G1 X108.568 Y79.804 E0.16973
G1 X108.678 Y79.916 E0.17985
G1 X108.843 Y80.062 E0.19416
G1 X108.967 Y80.157 E0.20428
G1 X109.087 Y80.239 E0.21368
G1 X109.211 Y80.315 E0.22306
G1 X109.347 Y80.389 E0.23310
G1 X109.548 Y80.480 E0.24738
G1 X109.693 Y80.535 E0.25742
G1 X109.842 Y80.581 E0.26752
G1 X110.055 Y80.633 E0.28174
G1 X110.209 Y80.658 E0.29185
G1 X110.354 Y80.675 E0.30126
G1 X110.500 Y80.684 E0.31073
G1 X110.655 Y80.685 E0.32078
G1 X110.875 Y80.672 E0.33506
G1 X111.029 Y80.651 E0.34512
G1 X111.173 Y80.625 E0.35457
G1 X111.313 Y80.591 E0.36390
G1 X111.464 Y80.546 E0.37410
G1 X111.669 Y80.469 E0.38831
G1 X111.811 Y80.405 E0.39835
G1 X111.940 Y80.337 E0.40783
G1 X112.065 Y80.263 E0.41721
G1 X112.194 Y80.178 E0.42724
G1 X112.368 Y80.044 E0.44145
G1 X112.485 Y79.941 E0.45156
G1 X112.597 Y79.831 E0.46167
G1 X112.742 Y79.667 E0.47589
G1 X112.838 Y79.543 E0.48601
G1 X112.926 Y79.414 E0.49612
G1 X113.038 Y79.225 E0.51036
G1 X113.108 Y79.084 E0.52056
G1 X113.166 Y78.951 E0.52995
G1 X113.216 Y78.816 E0.53926
G1 X113.263 Y78.667 E0.54936
G1 X113.314 Y78.453 E0.56359
G1 X113.340 Y78.298 E0.57378
G1 X113.356 Y78.155 E0.58310
G1 X113.365 Y78.011 E0.59248
G1 X113.367 Y77.854 E0.60259
G1 X113.353 Y77.635 E0.61683
G1 X113.332 Y77.479 E0.62702
G1 X113.306 Y77.337 E0.63633
G1 X113.272 Y77.196 E0.64572
G1 X113.231 Y77.057 E0.65511
G1 X113.183 Y76.920 E0.66451
G1 X113.123 Y76.776 E0.67463
G1 X113.024 Y76.578 E0.68895
G1 X112.945 Y76.444 E0.69906
G1 X112.859 Y76.315 E0.70908
G1 X112.726 Y76.141 E0.72329
G1 X112.622 Y76.023 E0.73342
G1 X112.520 Y75.919 E0.74289
G1 X112.413 Y75.822 E0.75220
G1 X112.301 Y75.730 E0.76160
G1 X112.184 Y75.643 E0.77107
G1 X112.055 Y75.557 E0.78111
G1 X111.863 Y75.449 E0.79533
G1 X111.721 Y75.381 E0.80552
G1 X111.588 Y75.326 E0.81483
G1 X111.452 Y75.278 E0.82422
G1 X111.302 Y75.233 E0.83435
G1 X111.086 Y75.186 E0.84865
G1 X110.931 Y75.163 E0.85876
G1 X110.777 Y75.148 E0.86879
G1 X110.547 Y75.142 E0.88372
G1 X110.316 Y75.156 E0.89866
G1 X110.162 Y75.176 E0.90877
G1 X110.019 Y75.203 E0.91816
G1 X109.878 Y75.237 E0.92756
G1 X109.728 Y75.281 E0.93768
G1 X109.521 Y75.358 E0.95198
G1 X109.380 Y75.423 E0.96202
G1 X109.251 Y75.490 E0.97140
G1 X109.126 Y75.563 E0.98079
G1 X109.005 Y75.643 E0.99019
G1 X108.889 Y75.730 E0.99958
G1 X108.768 Y75.829 E1.00971
G1 X108.608 Y75.981 E1.02401
G1 X108.503 Y76.096 E1.03404
G1 X108.404 Y76.216 E1.04414
G1 X108.270 Y76.404 E1.05908
G1 X108.153 Y76.603 E1.07402
G1 X108.083 Y76.743 E1.08415
G1 X108.025 Y76.877 E1.09362
G1 X107.974 Y77.012 E1.10295
G1 X107.927 Y77.162 E1.11315
G1 X107.890 Y77.317 E1.12348
G1 X108.372 Y77.433 F7800
G1 F1800
G1 X108.362 Y77.474 E1.12625
G1 X108.341 Y77.597 E1.13432
G1 X108.328 Y77.716 E1.14204
G1 X108.321 Y77.836 E1.14982
G1 X108.320 Y77.960 E1.15790
G1 X108.331 Y78.145 E1.16988
G1 X108.348 Y78.271 E1.17811
G1 X108.370 Y78.394 E1.18619
G1 X108.417 Y78.573 E1.19817
G1 X108.457 Y78.693 E1.20639
G1 X108.503 Y78.810 E1.21448
G1 X108.583 Y78.977 E1.22652
G1 X108.644 Y79.086 E1.23460
G1 X108.708 Y79.187 E1.24232
G1 X108.778 Y79.285 E1.25011
G1 X108.853 Y79.378 E1.25782
G1 X108.931 Y79.466 E1.26546
G1 X109.019 Y79.556 E1.27361
G1 X109.159 Y79.679 E1.28567
G1 X109.259 Y79.756 E1.29383
G1 X109.357 Y79.823 E1.30155
G1 X109.458 Y79.885 E1.30925
G1 X109.568 Y79.945 E1.31733
G1 X109.737 Y80.022 E1.32938
G1 X109.854 Y80.066 E1.33746
G1 X109.974 Y80.104 E1.34560
G1 X110.154 Y80.147 E1.35758
G1 X110.278 Y80.168 E1.36573
G1 X110.397 Y80.181 E1.37346
G1 X110.517 Y80.188 E1.38124
G1 X110.642 Y80.189 E1.38933
G1 X110.828 Y80.178 E1.40137
G1 X110.951 Y80.162 E1.40946
G1 X111.070 Y80.140 E1.41724
G1 X111.184 Y80.112 E1.42489
G1 X111.306 Y80.076 E1.43312
G1 X111.480 Y80.011 E1.44509
G1 X111.593 Y79.959 E1.45318
G1 X111.700 Y79.904 E1.46096
G1 X111.802 Y79.843 E1.46867
G1 X111.906 Y79.774 E1.47675
G1 X112.053 Y79.662 E1.48872
G1 X112.147 Y79.578 E1.49687
G1 X112.237 Y79.490 E1.50502
G1 X112.360 Y79.351 E1.51700
G1 X112.436 Y79.252 E1.52516
G1 X112.508 Y79.148 E1.53331
G1 X112.602 Y78.988 E1.54530
G1 X112.658 Y78.874 E1.55353
G1 X112.706 Y78.765 E1.56124
G1 X112.747 Y78.655 E1.56888
G1 X112.785 Y78.535 E1.57702
G1 X112.828 Y78.355 E1.58901
G1 X112.849 Y78.229 E1.59723
G1 X112.862 Y78.112 E1.60488
G1 X112.870 Y77.993 E1.61258
G1 X112.871 Y77.867 E1.62074
G1 X112.859 Y77.682 E1.63272
G1 X112.843 Y77.557 E1.64095
G1 X112.821 Y77.440 E1.64859
G1 X112.794 Y77.325 E1.65630
G1 X112.760 Y77.210 E1.66401
G1 X112.720 Y77.098 E1.67172
G1 X112.672 Y76.982 E1.67989
G1 X112.588 Y76.815 E1.69194
G1 X112.525 Y76.707 E1.70010
G1 X112.456 Y76.603 E1.70817
G1 X112.343 Y76.456 E1.72014
G1 X112.260 Y76.362 E1.72830
G1 X112.175 Y76.276 E1.73609
G1 X112.088 Y76.196 E1.74373
G1 X111.996 Y76.120 E1.75144
G1 X111.900 Y76.049 E1.75923
G1 X111.795 Y75.980 E1.76731
G1 X111.634 Y75.889 E1.77929
G1 X111.520 Y75.834 E1.78751
G1 X111.411 Y75.789 E1.79516
G1 X111.298 Y75.749 E1.80286
G1 X111.178 Y75.713 E1.81103
G1 X110.996 Y75.673 E1.82308
G1 X110.871 Y75.655 E1.83123
G1 X110.747 Y75.643 E1.83931
G1 X110.555 Y75.638 E1.85172
G1 X110.364 Y75.649 E1.86414
G1 X110.239 Y75.666 E1.87229
G1 X110.122 Y75.688 E1.88000
G1 X110.006 Y75.715 E1.88772
G1 X109.885 Y75.751 E1.89588
G1 X109.711 Y75.816 E1.90793
G1 X109.597 Y75.868 E1.91601
G1 X109.492 Y75.923 E1.92372
G1 X109.389 Y75.984 E1.93143
G1 X109.290 Y76.049 E1.93914
G1 X109.194 Y76.120 E1.94686
G1 X109.097 Y76.201 E1.95502
G1 X108.962 Y76.329 E1.96707
G1 X108.877 Y76.421 E1.97515
G1 X108.797 Y76.518 E1.98330
G1 X108.686 Y76.674 E1.99571
G1 X108.589 Y76.839 E2.00813
G1 X108.532 Y76.952 E2.01629
G1 X108.485 Y77.062 E2.02408
G1 X108.443 Y77.173 E2.03173
G1 X108.405 Y77.294 E2.03996
G1 X108.386 Y77.374 E2.04528
G1 X108.868 Y77.490 F7800
;TYPE:External perimeter
G1 F900.00005
G1 X108.848 Y77.573 E2.05082
G1 X108.832 Y77.666 E2.05694
G1 X108.822 Y77.759 E2.06297
G1 X108.816 Y77.853 E2.06907
G1 X108.815 Y77.947 E2.07520
G1 X108.825 Y78.097 E2.08494
G1 X108.837 Y78.193 E2.09120
G1 X108.854 Y78.286 E2.09732
G1 X108.892 Y78.432 E2.10706
G1 X108.923 Y78.524 E2.11332
G1 X108.958 Y78.612 E2.11945
G1 X109.023 Y78.748 E2.12925
G1 X109.069 Y78.831 E2.13537
G1 X109.119 Y78.909 E2.14141
G1 X109.174 Y78.986 E2.14751
G1 X109.232 Y79.059 E2.15354
G1 X109.293 Y79.128 E2.15951
G1 X109.360 Y79.196 E2.16570
G1 X109.474 Y79.296 E2.17551
G1 X109.550 Y79.355 E2.18170
G1 X109.627 Y79.407 E2.18774
G1 X109.706 Y79.456 E2.19377
G1 X109.789 Y79.501 E2.19989
G1 X109.927 Y79.564 E2.20969
G1 X110.016 Y79.597 E2.21582
G1 X110.107 Y79.626 E2.22201
G1 X110.253 Y79.661 E2.23175
G1 X110.347 Y79.677 E2.23794
G1 X110.440 Y79.687 E2.24398
G1 X110.534 Y79.693 E2.25008
G1 X110.629 Y79.694 E2.25620
G1 X110.780 Y79.684 E2.26601
G1 X110.874 Y79.672 E2.27213
G1 X110.966 Y79.655 E2.27823
G1 X111.056 Y79.633 E2.28420
G1 X111.149 Y79.606 E2.29046
G1 X111.290 Y79.553 E2.30020
G1 X111.376 Y79.514 E2.30632
G1 X111.459 Y79.470 E2.31242
G1 X111.539 Y79.423 E2.31846
G1 X111.618 Y79.371 E2.32458
G1 X111.738 Y79.279 E2.33432
G1 X111.809 Y79.216 E2.34051
G1 X111.877 Y79.149 E2.34670
G1 X111.977 Y79.036 E2.35644
G1 X112.035 Y78.960 E2.36263
G1 X112.089 Y78.881 E2.36882
G1 X112.166 Y78.752 E2.37856
G1 X112.209 Y78.665 E2.38482
G1 X112.246 Y78.580 E2.39086
G1 X112.278 Y78.493 E2.39682
G1 X112.307 Y78.402 E2.40301
G1 X112.342 Y78.256 E2.41275
G1 X112.358 Y78.160 E2.41901
G1 X112.368 Y78.069 E2.42498
G1 X112.374 Y77.976 E2.43101
G1 X112.375 Y77.880 E2.43720
G1 X112.366 Y77.730 E2.44694
G1 X112.353 Y77.634 E2.45320
G1 X112.336 Y77.544 E2.45917
G1 X112.315 Y77.453 E2.46520
G1 X112.288 Y77.364 E2.47123
G1 X112.257 Y77.276 E2.47726
G1 X112.220 Y77.187 E2.48346
G1 X112.153 Y77.052 E2.49327
G1 X112.104 Y76.970 E2.49946
G1 X112.052 Y76.891 E2.50558
G1 X111.960 Y76.771 E2.51532
G1 X111.897 Y76.700 E2.52151
G1 X111.831 Y76.633 E2.52761
G1 X111.763 Y76.570 E2.53358
G1 X111.691 Y76.511 E2.53961
G1 X111.615 Y76.455 E2.54571
G1 X111.536 Y76.403 E2.55184
G1 X111.405 Y76.329 E2.56158
G1 X111.318 Y76.287 E2.56783
G1 X111.233 Y76.252 E2.57380
G1 X111.145 Y76.221 E2.57983
G1 X111.053 Y76.194 E2.58603
G1 X110.906 Y76.161 E2.59583
G1 X110.811 Y76.147 E2.60203
G1 X110.717 Y76.138 E2.60815
G1 X110.564 Y76.134 E2.61804
G1 X110.412 Y76.143 E2.62794
G1 X110.317 Y76.156 E2.63413
G1 X110.225 Y76.173 E2.64017
G1 X110.134 Y76.194 E2.64620
G1 X110.043 Y76.222 E2.65239
G1 X109.901 Y76.275 E2.66220
G1 X109.815 Y76.314 E2.66832
G1 X109.732 Y76.357 E2.67435
G1 X109.652 Y76.404 E2.68039
G1 X109.574 Y76.456 E2.68642
G1 X109.499 Y76.511 E2.69246
G1 X109.425 Y76.572 E2.69865
G1 X109.316 Y76.676 E2.70846
G1 X109.252 Y76.746 E2.71458
G1 X109.191 Y76.820 E2.72077
G1 X109.102 Y76.944 E2.73067
G1 X109.025 Y77.076 E2.74056
G1 X108.982 Y77.162 E2.74676
G1 X108.944 Y77.248 E2.75286
G1 X108.912 Y77.334 E2.75883
G1 X108.882 Y77.431 E2.76540
G1 X108.786 Y77.514 F7800
G92 E0
G1 E-2.00000 F2400
G1 X104.134 Y76.036 F7800
G1 E0.00000 F2400
;TYPE:Internal perimeter
G1 F1800
G1 X104.165 Y75.932 E0.00699
G1 X104.219 Y75.765 E0.01837
G1 X104.276 Y75.602 E0.02956
G1 X104.363 Y75.378 E0.04510
G1 X104.428 Y75.223 E0.05596
G1 X104.502 Y75.059 E0.06765
G1 X104.579 Y74.901 E0.07902
G1 X104.659 Y74.745 E0.09039
G1 X104.743 Y74.593 E0.10160
G1 X104.862 Y74.391 E0.11681
G1 X104.955 Y74.245 E0.12801
G1 X105.052 Y74.099 E0.13936
G1 X105.157 Y73.952 E0.15105
G1 X105.262 Y73.811 E0.16241
G1 X105.371 Y73.673 E0.17380
G1 X105.480 Y73.542 E0.18486
G1 X105.596 Y73.410 E0.19624
G1 X105.716 Y73.281 E0.20761
G1 X105.838 Y73.155 E0.21897
G1 X105.968 Y73.029 E0.23067
G1 X106.091 Y72.915 E0.24154
G1 X106.272 Y72.758 E0.25707
G1 X106.406 Y72.649 E0.26825
G1 X106.548 Y72.538 E0.27995
G1 X106.686 Y72.437 E0.29100
G1 X106.830 Y72.337 E0.30237
G1 X106.981 Y72.238 E0.31405
G1 X107.131 Y72.146 E0.32541
G1 X107.280 Y72.058 E0.33662
G1 X107.487 Y71.946 E0.35183
G1 X107.641 Y71.868 E0.36301
G1 X107.804 Y71.791 E0.37472
G1 X107.960 Y71.722 E0.38577
G1 X108.123 Y71.656 E0.39715
G1 X108.287 Y71.593 E0.40850
G1 X108.457 Y71.534 E0.42019
G1 X108.622 Y71.481 E0.43139
G1 X108.848 Y71.416 E0.44658
G1 X109.020 Y71.372 E0.45809
G1 X109.189 Y71.334 E0.46929
G1 X109.419 Y71.289 E0.48450
G1 X109.590 Y71.261 E0.49569
G1 X109.769 Y71.236 E0.50739
G1 X109.938 Y71.217 E0.51844
G1 X110.113 Y71.202 E0.52980
G1 X110.293 Y71.192 E0.54149
G1 X110.469 Y71.186 E0.55285
G1 X110.642 Y71.185 E0.56406
G1 X110.874 Y71.191 E0.57907
G1 X111.110 Y71.205 E0.59439
G1 X111.402 Y71.234 E0.61338
G1 X111.631 Y71.265 E0.62838
G1 X111.862 Y71.306 E0.64354
G1 X112.091 Y71.354 E0.65870
G1 X112.316 Y71.409 E0.67368
G1 X112.602 Y71.492 E0.69299
G1 X112.820 Y71.564 E0.70780
G1 X113.099 Y71.668 E0.72711
G1 X113.312 Y71.758 E0.74208
G1 X113.526 Y71.857 E0.75739
G1 X113.788 Y71.991 E0.77637
G1 X113.990 Y72.104 E0.79137
G1 X114.190 Y72.226 E0.80651
G1 X114.389 Y72.357 E0.82199
G1 X114.580 Y72.492 E0.83716
G1 X114.772 Y72.638 E0.85272
G1 X127.971 Y83.053 E1.94127
G1 X127.488 Y83.639 E1.99043
G1 X127.053 Y84.157 E2.03426
G1 X126.613 Y84.672 E2.07808
G1 X126.169 Y85.182 E2.12190
G1 X125.720 Y85.689 E2.16573
G1 X125.267 Y86.192 E2.20955
G1 X124.809 Y86.691 E2.25337
G1 X124.348 Y87.186 E2.29720
G1 X123.882 Y87.677 E2.34102
G1 X123.411 Y88.164 E2.38485
G1 X122.937 Y88.646 E2.42867
G1 X122.458 Y89.125 E2.47249
G1 X121.975 Y89.599 E2.51632
G1 X121.488 Y90.069 E2.56014
G1 X120.997 Y90.535 E2.60396
G1 X120.502 Y90.997 E2.64779
G1 X120.003 Y91.454 E2.69161
G1 X119.500 Y91.907 E2.73544
G1 X118.993 Y92.355 E2.77926
G1 X118.482 Y92.800 E2.82308
G1 X117.967 Y93.239 E2.86691
G1 X117.449 Y93.674 E2.91073
G1 X116.926 Y94.105 E2.95455
G1 X116.400 Y94.531 E2.99838
G1 X115.871 Y94.952 E3.04220
G1 X115.272 Y95.420 E3.09137
G1 X105.210 Y81.948 E4.18003
G1 X105.029 Y81.694 E4.20023
G1 X104.938 Y81.556 E4.21091
G1 X104.842 Y81.403 E4.22261
G1 X104.753 Y81.252 E4.23397
