; generated by SuperSlicer 2.3.57 on 2022-08-28 at 12:09:06 UTC

; 

; external perimeters extrusion width = 0.42mm
; perimeters extrusion width = 0.46mm
; infill extrusion width = 0.44mm
; solid infill extrusion width = 0.46mm
; top infill extrusion width = 0.44mm
; first layer extrusion width = 0.60mm

; object:{"name":"SupportEpaper400x300_V4-cadre epaper (Meshed)_V1","id":"SupportEpaper400x300_V4-cadre epaper (Meshed)_V1.stl id:0 copy 0","object_center":[100.000000,100.000000,0.000000],"boundingbox_center":[100.000000,100.000000,1.500000],"boundingbox_size":[98.000000,112.000000,3.000000]}
; plater:{"center":[100.000000,100.000000,0.000000],"boundingbox_center":[100.000000,100.000000,1.500000],"boundingbox_size":[98.000000,112.000000,3.000000]}

M140 S60 ; set bed temperature
M104 S210 ; set temperature
;TYPE:Custom
G28 ; home all axes
G1 Z5 F5000 ; lift nozzle
M107
G21 ; set units to millimeters
G90 ; use absolute coordinates
M82 ; use absolute distances for extrusion
G92 E0
; Filament gcode
M109 S210 ; set temperature and wait for it to be reached
M190 S60 ; set bed temperature and wait for it to be reached
;LAYER_CHANGE
;Z:0.3
;HEIGHT:0.3
G1 Z0.3 F7800
G1 E-2 F2400
G1 X53.026 Y46.581 F7800
G1 E0 F2400
;TYPE:Skirt
;WIDTH:0.44
G1 F1800
G1 X52.428 Y47.324 E0.04679
G1 X51.925 Y48.126 E0.09324
G1 X51.517 Y48.988 E0.14004
G1 X43.68 Y70.651 E1.27037
G1 X43.246 Y72.166 E1.34769
G1 X43.012 Y73.576 E1.41782
G1 X42.934 Y74.984 E1.48702
G1 X42.944 Y125.507 E3.96605
G1 X43.171 Y127.477 E4.06334
G1 X43.642 Y129.243 E4.15299
G1 X51.606 Y151.223 E5.30009
G1 X52.37 Y152.593 E5.37708
G1 X53.38 Y153.785 E5.45374
G1 X54.6 Y154.76 E5.53039
G1 X55.993 Y155.484 E5.60739
G1 X57.547 Y155.934 E5.68678
G1 X101.73 Y163.867 E7.88935
G1 X103.124 Y164.036 E7.95825
G1 X104.564 Y164.053 E8.02891
G1 X105.715 Y163.953 E8.08563
G1 X106.733 Y163.777 E8.13631
G1 X143.299 Y155.731 E9.9734
G1 X144.157 Y155.423 E10.01813
G1 X144.968 Y155.022 E10.06252
G1 X145.729 Y154.534 E10.10691
G1 X146.431 Y153.963 E10.1513
G1 X147.065 Y153.317 E10.19569
G1 X147.626 Y152.599 E10.24042
G1 X148.1 Y151.828 E10.2848
G1 X148.484 Y151.009 E10.32919
G1 X148.764 Y150.186 E10.37186
G1 X148.954 Y149.337 E10.41453
G1 X156.882 Y102.181 E12.76083
G1 X157.026 Y101.022 E12.81811
G1 X157.066 Y100 E12.86831
G1 X157.025 Y98.971 E12.91881
G1 X156.879 Y97.797 E12.97685
G1 X148.95 Y50.635 E15.32342
G1 X148.525 Y49.096 E15.40179
G1 X148.146 Y48.259 E15.44686
G1 X147.67 Y47.465 E15.49228
G1 X147.111 Y46.736 E15.53736
G1 X146.468 Y46.07 E15.58277
G1 X145.758 Y45.487 E15.62785
G1 X144.981 Y44.985 E15.67327
G1 X144.151 Y44.575 E15.71869
G1 X143.286 Y44.265 E15.76376
G1 X106.756 Y36.228 E17.59901
G1 X105.437 Y36.013 E17.66462
G1 X104.056 Y35.934 E17.73246
G1 X102.855 Y35.985 E17.79146
G1 X101.785 Y36.123 E17.84441
G1 X57.056 Y44.172 E20.07437
G1 X56.145 Y44.456 E20.12116
G1 X55.281 Y44.843 E20.16761
G1 X54.462 Y45.332 E20.21441
G1 X53.707 Y45.914 E20.2612
G1 X53.068 Y46.539 E20.30505
G1 X53.329 Y46.807 F7800
G1 F1800
G1 X53.316 Y46.82 E20.306
G1 X52.743 Y47.529 E20.35069
G1 X52.258 Y48.3 E20.39537
G1 X51.868 Y49.123 E20.44005
G1 X44.035 Y70.773 E21.56978
G1 X43.612 Y72.25 E21.64516
G1 X43.385 Y73.62 E21.71328
G1 X43.31 Y74.991 E21.78066
G1 X43.319 Y125.477 E24.25785
G1 X43.541 Y127.409 E24.35327
G1 X43.999 Y129.125 E24.44043
G1 X51.94 Y151.05 E25.5846
G1 X52.666 Y152.361 E25.6581
G1 X53.631 Y153.506 E25.73161
G1 X54.801 Y154.442 E25.80511
G1 X56.123 Y155.132 E25.87828
G1 X57.614 Y155.564 E25.95446
G1 X101.792 Y163.497 E28.15677
G1 X103.139 Y163.661 E28.22337
G1 X104.524 Y163.679 E28.29135
G1 X105.655 Y163.582 E28.34705
G1 X106.653 Y163.41 E28.39674
G1 X143.164 Y155.379 E30.23104
G1 X143.984 Y155.088 E30.27371
G1 X144.759 Y154.709 E30.31604
G1 X145.492 Y154.242 E30.35871
G1 X146.163 Y153.699 E30.40105
G1 X146.774 Y153.08 E30.44372
G1 X147.31 Y152.396 E30.48639
G1 X147.766 Y151.655 E30.52906
G1 X148.133 Y150.874 E30.57139
G1 X148.401 Y150.09 E30.61205
G1 X148.584 Y149.275 E30.65304
G1 X156.512 Y102.121 E32.99922
G1 X156.651 Y100.996 E33.05481
G1 X156.69 Y100.003 E33.10359
G1 X156.651 Y99.004 E33.15266
G1 X156.508 Y97.86 E33.20922
G1 X148.58 Y50.7 E35.55569
G1 X148.176 Y49.236 E35.6302
G1 X147.815 Y48.437 E35.67321
G1 X147.362 Y47.679 E35.71655
G1 X146.824 Y46.978 E35.75989
G1 X146.21 Y46.343 E35.80323
G1 X145.527 Y45.783 E35.84657
G1 X144.784 Y45.305 E35.88991
G1 X143.991 Y44.915 E35.93325
G1 X143.159 Y44.619 E35.97659
G1 X106.68 Y36.596 E37.80929
G1 X105.398 Y36.387 E37.87301
G1 X104.051 Y36.31 E37.93924
G1 X102.885 Y36.359 E37.9965
G1 X101.85 Y36.493 E38.04768
G1 X57.17 Y44.531 E40.2752
G1 X56.3 Y44.799 E40.31988
G1 X55.467 Y45.169 E40.36456
G1 X54.69 Y45.631 E40.40891
G1 X53.968 Y46.185 E40.4536
G1 X53.372 Y46.765 E40.49438
G1 X53.633 Y47.033 F7800
G1 F1800
G1 X53.602 Y47.064 E40.49655
G1 X53.055 Y47.738 E40.53914
G1 X52.592 Y48.473 E40.58174
G1 X52.219 Y49.257 E40.62433
G1 X44.39 Y70.896 E41.75345
G1 X43.978 Y72.334 E41.82687
G1 X43.758 Y73.664 E41.89299
G1 X43.685 Y74.991 E41.95822
G1 X43.694 Y125.454 E44.43426
G1 X43.909 Y127.334 E44.52711
G1 X44.356 Y129.008 E44.61211
G1 X52.276 Y150.881 E45.75354
G1 X52.964 Y152.132 E45.82359
G1 X53.881 Y153.225 E45.89364
G1 X54.994 Y154.12 E45.96368
G1 X56.259 Y154.782 E46.03373
G1 X57.681 Y155.195 E46.10639
G1 X101.86 Y163.127 E48.30879
G1 X103.161 Y163.286 E48.3731
G1 X104.492 Y163.305 E48.43842
G1 X105.609 Y163.209 E48.49342
G1 X106.574 Y163.043 E48.54143
G1 X143.039 Y155.025 E50.37341
G1 X143.814 Y154.752 E50.41372
G1 X144.559 Y154.391 E50.45435
G1 X145.258 Y153.947 E50.49498
G1 X145.898 Y153.432 E50.53528
G1 X146.476 Y152.849 E50.57559
G1 X146.989 Y152.199 E50.61622
G1 X147.426 Y151.495 E50.65685
G1 X147.78 Y150.746 E50.69748
G1 X148.213 Y149.213 E50.77568
G1 X156.141 Y102.061 E53.12175
G1 X156.315 Y100.006 E53.22292
G1 X156.139 Y97.929 E53.32522
G1 X148.21 Y50.769 E55.67167
G1 X147.829 Y49.379 E55.74237
G1 X147.483 Y48.612 E55.78366
G1 X147.051 Y47.89 E55.82494
G1 X146.535 Y47.218 E55.86656
G1 X145.949 Y46.614 E55.90784
G1 X145.292 Y46.077 E55.94946
G1 X144.583 Y45.623 E55.99074
G1 X143.827 Y45.254 E56.03203
G1 X143.034 Y44.974 E56.07332
G1 X106.604 Y36.964 E57.90354
G1 X105.36 Y36.761 E57.96536
G1 X104.052 Y36.686 E58.02964
G1 X102.915 Y36.733 E58.0855
G1 X101.909 Y36.864 E58.13525
G1 X57.274 Y44.892 E60.36049
G1 X56.45 Y45.144 E60.40275
G1 X55.656 Y45.494 E60.44535
G1 X54.909 Y45.936 E60.48795
G1 X54.219 Y46.464 E60.53054
G1 X53.676 Y46.992 E60.5677
G1 X53.937 Y47.261 F7800
G1 F1800
G1 X53.889 Y47.307 E60.57098
G1 X53.367 Y47.948 E60.61151
G1 X52.926 Y48.646 E60.65204
G1 X52.57 Y49.391 E60.69257
G1 X44.747 Y71.012 E61.82075
G1 X44.345 Y72.412 E61.8922
G1 X44.132 Y73.701 E61.95632
G1 X44.061 Y74.991 E62.01972
G1 X44.069 Y125.425 E64.49432
G1 X44.278 Y127.265 E64.58522
G1 X44.713 Y128.89 E64.66772
G1 X52.614 Y150.714 E65.80657
G1 X53.264 Y151.906 E65.8732
G1 X54.135 Y152.948 E65.93983
G1 X55.186 Y153.797 E66.00615
G1 X56.388 Y154.429 E66.07278
G1 X57.754 Y154.826 E66.14259
G1 X101.922 Y162.757 E68.34442
G1 X103.177 Y162.911 E68.40646
G1 X104.461 Y162.93 E68.46947
G1 X106.494 Y162.676 E68.56998
G1 X142.916 Y154.669 E70.39975
G1 X143.659 Y154.409 E70.43837
G1 X144.367 Y154.067 E70.47698
G1 X145.028 Y153.651 E70.51528
G1 X145.641 Y153.158 E70.5539
G1 X146.191 Y152.604 E70.5922
G1 X146.679 Y151.987 E70.63081
G1 X147.094 Y151.318 E70.66943
G1 X147.428 Y150.613 E70.70773
G1 X147.843 Y149.15 E70.7823
G1 X155.771 Y101.994 E73.12858
G1 X155.939 Y100.003 E73.22664
G1 X155.769 Y97.991 E73.32572
G1 X147.84 Y50.831 E75.67218
G1 X147.483 Y49.527 E75.7385
G1 X147.153 Y48.791 E75.77807
G1 X146.742 Y48.105 E75.81733
G1 X146.252 Y47.465 E75.8569
G1 X145.695 Y46.89 E75.89615
G1 X145.075 Y46.384 E75.93541
G1 X144.396 Y45.949 E75.97498
G1 X143.671 Y45.596 E76.01456
G1 X142.916 Y45.331 E76.05381
G1 X106.527 Y37.332 E77.88194
G1 X105.322 Y37.134 E77.94187
G1 X104.053 Y37.061 E78.0042
G1 X102.945 Y37.108 E78.05864
G1 X101.975 Y37.234 E78.10663
G1 X57.382 Y45.252 E80.32975
G1 X56.592 Y45.492 E80.37028
G1 X55.841 Y45.822 E80.41049
G1 X55.13 Y46.241 E80.45102
G1 X54.478 Y46.737 E80.49123
G1 X53.98 Y47.219 E80.52522
G1 X54.24 Y47.489 F7800
G1 F1800
G1 X54.168 Y47.558 E80.53015
G1 X53.676 Y48.161 E80.56832
G1 X53.259 Y48.818 E80.6065
G1 X52.921 Y49.526 E80.64499
G1 X45.102 Y71.135 E81.77255
G1 X44.711 Y72.496 E81.84202
G1 X44.505 Y73.745 E81.90413
G1 X44.437 Y74.991 E81.96539
G1 X44.443 Y125.396 E84.4386
G1 X44.646 Y127.189 E84.52711
G1 X45.067 Y128.766 E84.60719
G1 X52.952 Y150.549 E85.7439
G1 X53.563 Y151.677 E85.80685
G1 X54.387 Y152.669 E85.8701
G1 X55.383 Y153.477 E85.93304
G1 X56.523 Y154.078 E85.99629
G1 X57.821 Y154.457 E86.06263
G1 X101.985 Y162.386 E88.26423
G1 X103.2 Y162.536 E88.32432
G1 X104.431 Y162.555 E88.38474
G1 X106.421 Y162.307 E88.4831
G1 X142.788 Y154.315 E90.31014
G1 X144.162 Y153.752 E90.38296
G1 X145.373 Y152.894 E90.45579
G1 X146.361 Y151.787 E90.52861
G1 X147.077 Y150.48 E90.60174
G1 X147.473 Y149.088 E90.67272
G1 X155.4 Y101.934 E93.01887
G1 X155.563 Y100.006 E93.11384
G1 X155.398 Y98.053 E93.21001
G1 X147.47 Y50.898 E95.5562
G1 X147.135 Y49.667 E95.61884
G1 X146.821 Y48.968 E95.65639
G1 X146.432 Y48.316 E95.69364
G1 X145.971 Y47.714 E95.73089
G1 X145.438 Y47.164 E95.76844
G1 X144.845 Y46.681 E95.806
G1 X144.199 Y46.269 E95.84355
G1 X143.51 Y45.936 E95.88111
G1 X142.793 Y45.686 E95.91836
G1 X106.45 Y37.699 E97.74414
G1 X105.283 Y37.508 E97.80219
G1 X104.055 Y37.437 E97.86255
G1 X102.041 Y37.604 E97.96172
G1 X57.488 Y45.613 E100.18283
G1 X56.743 Y45.837 E100.22101
G1 X56.024 Y46.15 E100.25949
G1 X55.352 Y46.544 E100.29767
G1 X54.732 Y47.014 E100.33585
G1 X54.283 Y47.447 E100.36646
G1 X54.585 Y47.725 F7800
G1 F1800
G1 X53.986 Y48.374 E100.4098
G1 X53.271 Y49.661 E100.482
G1 X45.457 Y71.258 E101.60894
G1 X45.077 Y72.58 E101.67642
G1 X44.878 Y73.788 E101.73652
G1 X44.812 Y74.992 E101.79565
G1 X44.818 Y125.375 E104.26779
G1 X45.015 Y127.121 E104.354
G1 X45.424 Y128.648 E104.43155
G1 X53.291 Y150.387 E105.56592
G1 X53.867 Y151.456 E105.62553
G1 X54.642 Y152.392 E105.68514
G1 X55.584 Y153.159 E105.74475
G1 X56.658 Y153.727 E105.80436
G1 X57.888 Y154.087 E105.86727
G1 X102.053 Y162.017 E108.06893
G1 X103.223 Y162.161 E108.12677
G1 X104.402 Y162.181 E108.18463
G1 X106.341 Y161.94 E108.28049
G1 X142.668 Y153.959 E110.10549
G1 X143.969 Y153.429 E110.1744
G1 X145.117 Y152.62 E110.2433
G1 X146.052 Y151.573 E110.3122
G1 X146.728 Y150.341 E110.38111
G1 X147.099 Y149.044 E110.44732
G1 X155.026 Y101.895 E112.79322
G1 X155.188 Y100.003 E112.88642
G1 X155.028 Y98.115 E112.97938
G1 X147.1 Y50.96 E115.32562
G1 X146.785 Y49.805 E115.38433
G1 X146.121 Y48.527 E115.45503
G1 X145.179 Y47.436 E115.52573
G1 X144.01 Y46.594 E115.59643
G1 X142.672 Y46.042 E115.66743
G1 X106.368 Y38.066 E117.49125
G1 X105.238 Y37.881 E117.5474
G1 X104.05 Y37.812 E117.60581
G1 X102.106 Y37.974 E117.70151
G1 X57.591 Y45.975 E119.92071
G1 X56.209 Y46.478 E119.99291
G1 X54.984 Y47.293 E120.06511
G1 X54.625 Y47.681 E120.09102
; INIT printing object SupportEpaper400x300_V4-cadre epaper (Meshed)_V1.stl id:0 copy 0
G92 E0
G1 E-2 F2400
; printing object SupportEpaper400x300_V4-cadre epaper (Meshed)_V1.stl id:0 copy 0
G1 X141.504 Y98.559 F7800
G1 E0 F2400
;TYPE:Internal perimeter
;WIDTH:0.604
G1 F1800
G1 X141.427 Y98.702 E0.01148
G1 X141.327 Y98.92 E0.02837
G1 X141.247 Y99.147 E0.04531
G1 X141.204 Y99.304 E0.05679
G1 X141.171 Y99.45 E0.06738
G1 X141.146 Y99.6 E0.07806
G1 X141.129 Y99.749 E0.08864
G1 X141.12 Y99.9 E0.09932
G1 X141.119 Y100.05 E0.1099
G1 X141.125 Y100.201 E0.12053
G1 X141.14 Y100.351 E0.13116
G1 X141.162 Y100.5 E0.1418
G1 X141.195 Y100.66 E0.15328
G1 X141.255 Y100.879 E0.16931
G1 X141.31 Y101.033 E0.18079
G1 X141.372 Y101.183 E0.19228
G1 X141.474 Y101.387 E0.20831
G1 X141.557 Y101.528 E0.21985
G1 X141.646 Y101.663 E0.23128
G1 X141.784 Y101.843 E0.24729
G1 X141.892 Y101.965 E0.25878
G1 X141.998 Y102.073 E0.26942
G1 X142.109 Y102.175 E0.28005
G1 X142.235 Y102.278 E0.29153
G1 X142.42 Y102.411 E0.30757
G1 X142.56 Y102.496 E0.31911
G1 X142.692 Y102.568 E0.32969
G1 X142.828 Y102.633 E0.34031
G1 X142.978 Y102.695 E0.3518
G1 X143.194 Y102.767 E0.36784
G1 X143.353 Y102.808 E0.37938
G1 X143.512 Y102.84 E0.39081
G1 X143.738 Y102.87 E0.4069
G1 X143.901 Y102.88 E0.41838
G1 X144.062 Y102.881 E0.4298
G1 X144.289 Y102.868 E0.44581
G1 X144.451 Y102.846 E0.4573
G1 X144.599 Y102.819 E0.46794
G1 X144.747 Y102.783 E0.47863
G1 X144.902 Y102.737 E0.49006
G1 X145.126 Y102.653 E0.50693
G1 X145.343 Y102.55 E0.52381
G1 X145.485 Y102.47 E0.53535
G1 X145.612 Y102.389 E0.54594
G1 X145.735 Y102.301 E0.55662
G1 X145.852 Y102.207 E0.5672
G1 X145.965 Y102.108 E0.57782
G1 X146.082 Y101.993 E0.58932
G1 X146.233 Y101.822 E0.6054
G1 X146.331 Y101.694 E0.61683
G1 X146.417 Y101.57 E0.62745
G1 X146.496 Y101.441 E0.6381
G1 X146.568 Y101.307 E0.64879
G1 X146.633 Y101.172 E0.65937
G1 X146.695 Y101.021 E0.67086
G1 X146.767 Y100.805 E0.68694
G1 X146.808 Y100.648 E0.69836
G1 X146.84 Y100.488 E0.70985
G1 X146.87 Y100.262 E0.72593
G1 X146.88 Y100.1 E0.73736
G1 X146.881 Y99.938 E0.74883
G1 X146.867 Y99.711 E0.76487
G1 X146.846 Y99.548 E0.77641
G1 X146.819 Y99.401 E0.78699
G1 X146.784 Y99.254 E0.79761
G1 X146.737 Y99.098 E0.8091
G1 X146.658 Y98.885 E0.82512
G1 X146.59 Y98.737 E0.83661
G1 X146.52 Y98.603 E0.84724
G1 X146.444 Y98.473 E0.85788
G1 X146.354 Y98.337 E0.86937
G1 X146.215 Y98.156 E0.88545
G1 X146.107 Y98.035 E0.89688
G1 X146.002 Y97.927 E0.90751
G1 X145.891 Y97.825 E0.91814
G1 X145.765 Y97.722 E0.92963
G1 X145.58 Y97.589 E0.94565
G1 X145.441 Y97.504 E0.95714
G1 X145.308 Y97.432 E0.96777
G1 X145.172 Y97.367 E0.9784
G1 X145.033 Y97.31 E0.98904
G1 X144.89 Y97.259 E0.99967
G1 X144.734 Y97.213 E1.01116
G1 X144.501 Y97.161 E1.02803
G1 X144.263 Y97.13 E1.04491
G1 X144.101 Y97.12 E1.05639
G1 X143.938 Y97.119 E1.06788
G1 X143.711 Y97.132 E1.0839
G1 X143.549 Y97.154 E1.09539
G1 X143.401 Y97.181 E1.10602
G1 X143.254 Y97.217 E1.11667
G1 X143.109 Y97.26 E1.12736
G1 X142.967 Y97.31 E1.13794
G1 X142.817 Y97.372 E1.14942
G1 X142.612 Y97.474 E1.16552
G1 X142.472 Y97.557 E1.17701
G1 X142.346 Y97.64 E1.18765
G1 X142.225 Y97.73 E1.19827
G1 X142.1 Y97.833 E1.2097
G1 X141.926 Y97.998 E1.22663
G1 X141.767 Y98.178 E1.24352
G1 X141.668 Y98.307 E1.25499
G1 X141.583 Y98.431 E1.26556
G1 X141.536 Y98.508 E1.27195
G1 X141.996 Y98.79 F7800
G1 F1800
G1 X141.972 Y98.829 E1.27519
G1 X141.91 Y98.943 E1.28435
G1 X141.828 Y99.123 E1.29824
G1 X141.762 Y99.309 E1.31219
G1 X141.727 Y99.434 E1.32134
G1 X141.701 Y99.553 E1.32994
G1 X141.681 Y99.675 E1.33863
G1 X141.667 Y99.796 E1.34722
G1 X141.659 Y99.919 E1.35591
G1 X141.658 Y100.041 E1.3645
G1 X141.664 Y100.163 E1.37314
G1 X141.676 Y100.285 E1.38178
G1 X141.694 Y100.407 E1.39042
G1 X141.72 Y100.534 E1.39958
G1 X141.77 Y100.717 E1.41295
G1 X141.814 Y100.839 E1.42211
G1 X141.863 Y100.959 E1.43127
G1 X141.948 Y101.129 E1.44465
G1 X142.014 Y101.242 E1.45386
G1 X142.086 Y101.349 E1.46297
G1 X142.201 Y101.5 E1.47633
G1 X142.287 Y101.597 E1.48549
G1 X142.373 Y101.685 E1.49413
G1 X142.464 Y101.767 E1.50278
G1 X142.564 Y101.85 E1.51194
G1 X142.718 Y101.96 E1.52531
G1 X142.83 Y102.029 E1.53452
G1 X142.937 Y102.087 E1.54311
G1 X143.047 Y102.139 E1.55175
G1 X143.168 Y102.189 E1.56091
G1 X143.347 Y102.249 E1.57429
G1 X143.474 Y102.282 E1.5835
G1 X143.601 Y102.308 E1.59261
G1 X143.789 Y102.333 E1.60603
G1 X143.919 Y102.341 E1.61519
G1 X144.048 Y102.342 E1.62429
G1 X144.238 Y102.33 E1.63766
G1 X144.366 Y102.313 E1.64682
G1 X144.487 Y102.291 E1.65547
G1 X144.607 Y102.262 E1.66416
G1 X144.731 Y102.225 E1.67327
G1 X144.915 Y102.156 E1.68715
G1 X145.093 Y102.071 E1.70104
G1 X145.207 Y102.007 E1.71026
G1 X145.31 Y101.941 E1.71885
G1 X145.41 Y101.87 E1.72754
G1 X145.505 Y101.794 E1.73613
G1 X145.597 Y101.713 E1.74477
G1 X145.69 Y101.622 E1.75394
G1 X145.816 Y101.479 E1.76736
G1 X145.895 Y101.376 E1.77646
G1 X145.964 Y101.276 E1.7851
G1 X146.028 Y101.171 E1.79375
G1 X146.087 Y101.062 E1.80244
G1 X146.139 Y100.952 E1.81103
G1 X146.189 Y100.832 E1.8202
G1 X146.25 Y100.652 E1.83361
G1 X146.282 Y100.527 E1.84272
