; generated by Slic3r 1.2.9 on 2022-08-08 at 21:47:14

; external perimeters extrusion width = 0.40mm
; perimeters extrusion width = 0.67mm
; infill extrusion width = 0.67mm
; solid infill extrusion width = 0.67mm
; top infill extrusion width = 0.67mm
; support material extrusion width = 0.40mm

M190 S50 ; set bed temperature
M104 S200 ; set temperature
G28 ; home all axes
G1 Z5 F5000 ; lift nozzle

M109 S200 ; wait for temperature to be reached
G21 ; set units to millimeters
G90 ; use absolute coordinates
M82 ; use absolute distances for extrusion
G92 E0
G1 Z0.200 F1800.000
G1 E-3.00000 F2400.00000
G92 E0
G1 X61.252 Y52.119 F1800.000
G1 E3.00000 F2400.00000
G1 X61.960 Y51.312 E3.02255 F1800.000
G1 X62.801 Y50.410 E3.04845
G1 X63.497 Y49.707 E3.06922
G1 X64.272 Y48.964 E3.09178
G1 X65.189 Y48.139 E3.11767
G1 X65.943 Y47.499 E3.13845
G1 X66.780 Y46.827 E3.16100
G1 X67.765 Y46.085 E3.18690
G1 X68.572 Y45.514 E3.20767
G1 X69.465 Y44.917 E3.23023
G1 X70.511 Y44.263 E3.25613
G1 X71.438 Y43.722 E3.27869
G1 X72.523 Y43.134 E3.30461
G1 X73.481 Y42.651 E3.32715
G1 X74.599 Y42.129 E3.35305
G1 X75.586 Y41.706 E3.37561
G1 X76.733 Y41.254 E3.40151
G1 X77.744 Y40.891 E3.42407
G1 X78.916 Y40.510 E3.44997
G1 X79.948 Y40.209 E3.47253
G1 X81.143 Y39.900 E3.49845
G1 X82.189 Y39.663 E3.52098
G1 X83.399 Y39.428 E3.54688
G1 X84.701 Y39.220 E3.57457
G1 X86.011 Y39.058 E3.60229
G1 X87.323 Y38.942 E3.62995
G1 X88.639 Y38.871 E3.65765
G1 X89.960 Y38.847 E3.68539
G1 X92.722 Y39.233 E3.74396
G1 X95.261 Y40.384 E3.80253 F1800.000
G1 X96.908 Y41.708 E3.84691
G1 X124.908 Y69.708 E4.67863
G1 X126.579 Y71.941 E4.73720
G1 X127.550 Y74.555 E4.79577
G1 X127.770 Y76.659 E4.84021
G1 X127.732 Y78.307 E4.87482
G1 X127.650 Y79.622 E4.90251
G1 X127.522 Y80.935 E4.93020
G1 X127.361 Y82.157 E4.95610
G1 X127.145 Y83.459 E4.98382
G1 X117.021 Y131.804 E6.02127
G1 X116.883 Y132.387 E6.03385
G1 X116.683 Y133.063 E6.04868
G1 X116.470 Y133.657 E6.06193
G1 X116.195 Y134.304 E6.07670
G1 X115.880 Y134.937 E6.09154
G1 X115.561 Y135.496 E6.10506
G1 X115.179 Y136.085 E6.11980
G1 X114.803 Y136.597 E6.13314
G1 X114.358 Y137.137 E6.14785
G1 X113.928 Y137.603 E6.16117
G1 X113.425 Y138.089 E6.17586
G1 X112.943 Y138.504 E6.18921
G1 X112.373 Y138.940 E6.20430
G1 X111.791 Y139.333 E6.21905
G1 X111.246 Y139.657 E6.23235
G1 X110.624 Y139.981 E6.24709
G1 X109.968 Y140.273 E6.26217
G1 X108.985 Y140.627 E6.28412
G1 X108.491 Y140.768 E6.29491
G1 X107.908 Y140.905 E6.30748
G1 X106.877 Y141.073 E6.32942
G1 X106.281 Y141.128 E6.34199
G1 X105.768 Y141.150 E6.35277
G1 X76.210 Y141.153 E6.97361
G1 X75.492 Y141.129 E6.98870
G1 X74.859 Y141.070 E7.00206
G1 X74.151 Y140.964 E7.01710
G1 X73.448 Y140.814 E7.03218
G1 X72.772 Y140.627 E7.04693
G1 X72.092 Y140.393 E7.06203
G1 X71.496 Y140.149 E7.07557
G1 X70.856 Y139.843 E7.09045
G1 X70.243 Y139.503 E7.10519
G1 X69.636 Y139.117 E7.12029
G1 X69.055 Y138.695 E7.13538
G1 X68.562 Y138.292 E7.14875
G1 X68.046 Y137.820 E7.16342
G1 X67.548 Y137.305 E7.17849
G1 X67.133 Y136.824 E7.19183
G1 X66.696 Y136.253 E7.20694
G1 X66.304 Y135.672 E7.22166
G1 X65.939 Y135.053 E7.23674
G1 X65.611 Y134.412 E7.25186
G1 X65.318 Y133.737 E7.26732
G1 X65.073 Y133.061 E7.28242
G1 X64.848 Y132.290 E7.29930
G1 X53.284 Y85.475 E8.31215
G1 X52.932 Y83.864 E8.34678
G1 X52.651 Y82.241 E8.38138
G1 X52.441 Y80.606 E8.41601
G1 X52.298 Y78.880 E8.45239
G1 X52.232 Y76.995 E8.49200
G1 X52.252 Y75.340 E8.52676
G1 X52.350 Y73.611 E8.56314
G1 X52.548 Y71.729 E8.60289
G1 X52.811 Y70.016 E8.63929
G1 X53.189 Y68.161 E8.67906
G1 X53.615 Y66.482 E8.71544
G1 X54.169 Y64.672 E8.75519
G1 X54.754 Y63.041 E8.79158
G1 X55.478 Y61.293 E8.83132
G1 X56.218 Y59.726 E8.86773
G1 X57.106 Y58.054 E8.90748
G1 X57.992 Y56.566 E8.94387
G1 X59.036 Y54.987 E8.98362
G1 X60.061 Y53.590 E9.02002
G1 X61.214 Y52.165 E9.05851
G1 X61.693 Y52.571 F1800.000
G1 X62.372 Y51.793 E9.08020 F1800.000
G1 X63.086 Y51.021 E9.10228
G1 X63.939 Y50.153 E9.12784
G1 X64.699 Y49.426 E9.14994
G1 X65.603 Y48.612 E9.17549
G1 X66.345 Y47.982 E9.19592
G1 X67.165 Y47.324 E9.21801
G1 X68.137 Y46.592 E9.24357
G1 X68.996 Y45.985 E9.26566
G1 X70.010 Y45.313 E9.29123
G1 X70.905 Y44.760 E9.31332
G1 X71.959 Y44.151 E9.33887
G1 X72.885 Y43.653 E9.36097
G1 X73.974 Y43.110 E9.38652
G1 X74.930 Y42.670 E9.40862
G1 X75.823 Y42.287 E9.42905
G1 X76.955 Y41.841 E9.45460
G1 X77.946 Y41.486 E9.47670
G1 X79.103 Y41.110 E9.50225
G1 X80.113 Y40.815 E9.52435
G1 X81.292 Y40.510 E9.54993
G1 X82.550 Y40.230 E9.57701
G1 X83.590 Y40.032 E9.59924
G1 X84.791 Y39.842 E9.62479
G1 X86.079 Y39.683 E9.65205
G1 X87.369 Y39.568 E9.67925
G1 X88.664 Y39.499 E9.70648
G1 X89.963 Y39.475 E9.73376
G1 X92.632 Y39.862 E9.79041
G1 X95.072 Y41.011 E9.84705 F1800.000
G1 X96.464 Y42.153 E9.88488
G1 X124.464 Y70.153 E10.71659
G1 X126.069 Y72.320 E10.77324
G1 X126.971 Y74.861 E10.82988
G1 X127.142 Y76.657 E10.86776
G1 X127.128 Y77.629 E10.88818
G1 X127.089 Y78.600 E10.90860
G1 X127.004 Y79.814 E10.93416
G1 X126.870 Y81.103 E10.96139
G1 X126.728 Y82.146 E10.98349
G1 X126.512 Y83.424 E11.01072
G1 X116.407 Y131.675 E12.04616
G1 X116.276 Y132.227 E12.05807
G1 X116.086 Y132.866 E12.07208
G1 X115.884 Y133.429 E12.08465
G1 X115.624 Y134.041 E12.09861
G1 X115.327 Y134.640 E12.11266
G1 X115.024 Y135.170 E12.12547
G1 X114.663 Y135.727 E12.13941
G1 X114.307 Y136.212 E12.15206
G1 X113.885 Y136.723 E12.16597
G1 X113.477 Y137.164 E12.17859
G1 X113.002 Y137.624 E12.19247
G1 X112.545 Y138.017 E12.20513
G1 X112.006 Y138.431 E12.21941
G1 X111.455 Y138.802 E12.23336
G1 X110.939 Y139.109 E12.24597
G1 X110.351 Y139.415 E12.25990
G1 X109.730 Y139.692 E12.27418
G1 X108.798 Y140.026 E12.29497
G1 X107.780 Y140.290 E12.31706
G1 X106.803 Y140.449 E12.33785
G1 X105.755 Y140.522 E12.35993
G1 X76.213 Y140.525 E12.98043
G1 X75.612 Y140.507 E12.99304
G1 X74.952 Y140.449 E13.00697
G1 X74.347 Y140.361 E13.01981
G1 X73.691 Y140.226 E13.03388
G1 X73.034 Y140.050 E13.04816
G1 X72.405 Y139.839 E13.06210
G1 X71.838 Y139.613 E13.07492
G1 X71.230 Y139.329 E13.08901
G1 X70.632 Y139.003 E13.10331
G1 X70.056 Y138.643 E13.11758
G1 X69.516 Y138.257 E13.13153
G1 X68.987 Y137.830 E13.14580
G1 X68.538 Y137.421 E13.15857
G1 X68.063 Y136.937 E13.17280
G1 X67.620 Y136.426 E13.18701
G1 X67.206 Y135.886 E13.20132
G1 X66.835 Y135.336 E13.21523
G1 X66.490 Y134.751 E13.22951
G1 X66.180 Y134.144 E13.24383
G1 X65.902 Y133.504 E13.25848
G1 X65.669 Y132.864 E13.27277
G1 X65.457 Y132.135 E13.28873
G1 X53.894 Y85.326 E14.30146
G1 X53.548 Y83.742 E14.33552
G1 X53.272 Y82.145 E14.36954
G1 X53.066 Y80.537 E14.40360
G1 X52.925 Y78.844 E14.43928
G1 X52.860 Y76.979 E14.47848
G1 X52.883 Y75.281 E14.51416
G1 X52.996 Y73.418 E14.55336
G1 X53.181 Y71.729 E14.58904
G1 X53.473 Y69.887 E14.62821
G1 X53.802 Y68.299 E14.66227
G1 X54.220 Y66.653 E14.69795
G1 X54.765 Y64.869 E14.73713
G1 X55.340 Y63.269 E14.77283
G1 X56.053 Y61.546 E14.81200
G1 X56.779 Y60.008 E14.84771
G1 X57.654 Y58.361 E14.88689
G1 X58.523 Y56.901 E14.92259
G1 X59.553 Y55.346 E14.96176
G1 X60.558 Y53.975 E14.99747
G1 X61.654 Y52.617 E15.03413
G1 X62.134 Y53.023 F1800.000
G1 X62.841 Y52.212 E15.05673 F1800.000
G1 X63.540 Y51.456 E15.07835
G1 X64.381 Y50.599 E15.10357
G1 X65.125 Y49.887 E15.12520
G1 X66.017 Y49.084 E15.15041
G1 X66.746 Y48.465 E15.17050
G1 X67.549 Y47.821 E15.19212
G1 X68.508 Y47.099 E15.21733
G1 X69.349 Y46.504 E15.23897
G1 X70.350 Y45.842 E15.26418
G1 X71.226 Y45.300 E15.28582
G1 X72.266 Y44.699 E15.31103
G1 X73.173 Y44.212 E15.33266
G1 X74.247 Y43.676 E15.35787
G1 X75.115 Y43.275 E15.37795
G1 X76.061 Y42.869 E15.39959
G1 X77.178 Y42.429 E15.42480
G1 X78.148 Y42.081 E15.44643
G1 X79.289 Y41.710 E15.47164
G1 X80.278 Y41.421 E15.49328
G1 X81.441 Y41.121 E15.51851
G1 X82.678 Y40.845 E15.54513
G1 X83.696 Y40.652 E15.56690
G1 X84.882 Y40.464 E15.59211
G1 X86.148 Y40.307 E15.61890
G1 X87.416 Y40.195 E15.64564
G1 X88.689 Y40.127 E15.67242
G1 X89.965 Y40.103 E15.69923
G1 X92.538 Y40.491 E15.75389
G1 X94.874 Y41.637 E15.80854 F1800.000
G1 X96.020 Y42.597 E15.83993
G1 X124.020 Y70.597 E16.67165
G1 X125.557 Y72.696 E16.72630
G1 X126.388 Y75.162 E16.78095
G1 X126.513 Y76.654 E16.81240
G1 X126.500 Y77.610 E16.83248
G1 X126.447 Y78.810 E16.85771
G1 X126.349 Y80.075 E16.88436
G1 X126.237 Y81.103 E16.90609
G1 X126.069 Y82.292 E16.93130
G1 X125.895 Y83.307 E16.95294
G1 X115.792 Y131.546 E17.98813
G1 X115.668 Y132.067 E17.99937
G1 X115.490 Y132.669 E18.01257
G1 X115.299 Y133.202 E18.02445
G1 X115.054 Y133.778 E18.03761
G1 X114.773 Y134.343 E18.05086
G1 X114.487 Y134.844 E18.06297
G1 X114.146 Y135.368 E18.07611
G1 X113.810 Y135.827 E18.08806
G1 X113.413 Y136.309 E18.10116
G1 X113.027 Y136.726 E18.11310
G1 X112.577 Y137.161 E18.12625
G1 X112.091 Y137.577 E18.13968
G1 X111.639 Y137.921 E18.15162
G1 X111.120 Y138.270 E18.16475
G1 X110.632 Y138.560 E18.17667
G1 X110.078 Y138.849 E18.18980
G1 X109.492 Y139.110 E18.20327
G1 X108.612 Y139.426 E18.22291
G1 X107.652 Y139.675 E18.24374
G1 X106.664 Y139.832 E18.26475
G1 X105.723 Y139.894 E18.28456
G1 X76.253 Y139.897 E18.90355
G1 X75.666 Y139.880 E18.91590
G1 X75.100 Y139.833 E18.92781
G1 X74.465 Y139.744 E18.94128
G1 X73.852 Y139.619 E18.95443
G1 X73.299 Y139.473 E18.96644
G1 X72.692 Y139.275 E18.97984
G1 X72.096 Y139.040 E18.99331
G1 X71.529 Y138.775 E19.00645
G1 X70.964 Y138.469 E19.01994
G1 X70.420 Y138.130 E19.03342
G1 X69.896 Y137.757 E19.04692
G1 X69.397 Y137.354 E19.06039
G1 X68.972 Y136.968 E19.07245
G1 X68.525 Y136.511 E19.08588
G1 X68.106 Y136.029 E19.09929
G1 X67.716 Y135.518 E19.11279
G1 X67.367 Y135.001 E19.12590
G1 X67.040 Y134.449 E19.13938
G1 X66.749 Y133.878 E19.15282
G1 X66.485 Y133.271 E19.16673
G1 X66.266 Y132.668 E19.18022
G1 X66.066 Y131.980 E19.19525
G1 X54.504 Y85.177 E20.20787
G1 X54.165 Y83.619 E20.24135
G1 X53.893 Y82.050 E20.27480
G1 X53.691 Y80.469 E20.30828
G1 X53.553 Y78.809 E20.34327
G1 X53.489 Y76.971 E20.38189
G1 X53.510 Y75.305 E20.41688
G1 X53.623 Y73.470 E20.45551
G1 X53.804 Y71.814 E20.49050
G1 X54.091 Y69.999 E20.52909
G1 X54.415 Y68.438 E20.56257
G1 X54.825 Y66.823 E20.59757
G1 X55.362 Y65.065 E20.63617
G1 X55.925 Y63.497 E20.67118
G1 X56.628 Y61.799 E20.70977
G1 X57.340 Y60.291 E20.74479
G1 X58.203 Y58.668 E20.78340
G1 X59.055 Y57.236 E20.81841
G1 X60.069 Y55.704 E20.85700
G1 X61.055 Y54.359 E20.89202
G1 X62.095 Y53.068 E20.92684
G1 X62.575 Y53.474 F1800.000
G1 X63.310 Y52.630 E20.95036 F1800.000
G1 X63.994 Y51.890 E20.97152
G1 X64.824 Y51.046 E20.99639
G1 X65.552 Y50.349 E21.01756
G1 X66.431 Y49.557 E21.04242
G1 X67.148 Y48.949 E21.06216
G1 X67.934 Y48.318 E21.08333
G1 X68.880 Y47.605 E21.10820
G1 X69.703 Y47.023 E21.12937
G1 X70.690 Y46.370 E21.15424
G1 X71.547 Y45.840 E21.17541
G1 X72.573 Y45.248 E21.20028
G1 X73.400 Y44.802 E21.22003
G1 X74.300 Y44.348 E21.24119
G1 X75.373 Y43.848 E21.26605
G1 X76.299 Y43.450 E21.28723
G1 X77.401 Y43.016 E21.31209
G1 X78.350 Y42.676 E21.33327
G1 X79.475 Y42.310 E21.35813
G1 X80.443 Y42.028 E21.37931
G1 X81.590 Y41.731 E21.40419
G1 X82.806 Y41.460 E21.43035
G1 X83.803 Y41.271 E21.45166
G1 X84.972 Y41.086 E21.47652
G1 X86.216 Y40.932 E21.50285
G1 X87.462 Y40.822 E21.52914
G1 X88.713 Y40.755 E21.55545
G1 X89.968 Y40.732 E21.58180
G1 X92.441 Y41.119 E21.63439
G1 X95.576 Y43.041 E21.71161 F1800.000
G1 X123.576 Y71.041 E22.54333
G1 X125.042 Y73.070 E22.59591
G1 X125.885 Y76.651 E22.67318
G1 X125.837 Y78.460 E22.71120
G1 X125.716 Y80.090 E22.74553
G1 X125.496 Y81.887 E22.78355
G1 X125.219 Y83.498 E22.81788
G1 X115.177 Y131.417 E23.84624
G1 X115.060 Y131.907 E23.85682
G1 X114.893 Y132.472 E23.86920
G1 X114.713 Y132.974 E23.88039
G1 X114.483 Y133.515 E23.89274
G1 X114.219 Y134.047 E23.90521
G1 X113.950 Y134.518 E23.91661
G1 X113.630 Y135.010 E23.92894
G1 X113.313 Y135.443 E23.94020
G1 X112.941 Y135.894 E23.95250
G1 X112.577 Y136.287 E23.96374
G1 X112.154 Y136.696 E23.97609
G1 X111.698 Y137.087 E23.98872
G1 X111.272 Y137.411 E23.99996
G1 X110.785 Y137.739 E24.01229
G1 X110.325 Y138.012 E24.02352
G1 X109.805 Y138.283 E24.03584
G1 X109.317 Y138.503 E24.04707
G1 X108.443 Y138.821 E24.06663
G1 X107.524 Y139.059 E24.08655
G1 X106.595 Y139.208 E24.10631
G1 X105.710 Y139.266 E24.12496
G1 X76.253 Y139.268 E24.74366
G1 X75.770 Y139.257 E24.75381
G1 X75.241 Y139.216 E24.76496
G1 X74.644 Y139.136 E24.77761
G1 X74.063 Y139.023 E24.79004
G1 X73.476 Y138.870 E24.80279
G1 X72.905 Y138.684 E24.81540
G1 X72.344 Y138.463 E24.82806
G1 X71.812 Y138.214 E24.84040
G1 X71.281 Y137.927 E24.85309
G1 X70.769 Y137.607 E24.86575
G1 X70.276 Y137.257 E24.87845
G1 X69.808 Y136.878 E24.89112
G1 X69.407 Y136.514 E24.90248
G1 X68.986 Y136.085 E24.91510
G1 X68.593 Y135.631 E24.92772
G1 X68.226 Y135.151 E24.94041
G1 X67.898 Y134.666 E24.95271
G1 X67.591 Y134.146 E24.96538
G1 X67.316 Y133.608 E24.97808
G1 X67.069 Y133.038 E24.99112
G1 X66.842 Y132.406 E25.00524
G1 X66.670 Y131.809 E25.01828
G1 X55.115 Y85.027 E26.03042
G1 X54.781 Y83.497 E26.06332
G1 X54.514 Y81.954 E26.09620
G1 X54.315 Y80.401 E26.12910
G1 X54.184 Y78.840 E26.16200
G1 X54.120 Y77.208 E26.19629
G1 X54.136 Y75.398 E26.23431
G1 X54.228 Y73.767 E26.26863
G1 X54.418 Y71.967 E26.30665
G1 X54.666 Y70.351 E26.34098
G1 X55.027 Y68.577 E26.37902
G1 X55.429 Y66.994 E26.41332
G1 X55.957 Y65.269 E26.45121
G1 X56.486 Y63.789 E26.48423
G1 X57.105 Y62.276 E26.51855
G1 X57.870 Y60.636 E26.55657
G1 X58.631 Y59.189 E26.59090
G1 X59.550 Y57.629 E26.62894
G1 X60.446 Y56.263 E26.66324
G1 X61.510 Y54.798 E26.70128
G1 X62.536 Y53.520 E26.73569
G1 X63.015 Y53.926 F1800.000
G1 X63.779 Y53.048 E26.76012 F1800.000
G1 X64.448 Y52.325 E26.78082
G1 X65.266 Y51.492 E26.80535
G1 X65.978 Y50.810 E26.82606
G1 X66.846 Y50.029 E26.85058
G1 X67.550 Y49.432 E26.86997
G1 X68.319 Y48.815 E26.89068
G1 X69.251 Y48.112 E26.91520
G1 X70.057 Y47.543 E26.93591
G1 X70.824 Y47.031 E26.95530
G1 X71.815 Y46.412 E26.97982
G1 X72.666 Y45.915 E27.00054
G1 X73.687 Y45.361 E27.02494
G1 X74.516 Y44.942 E27.04445
G1 X75.408 Y44.521 E27.06516
G1 X76.479 Y44.056 E27.08969
G1 X77.623 Y43.604 E27.11552
G1 X78.552 Y43.271 E27.13624
G1 X79.662 Y42.910 E27.16076
G1 X80.609 Y42.634 E27.18147
G1 X81.740 Y42.341 E27.20601
G1 X82.701 Y42.124 E27.22671
G1 X83.847 Y41.901 E27.25123
G1 X84.820 Y41.743 E27.27194
G1 X86.040 Y41.583 E27.29779
G1 X87.509 Y41.448 E27.32877
G1 X88.738 Y41.383 E27.35462
G1 X89.970 Y41.360 E27.38051
G1 X92.340 Y41.748 E27.43094
G1 X95.131 Y43.485 E27.50000 F1800.000
G1 X123.131 Y71.485 E28.33172
G1 X124.525 Y73.441 E28.38215
G1 X125.257 Y76.648 E28.45126
G1 X125.210 Y78.430 E28.48870
G1 X125.091 Y80.027 E28.52233
G1 X124.874 Y81.797 E28.55977
G1 X124.603 Y83.375 E28.59341
G1 X114.453 Y131.747 E29.63155
G1 X114.296 Y132.276 E29.64312
G1 X114.127 Y132.746 E29.65362
G1 X113.913 Y133.252 E29.66516
G1 X113.665 Y133.750 E29.67684
G1 X113.413 Y134.192 E29.68754
G1 X113.114 Y134.652 E29.69906
G1 X112.816 Y135.058 E29.70963
G1 X112.468 Y135.480 E29.72112
G1 X112.127 Y135.849 E29.73167
G1 X111.734 Y136.229 E29.74315
G1 X111.353 Y136.557 E29.75373
G1 X110.904 Y136.901 E29.76559
G1 X110.450 Y137.208 E29.77711
G1 X110.018 Y137.464 E29.78765
G1 X109.532 Y137.717 E29.79917
G1 X109.074 Y137.923 E29.80971
G1 X108.256 Y138.221 E29.82800
G1 X107.396 Y138.444 E29.84666
G1 X106.526 Y138.583 E29.86516
G1 X105.696 Y138.638 E29.88264
G1 X76.253 Y138.640 E30.50106
G1 X75.335 Y138.594 E30.52037
G1 X74.828 Y138.530 E30.53110
G1 X74.276 Y138.426 E30.54290
G1 X73.732 Y138.290 E30.55469
G1 X73.193 Y138.120 E30.56655
G1 X72.665 Y137.916 E30.57843
G1 X72.151 Y137.682 E30.59030
G1 X71.652 Y137.416 E30.60217
G1 X71.170 Y137.120 E30.61406
G1 X70.708 Y136.795 E30.62592
G1 X70.265 Y136.443 E30.63781
G1 X69.843 Y136.061 E30.64977
G1 X69.451 Y135.661 E30.66152
G1 X69.091 Y135.247 E30.67305
G1 X68.747 Y134.800 E30.68489
G1 X68.429 Y134.330 E30.69681
G1 X68.142 Y133.844 E30.70867
G1 X67.877 Y133.325 E30.72091
G1 X67.652 Y132.806 E30.73280
G1 X67.440 Y132.214 E30.74599
G1 X67.279 Y131.654 E30.75823
G1 X55.725 Y84.878 E31.77025
G1 X55.397 Y83.374 E31.80258
G1 X55.135 Y81.859 E31.83488
G1 X54.940 Y80.332 E31.86720
G1 X54.811 Y78.799 E31.89952
G1 X54.748 Y77.200 E31.93313
G1 X54.764 Y75.417 E31.97058
G1 X54.855 Y73.819 E32.00420
